P3
# Created by GIMP version 2.10.34 PNM plug-in
256 256
255
51
43
207
51
43
207
51
43
207
51
43
207
51
43
207
51
43
207
51
43
207
51
43
207
51
43
207
51
43
207
51
43
207
51
43
207
51
43
207
51
43
207
51
43
207
51
43
207
51
43
207
51
43
207
51
43
207
51
43
207
51
43
207
51
43
207
51
43
207
51
43
207
51
43
207
51
43
207
51
43
207
51
43
207
51
43
207
51
43
207
51
43
207
51
43
207
51
43
207
51
43
207
51
43
207
51
43
207
51
43
207
51
43
207
51
43
207
51
43
207
51
43
207
51
43
207
51
43
207
51
43
207
51
43
207
51
43
207
51
43
207
51
43
207
51
43
207
51
43
207
51
43
207
51
43
207
51
43
207
51
43
207
51
43
207
51
43
207
51
43
207
51
43
207
51
43
207
51
43
207
51
43
207
51
43
207
51
43
207
51
43
207
51
43
207
51
43
207
51
43
207
51
43
207
51
43
207
51
43
207
51
43
207
51
43
207
51
43
207
51
43
207
51
43
207
51
43
207
51
43
207
51
43
207
51
43
207
51
43
207
51
43
207
51
43
207
51
43
207
51
43
207
51
43
207
51
43
207
51
43
207
51
43
207
51
43
207
51
43
207
51
43
207
51
43
207
51
43
207
51
43
207
51
43
207
51
43
207
51
43
207
51
43
207
51
43
207
51
43
207
51
43
207
51
43
207
51
43
207
51
43
207
51
43
207
51
43
207
51
43
207
51
43
207
51
43
207
51
43
207
51
43
207
51
43
207
51
43
207
51
43
207
51
43
207
51
43
207
51
43
207
51
43
207
51
43
207
51
43
207
51
43
207
51
43
207
51
43
207
51
43
207
51
43
207
51
43
207
51
43
207
51
43
207
51
43
207
51
43
207
51
43
207
51
43
207
51
43
207
51
43
207
51
43
207
51
43
207
51
43
207
51
43
207
51
43
207
51
43
207
51
43
207
51
43
207
51
43
207
51
43
207
51
43
207
51
43
207
51
43
207
51
43
207
51
43
207
51
43
207
51
43
207
51
43
207
51
43
207
51
43
207
51
43
207
51
43
207
51
43
207
51
43
207
51
43
207
51
43
207
51
43
207
51
43
207
51
43
207
51
43
207
51
43
207
51
43
207
51
43
207
51
43
207
51
43
207
51
43
207
51
43
207
51
43
207
51
43
207
51
43
207
51
43
207
51
43
207
51
43
207
51
43
207
51
43
207
51
43
207
51
43
207
51
43
207
51
43
207
51
43
207
51
43
207
51
43
207
51
43
207
51
43
207
51
43
207
51
43
207
51
43
207
51
43
207
51
43
207
51
43
207
51
43
207
51
43
207
51
43
207
51
43
207
51
43
207
51
43
207
51
43
207
51
43
207
51
43
207
51
43
207
51
43
207
51
43
207
51
43
207
51
43
207
51
43
207
51
43
207
51
43
207
51
43
207
51
43
207
51
43
207
51
43
207
51
43
207
51
43
207
51
43
207
51
43
207
51
43
207
51
43
207
51
43
207
51
43
207
51
43
207
51
43
207
51
43
207
51
43
207
51
43
207
51
43
207
51
43
207
51
43
207
51
43
207
51
43
207
51
43
207
51
43
207
51
43
207
51
43
207
51
43
207
51
43
207
51
43
207
51
43
207
51
43
207
51
43
207
51
43
207
51
43
207
51
43
207
51
43
207
51
43
207
51
43
207
51
43
207
51
43
207
51
43
207
51
43
207
51
43
207
51
43
207
51
43
207
51
43
207
51
43
207
51
43
207
51
43
207
51
43
207
51
43
207
51
43
207
51
43
207
51
43
207
51
43
207
51
43
207
51
43
207
51
43
207
51
43
207
51
43
207
51
43
207
51
43
207
51
43
207
51
43
207
51
43
207
51
43
207
51
43
207
51
43
207
51
43
207
51
43
207
51
43
207
51
43
207
51
43
207
51
43
207
51
43
207
51
43
207
51
43
207
51
43
207
51
43
207
51
43
207
51
43
207
51
43
207
51
43
207
51
43
207
51
43
207
51
43
207
51
43
207
51
43
207
51
43
207
51
43
207
51
43
207
51
43
207
51
43
207
51
43
207
51
43
207
51
43
207
51
43
207
51
43
207
51
43
207
51
43
207
51
43
207
51
43
207
51
43
207
51
43
207
51
43
207
51
43
207
51
43
207
51
43
207
51
43
207
51
43
207
51
43
207
51
43
207
51
43
207
51
43
207
51
43
207
51
43
207
51
43
207
51
43
207
51
43
207
51
43
207
51
43
207
51
43
207
51
43
207
51
43
207
51
43
207
51
43
207
51
43
207
51
43
207
51
43
207
51
43
207
51
43
207
51
43
207
51
43
207
51
43
207
51
43
207
51
43
207
51
43
207
51
43
207
51
43
207
51
43
207
51
43
207
51
43
207
51
43
207
51
43
207
51
43
207
51
43
207
51
43
207
51
43
207
51
43
207
51
43
207
51
43
207
51
43
207
51
43
207
51
43
207
51
43
207
51
43
207
51
43
207
51
43
207
51
43
207
51
43
207
51
43
207
51
43
207
51
43
207
51
43
207
51
43
207
51
43
207
51
43
207
51
43
207
51
43
207
51
43
207
51
43
207
51
43
207
51
43
207
51
43
207
51
43
207
51
43
207
51
43
207
51
43
207
51
43
207
51
43
207
51
43
207
51
43
207
51
43
207
51
43
207
51
43
207
51
43
207
51
43
207
51
43
207
51
43
207
51
43
207
51
43
207
51
43
207
51
43
207
51
43
207
51
43
207
51
43
207
51
43
207
51
43
207
51
43
207
51
43
207
51
43
207
51
43
207
51
43
207
51
43
207
51
43
207
51
43
207
51
43
207
51
43
207
51
43
207
51
43
207
51
43
207
51
43
207
51
43
207
51
43
207
51
43
207
51
43
207
51
43
207
51
43
207
51
43
207
51
43
207
51
43
207
51
43
207
51
43
207
51
43
207
51
43
207
51
43
207
51
43
207
51
43
207
51
43
207
51
43
207
51
43
207
51
43
207
51
43
207
51
43
207
51
43
207
51
43
207
51
43
207
51
43
207
51
43
207
51
43
207
51
43
207
51
43
207
51
43
207
51
43
207
51
43
207
51
43
207
51
43
207
51
43
207
51
43
207
51
43
207
51
43
207
51
43
207
51
43
207
51
43
207
51
43
207
51
43
207
51
43
207
51
43
207
51
43
207
51
43
207
51
43
207
51
43
207
51
43
207
51
43
207
51
43
207
51
43
207
51
43
207
51
43
207
51
43
207
51
43
207
51
43
207
51
43
207
51
43
207
51
43
207
51
43
207
51
43
207
51
43
207
51
43
207
51
43
207
51
43
207
51
43
207
51
43
207
51
43
207
51
43
207
51
43
207
51
43
207
51
43
207
51
43
207
51
43
207
51
43
207
51
43
207
51
43
207
51
43
207
51
43
207
51
43
207
51
43
207
51
43
207
51
43
207
51
43
207
51
43
207
51
43
207
51
43
207
51
43
207
51
43
207
51
43
207
51
43
207
51
43
207
51
43
207
51
43
207
51
43
207
51
43
207
51
43
207
51
43
207
51
43
207
51
43
207
51
43
207
51
43
207
51
43
207
51
43
207
51
43
207
51
43
207
51
43
207
51
43
207
51
43
207
51
43
207
51
43
207
51
43
207
51
43
207
51
43
207
51
43
207
51
43
207
51
43
207
51
43
207
51
43
207
51
43
207
51
43
207
51
43
207
51
43
207
51
43
207
51
43
207
51
43
207
51
43
207
51
43
207
51
43
207
51
43
207
51
43
207
51
43
207
51
43
207
51
43
207
51
43
207
51
43
207
51
43
207
51
43
207
51
43
207
51
43
207
51
43
207
51
43
207
51
43
207
51
43
207
51
43
207
51
43
207
51
43
207
51
43
207
51
43
207
51
43
207
51
43
207
51
43
207
51
43
207
51
43
207
51
43
207
51
43
207
51
43
207
51
43
207
51
43
207
51
43
207
51
43
207
51
43
207
51
43
207
51
43
207
51
43
207
51
43
207
51
43
207
51
43
207
51
43
207
51
43
207
51
43
207
51
43
207
51
43
207
51
43
207
51
43
207
51
43
207
51
43
207
51
43
207
51
43
207
51
43
207
51
43
207
51
43
207
51
43
207
51
43
207
51
43
207
51
43
207
51
43
207
51
43
207
51
43
207
51
43
207
51
43
207
51
43
207
51
43
207
51
43
207
51
43
207
51
43
207
51
43
207
51
43
207
51
43
207
51
43
207
51
43
207
51
43
207
51
43
207
51
43
207
51
43
207
51
43
207
51
43
207
51
43
207
51
43
207
51
43
207
51
43
207
51
43
207
51
43
207
51
43
207
51
43
207
51
43
207
51
43
207
51
43
207
51
43
207
51
43
207
51
43
207
51
43
207
51
43
207
51
43
207
51
43
207
51
43
207
51
43
207
51
43
207
51
43
207
51
43
207
51
43
207
51
43
207
51
43
207
51
43
207
51
43
207
51
43
207
51
43
207
51
43
207
51
43
207
51
43
207
51
43
207
51
43
207
51
43
207
51
43
207
51
43
207
51
43
207
51
43
207
51
43
207
51
43
207
51
43
207
51
43
207
51
43
207
51
43
207
51
43
207
51
43
207
51
43
207
51
43
207
51
43
207
51
43
207
51
43
207
51
43
207
51
43
207
51
43
207
51
43
207
51
43
207
51
43
207
51
43
207
51
43
207
51
43
207
51
43
207
51
43
207
51
43
207
51
43
207
51
43
207
51
43
207
51
43
207
51
43
207
51
43
207
51
43
207
51
43
207
51
43
207
51
43
207
51
43
207
51
43
207
51
43
207
51
43
207
51
43
207
51
43
207
51
43
207
51
43
207
51
43
207
51
43
207
51
43
207
51
43
207
51
43
207
51
43
207
51
43
207
51
43
207
51
43
207
51
43
207
51
43
207
51
43
207
51
43
207
51
43
207
51
43
207
51
43
207
51
43
207
51
43
207
51
43
207
51
43
207
51
43
207
51
43
207
51
43
207
51
43
207
51
43
207
51
43
207
51
43
207
51
43
207
51
43
207
51
43
207
51
43
207
51
43
207
51
43
207
51
43
207
51
43
207
51
43
207
51
43
207
51
43
207
51
43
207
51
43
207
51
43
207
51
43
207
51
43
207
51
43
207
51
43
207
51
43
207
51
43
207
51
43
207
51
43
207
51
43
207
51
43
207
51
43
207
51
43
207
51
43
207
51
43
207
51
43
207
51
43
207
51
43
207
51
43
207
51
43
207
51
43
207
51
43
207
51
43
207
51
43
207
51
43
207
51
43
207
51
43
207
51
43
207
51
43
207
51
43
207
51
43
207
51
43
207
51
43
207
51
43
207
51
43
207
51
43
207
51
43
207
51
43
207
51
43
207
51
43
207
51
43
207
51
43
207
51
43
207
51
43
207
51
43
207
51
43
207
51
43
207
51
43
207
51
43
207
51
43
207
51
43
207
51
43
207
51
43
207
51
43
207
51
43
207
51
43
207
51
43
207
51
43
207
51
43
207
51
43
207
51
43
207
51
43
207
51
43
207
51
43
207
51
43
207
51
43
207
51
43
207
51
43
207
51
43
207
51
43
207
51
43
207
51
43
207
51
43
207
51
43
207
51
43
207
51
43
207
51
43
207
51
43
207
51
43
207
51
43
207
51
43
207
51
43
207
51
43
207
51
43
207
51
43
207
51
43
207
51
43
207
51
43
207
51
43
207
51
43
207
51
43
207
51
43
207
51
43
207
51
43
207
51
43
207
51
43
207
51
43
207
51
43
207
51
43
207
51
43
207
51
43
207
51
43
207
51
43
207
51
43
207
51
43
207
51
43
207
51
43
207
51
43
207
51
43
207
51
43
207
51
43
207
51
43
207
51
43
207
51
43
207
51
43
207
51
43
207
51
43
207
51
43
207
51
43
207
51
43
207
51
43
207
51
43
207
51
43
207
51
43
207
51
43
207
51
43
207
51
43
207
51
43
207
51
43
207
51
43
207
51
43
207
51
43
207
51
43
207
51
43
207
51
43
207
51
43
207
51
43
207
51
43
207
51
43
207
51
43
207
51
43
207
51
43
207
51
43
207
51
43
207
51
43
207
51
43
207
51
43
207
51
43
207
51
43
207
51
43
207
51
43
207
51
43
207
51
43
207
51
43
207
51
43
207
51
43
207
51
43
207
51
43
207
51
43
207
51
43
207
51
43
207
51
43
207
51
43
207
51
43
207
51
43
207
51
43
207
51
43
207
51
43
207
51
43
207
51
43
207
51
43
207
51
43
207
51
43
207
51
43
207
51
43
207
51
43
207
51
43
207
51
43
207
51
43
207
51
43
207
51
43
207
51
43
207
51
43
207
51
43
207
51
43
207
51
43
207
51
43
207
51
43
207
51
43
207
51
43
207
51
43
207
51
43
207
51
43
207
51
43
207
51
43
207
51
43
207
51
43
207
51
43
207
51
43
207
51
43
207
51
43
207
51
43
207
51
43
207
51
43
207
51
43
207
51
43
207
51
43
207
51
43
207
51
43
207
51
43
207
51
43
207
51
43
207
51
43
207
51
43
207
51
43
207
51
43
207
51
43
207
51
43
207
51
43
207
51
43
207
51
43
207
51
43
207
51
43
207
51
43
207
51
43
207
51
43
207
51
43
207
51
43
207
51
43
207
51
43
207
51
43
207
51
43
207
51
43
207
51
43
207
51
43
207
51
43
207
51
43
207
51
43
207
51
43
207
51
43
207
51
43
207
51
43
207
51
43
207
51
43
207
51
43
207
51
43
207
51
43
207
51
43
207
51
43
207
51
43
207
51
43
207
51
43
207
51
43
207
51
43
207
51
43
207
51
43
207
51
43
207
51
43
207
51
43
207
51
43
207
51
43
207
51
43
207
51
43
207
51
43
207
51
43
207
51
43
207
51
43
207
51
43
207
51
43
207
51
43
207
51
43
207
51
43
207
51
43
207
51
43
207
51
43
207
51
43
207
51
43
207
51
43
207
51
43
207
51
43
207
51
43
207
51
43
207
51
43
207
51
43
207
51
43
207
51
43
207
51
43
207
51
43
207
51
43
207
51
43
207
51
43
207
51
43
207
51
43
207
51
43
207
51
43
207
51
43
207
51
43
207
51
43
207
51
43
207
51
43
207
51
43
207
51
43
207
51
43
207
51
43
207
51
43
207
51
43
207
51
43
207
51
43
207
51
43
207
51
43
207
51
43
207
51
43
207
51
43
207
51
43
207
51
43
207
51
43
207
51
43
207
51
43
207
51
43
207
51
43
207
51
43
207
51
43
207
51
43
207
51
43
207
51
43
207
51
43
207
51
43
207
51
43
207
51
43
207
51
43
207
51
43
207
51
43
207
51
43
207
51
43
207
51
43
207
51
43
207
51
43
207
51
43
207
51
43
207
51
43
207
51
43
207
51
43
207
51
43
207
51
43
207
51
43
207
51
43
207
51
43
207
51
43
207
51
43
207
51
43
207
51
43
207
51
43
207
51
43
207
51
43
207
51
43
207
51
43
207
51
43
207
51
43
207
51
43
207
51
43
207
51
43
207
51
43
207
51
43
207
51
43
207
51
43
207
51
43
207
51
43
207
51
43
207
51
43
207
51
43
207
51
43
207
51
43
207
51
43
207
51
43
207
51
43
207
51
43
207
51
43
207
51
43
207
51
43
207
51
43
207
51
43
207
51
43
207
51
43
207
51
43
207
51
43
207
51
43
207
51
43
207
51
43
207
51
43
207
51
43
207
51
43
207
51
43
207
51
43
207
51
43
207
51
43
207
51
43
207
51
43
207
51
43
207
51
43
207
51
43
207
51
43
207
51
43
207
51
43
207
51
43
207
51
43
207
51
43
207
51
43
207
51
43
207
51
43
207
51
43
207
51
43
207
51
43
207
51
43
207
51
43
207
51
43
207
51
43
207
51
43
207
51
43
207
51
43
207
51
43
207
51
43
207
51
43
207
51
43
207
51
43
207
51
43
207
51
43
207
51
43
207
51
43
207
51
43
207
51
43
207
51
43
207
51
43
207
51
43
207
51
43
207
51
43
207
51
43
207
51
43
207
51
43
207
51
43
207
51
43
207
51
43
207
51
43
207
51
43
207
51
43
207
51
43
207
51
43
207
51
43
207
51
43
207
51
43
207
51
43
207
51
43
207
51
43
207
51
43
207
51
43
207
51
43
207
51
43
207
51
43
207
51
43
207
51
43
207
51
43
207
51
43
207
51
43
207
51
43
207
51
43
207
51
43
207
51
43
207
51
43
207
51
43
207
51
43
207
51
43
207
51
43
207
51
43
207
51
43
207
51
43
207
51
43
207
51
43
207
51
43
207
51
43
207
51
43
207
51
43
207
51
43
207
51
43
207
51
43
207
51
43
207
51
43
207
51
43
207
51
43
207
51
43
207
51
43
207
51
43
207
51
43
207
51
43
207
51
43
207
51
43
207
51
43
207
51
43
207
51
43
207
51
43
207
51
43
207
51
43
207
51
43
207
51
43
207
51
43
207
51
43
207
51
43
207
51
43
207
51
43
207
51
43
207
51
43
207
51
43
207
51
43
207
51
43
207
51
43
207
51
43
207
51
43
207
51
43
207
51
43
207
51
43
207
51
43
207
51
43
207
51
43
207
51
43
207
51
43
207
51
43
207
51
43
207
51
43
207
51
43
207
51
43
207
51
43
207
51
43
207
51
43
207
51
43
207
51
43
207
51
43
207
51
43
207
51
43
207
51
43
207
51
43
207
51
43
207
51
43
207
51
43
207
51
43
207
51
43
207
51
43
207
51
43
207
51
43
207
51
43
207
51
43
207
51
43
207
51
43
207
51
43
207
51
43
207
51
43
207
51
43
207
51
43
207
51
43
207
51
43
207
51
43
207
51
43
207
51
43
207
51
43
207
51
43
207
51
43
207
51
43
207
51
43
207
51
43
207
51
43
207
51
43
207
51
43
207
51
43
207
51
43
207
51
43
207
51
43
207
51
43
207
51
43
207
51
43
207
51
43
207
51
43
207
51
43
207
51
43
207
51
43
207
51
43
207
51
43
207
51
43
207
51
43
207
51
43
207
51
43
207
51
43
207
51
43
207
51
43
207
51
43
207
51
43
207
51
43
207
51
43
207
51
43
207
51
43
207
51
43
207
51
43
207
51
43
207
51
43
207
51
43
207
51
43
207
51
43
207
51
43
207
51
43
207
51
43
207
51
43
207
51
43
207
51
43
207
51
43
207
51
43
207
51
43
207
51
43
207
51
43
207
51
43
207
51
43
207
51
43
207
51
43
207
51
43
207
51
43
207
51
43
207
51
43
207
51
43
207
51
43
207
51
43
207
51
43
207
51
43
207
51
43
207
51
43
207
51
43
207
51
43
207
51
43
207
51
43
207
51
43
207
51
43
207
51
43
207
51
43
207
51
43
207
51
43
207
51
43
207
51
43
207
51
43
207
51
43
207
51
43
207
51
43
207
51
43
207
51
43
207
51
43
207
51
43
207
51
43
207
51
43
207
51
43
207
51
43
207
51
43
207
51
43
207
51
43
207
51
43
207
51
43
207
51
43
207
51
43
207
51
43
207
51
43
207
51
43
207
51
43
207
51
43
207
51
43
207
51
43
207
51
43
207
51
43
207
51
43
207
51
43
207
51
43
207
51
43
207
51
43
207
51
43
207
51
43
207
51
43
207
51
43
207
51
43
207
51
43
207
51
43
207
51
43
207
51
43
207
51
43
207
51
43
207
51
43
207
51
43
207
51
43
207
51
43
207
51
43
207
51
43
207
51
43
207
51
43
207
51
43
207
51
43
207
51
43
207
51
43
207
51
43
207
51
43
207
51
43
207
51
43
207
51
43
207
51
43
207
51
43
207
51
43
207
51
43
207
51
43
207
51
43
207
51
43
207
51
43
207
51
43
207
51
43
207
51
43
207
51
43
207
51
43
207
51
43
207
51
43
207
51
43
207
51
43
207
51
43
207
51
43
207
51
43
207
51
43
207
51
43
207
51
43
207
51
43
207
51
43
207
51
43
207
51
43
207
51
43
207
51
43
207
51
43
207
51
43
207
51
43
207
51
43
207
51
43
207
51
43
207
51
43
207
51
43
207
51
43
207
51
43
207
51
43
207
51
43
207
51
43
207
51
43
207
51
43
207
51
43
207
51
43
207
51
43
207
51
43
207
51
43
207
51
43
207
51
43
207
51
43
207
51
43
207
51
43
207
51
43
207
51
43
207
51
43
207
51
43
207
51
43
207
51
43
207
51
43
207
51
43
207
51
43
207
51
43
207
51
43
207
51
43
207
51
43
207
51
43
207
51
43
207
51
43
207
51
43
207
51
43
207
51
43
207
51
43
207
51
43
207
51
43
207
51
43
207
51
43
207
51
43
207
51
43
207
51
43
207
51
43
207
51
43
207
51
43
207
51
43
207
51
43
207
51
43
207
51
43
207
51
43
207
51
43
207
51
43
207
51
43
207
51
43
207
51
43
207
51
43
207
51
43
207
51
43
207
51
43
207
51
43
207
51
43
207
51
43
207
51
43
207
51
43
207
51
43
207
51
43
207
51
43
207
51
43
207
51
43
207
51
43
207
51
43
207
51
43
207
51
43
207
51
43
207
51
43
207
51
43
207
51
43
207
51
43
207
51
43
207
51
43
207
51
43
207
51
43
207
51
43
207
51
43
207
51
43
207
51
43
207
51
43
207
51
43
207
51
43
207
51
43
207
51
43
207
51
43
207
51
43
207
51
43
207
51
43
207
51
43
207
51
43
207
51
43
207
51
43
207
51
43
207
51
43
207
51
43
207
51
43
207
51
43
207
51
43
207
51
43
207
51
43
207
51
43
207
51
43
207
51
43
207
51
43
207
51
43
207
51
43
207
51
43
207
51
43
207
51
43
207
51
43
207
51
43
207
51
43
207
51
43
207
51
43
207
51
43
207
51
43
207
51
43
207
51
43
207
51
43
207
51
43
207
51
43
207
51
43
207
51
43
207
51
43
207
51
43
207
51
43
207
51
43
207
51
43
207
51
43
207
51
43
207
51
43
207
51
43
207
51
43
207
51
43
207
51
43
207
51
43
207
51
43
207
51
43
207
51
43
207
51
43
207
51
43
207
51
43
207
51
43
207
51
43
207
51
43
207
51
43
207
51
43
207
51
43
207
51
43
207
51
43
207
51
43
207
51
43
207
51
43
207
51
43
207
51
43
207
51
43
207
51
43
207
51
43
207
51
43
207
51
43
207
51
43
207
51
43
207
51
43
207
51
43
207
51
43
207
51
43
207
51
43
207
51
43
207
51
43
207
51
43
207
51
43
207
51
43
207
51
43
207
51
43
207
51
43
207
51
43
207
51
43
207
51
43
207
51
43
207
51
43
207
51
43
207
51
43
207
51
43
207
51
43
207
51
43
207
51
43
207
51
43
207
51
43
207
51
43
207
51
43
207
51
43
207
51
43
207
51
43
207
51
43
207
51
43
207
51
43
207
51
43
207
51
43
207
51
43
207
51
43
207
51
43
207
51
43
207
51
43
207
51
43
207
51
43
207
51
43
207
51
43
207
51
43
207
51
43
207
51
43
207
51
43
207
51
43
207
51
43
207
51
43
207
51
43
207
51
43
207
51
43
207
51
43
207
51
43
207
51
43
207
51
43
207
51
43
207
51
43
207
51
43
207
51
43
207
51
43
207
51
43
207
51
43
207
51
43
207
51
43
207
51
43
207
51
43
207
51
43
207
51
43
207
51
43
207
51
43
207
51
43
207
51
43
207
51
43
207
51
43
207
51
43
207
51
43
207
51
43
207
51
43
207
51
43
207
51
43
207
51
43
207
51
43
207
51
43
207
51
43
207
51
43
207
51
43
207
51
43
207
51
43
207
51
43
207
51
43
207
51
43
207
51
43
207
51
43
207
51
43
207
51
43
207
51
43
207
51
43
207
51
43
207
51
43
207
51
43
207
51
43
207
51
43
207
51
43
207
51
43
207
51
43
207
51
43
207
51
43
207
51
43
207
51
43
207
51
43
207
51
43
207
51
43
207
51
43
207
51
43
207
51
43
207
51
43
207
51
43
207
51
43
207
51
43
207
51
43
207
51
43
207
51
43
207
51
43
207
51
43
207
51
43
207
51
43
207
51
43
207
51
43
207
51
43
207
51
43
207
51
43
207
51
43
207
51
43
207
51
43
207
51
43
207
51
43
207
51
43
207
51
43
207
51
43
207
51
43
207
51
43
207
51
43
207
51
43
207
51
43
207
51
43
207
51
43
207
51
43
207
51
43
207
51
43
207
51
43
207
51
43
207
51
43
207
51
43
207
51
43
207
51
43
207
51
43
207
51
43
207
51
43
207
51
43
207
51
43
207
51
43
207
51
43
207
51
43
207
51
43
207
51
43
207
51
43
207
51
43
207
51
43
207
51
43
207
51
43
207
51
43
207
51
43
207
51
43
207
51
43
207
51
43
207
51
43
207
51
43
207
51
43
207
51
43
207
51
43
207
51
43
207
51
43
207
51
43
207
51
43
207
51
43
207
51
43
207
51
43
207
51
43
207
51
43
207
51
43
207
51
43
207
51
43
207
51
43
207
51
43
207
51
43
207
51
43
207
51
43
207
51
43
207
51
43
207
51
43
207
51
43
207
51
43
207
51
43
207
51
43
207
51
43
207
51
43
207
51
43
207
51
43
207
51
43
207
51
43
207
51
43
207
51
43
207
51
43
207
51
43
207
51
43
207
51
43
207
51
43
207
51
43
207
51
43
207
51
43
207
51
43
207
51
43
207
51
43
207
51
43
207
51
43
207
51
43
207
51
43
207
51
43
207
51
43
207
51
43
207
51
43
207
51
43
207
51
43
207
51
43
207
51
43
207
51
43
207
51
43
207
51
43
207
51
43
207
51
43
207
51
43
207
51
43
207
51
43
207
51
43
207
51
43
207
51
43
207
51
43
207
51
43
207
51
43
207
51
43
207
51
43
207
51
43
207
51
43
207
51
43
207
51
43
207
51
43
207
51
43
207
51
43
207
51
43
207
51
43
207
51
43
207
51
43
207
51
43
207
51
43
207
51
43
207
51
43
207
51
43
207
51
43
207
51
43
207
51
43
207
51
43
207
51
43
207
51
43
207
51
43
207
51
43
207
51
43
207
51
43
207
51
43
207
51
43
207
51
43
207
51
43
207
51
43
207
51
43
207
51
43
207
51
43
207
51
43
207
51
43
207
51
43
207
51
43
207
51
43
207
51
43
207
51
43
207
51
43
207
51
43
207
51
43
207
51
43
207
51
43
207
51
43
207
51
43
207
51
43
207
51
43
207
51
43
207
51
43
207
51
43
207
51
43
207
51
43
207
51
43
207
51
43
207
51
43
207
51
43
207
51
43
207
51
43
207
51
43
207
51
43
207
51
43
207
51
43
207
51
43
207
51
43
207
51
43
207
51
43
207
51
43
207
51
43
207
51
43
207
51
43
207
51
43
207
51
43
207
51
43
207
51
43
207
51
43
207
51
43
207
51
43
207
51
43
207
51
43
207
51
43
207
51
43
207
51
43
207
51
43
207
51
43
207
51
43
207
51
43
207
51
43
207
51
43
207
51
43
207
51
43
207
51
43
207
51
43
207
51
43
207
51
43
207
51
43
207
51
43
207
51
43
207
51
43
207
51
43
207
51
43
207
51
43
207
51
43
207
51
43
207
51
43
207
51
43
207
51
43
207
51
43
207
51
43
207
51
43
207
51
43
207
51
43
207
51
43
207
51
43
207
51
43
207
51
43
207
51
43
207
51
43
207
51
43
207
51
43
207
51
43
207
51
43
207
51
43
207
51
43
207
51
43
207
51
43
207
51
43
207
51
43
207
51
43
207
51
43
207
51
43
207
51
43
207
51
43
207
51
43
207
51
43
207
51
43
207
51
43
207
51
43
207
51
43
207
51
43
207
51
43
207
51
43
207
51
43
207
51
43
207
51
43
207
51
43
207
51
43
207
51
43
207
51
43
207
51
43
207
51
43
207
51
43
207
51
43
207
51
43
207
51
43
207
51
43
207
51
43
207
51
43
207
51
43
207
51
43
207
51
43
207
51
43
207
51
43
207
51
43
207
51
43
207
51
43
207
51
43
207
51
43
207
51
43
207
51
43
207
51
43
207
51
43
207
51
43
207
51
43
207
51
43
207
51
43
207
51
43
207
51
43
207
51
43
207
51
43
207
51
43
207
51
43
207
51
43
207
51
43
207
51
43
207
51
43
207
51
43
207
51
43
207
51
43
207
51
43
207
51
43
207
51
43
207
51
43
207
51
43
207
51
43
207
51
43
207
51
43
207
51
43
207
51
43
207
51
43
207
51
43
207
51
43
207
51
43
207
51
43
207
51
43
207
51
43
207
51
43
207
51
43
207
51
43
207
51
43
207
51
43
207
51
43
207
51
43
207
51
43
207
51
43
207
51
43
207
51
43
207
51
43
207
51
43
207
51
43
207
51
43
207
51
43
207
51
43
207
51
43
207
51
43
207
51
43
207
51
43
207
51
43
207
51
43
207
51
43
207
51
43
207
51
43
207
51
43
207
51
43
207
51
43
207
51
43
207
51
43
207
51
43
207
51
43
207
51
43
207
51
43
207
51
43
207
51
43
207
51
43
207
51
43
207
51
43
207
51
43
207
51
43
207
51
43
207
51
43
207
51
43
207
51
43
207
51
43
207
51
43
207
51
43
207
51
43
207
51
43
207
51
43
207
51
43
207
51
43
207
51
43
207
51
43
207
51
43
207
51
43
207
51
43
207
51
43
207
51
43
207
51
43
207
51
43
207
51
43
207
51
43
207
51
43
207
51
43
207
51
43
207
51
43
207
51
43
207
51
43
207
51
43
207
51
43
207
51
43
207
51
43
207
51
43
207
51
43
207
51
43
207
51
43
207
51
43
207
51
43
207
51
43
207
51
43
207
51
43
207
51
43
207
51
43
207
51
43
207
51
43
207
51
43
207
51
43
207
51
43
207
51
43
207
51
43
207
51
43
207
51
43
207
51
43
207
51
43
207
51
43
207
51
43
207
51
43
207
51
43
207
51
43
207
51
43
207
51
43
207
51
43
207
51
43
207
51
43
207
51
43
207
51
43
207
51
43
207
51
43
207
51
43
207
51
43
207
51
43
207
51
43
207
51
43
207
51
43
207
51
43
207
51
43
207
51
43
207
51
43
207
51
43
207
51
43
207
51
43
207
51
43
207
51
43
207
51
43
207
51
43
207
51
43
207
51
43
207
51
43
207
51
43
207
51
43
207
51
43
207
51
43
207
51
43
207
51
43
207
51
43
207
51
43
207
51
43
207
51
43
207
51
43
207
51
43
207
51
43
207
51
43
207
51
43
207
51
43
207
51
43
207
51
43
207
51
43
207
51
43
207
51
43
207
51
43
207
51
43
207
51
43
207
51
43
207
51
43
207
51
43
207
51
43
207
51
43
207
51
43
207
51
43
207
51
43
207
51
43
207
51
43
207
51
43
207
51
43
207
51
43
207
51
43
207
51
43
207
51
43
207
51
43
207
51
43
207
51
43
207
51
43
207
51
43
207
51
43
207
51
43
207
51
43
207
51
43
207
51
43
207
51
43
207
51
43
207
51
43
207
51
43
207
51
43
207
51
43
207
51
43
207
51
43
207
51
43
207
51
43
207
51
43
207
51
43
207
51
43
207
51
43
207
51
43
207
51
43
207
51
43
207
51
43
207
51
43
207
51
43
207
51
43
207
51
43
207
51
43
207
51
43
207
51
43
207
51
43
207
51
43
207
51
43
207
51
43
207
51
43
207
51
43
207
51
43
207
51
43
207
51
43
207
51
43
207
51
43
207
51
43
207
51
43
207
51
43
207
51
43
207
51
43
207
51
43
207
51
43
207
51
43
207
51
43
207
51
43
207
51
43
207
51
43
207
51
43
207
51
43
207
51
43
207
51
43
207
51
43
207
51
43
207
51
43
207
51
43
207
51
43
207
51
43
207
51
43
207
51
43
207
51
43
207
51
43
207
51
43
207
51
43
207
51
43
207
51
43
207
51
43
207
51
43
207
51
43
207
51
43
207
51
43
207
51
43
207
51
43
207
51
43
207
51
43
207
51
43
207
51
43
207
51
43
207
51
43
207
51
43
207
51
43
207
51
43
207
51
43
207
51
43
207
51
43
207
51
43
207
51
43
207
51
43
207
51
43
207
51
43
207
51
43
207
51
43
207
51
43
207
51
43
207
51
43
207
51
43
207
51
43
207
51
43
207
51
43
207
51
43
207
51
43
207
51
43
207
51
43
207
51
43
207
51
43
207
51
43
207
51
43
207
51
43
207
51
43
207
51
43
207
51
43
207
51
43
207
51
43
207
51
43
207
51
43
207
51
43
207
51
43
207
51
43
207
51
43
207
51
43
207
51
43
207
51
43
207
51
43
207
51
43
207
51
43
207
51
43
207
51
43
207
51
43
207
51
43
207
51
43
207
51
43
207
51
43
207
51
43
207
51
43
207
51
43
207
51
43
207
51
43
207
51
43
207
51
43
207
51
43
207
51
43
207
51
43
207
51
43
207
51
43
207
51
43
207
51
43
207
51
43
207
51
43
207
51
43
207
51
43
207
51
43
207
51
43
207
51
43
207
51
43
207
51
43
207
51
43
207
51
43
207
51
43
207
51
43
207
51
43
207
51
43
207
51
43
207
51
43
207
51
43
207
51
43
207
51
43
207
51
43
207
51
43
207
51
43
207
51
43
207
51
43
207
51
43
207
51
43
207
51
43
207
51
43
207
51
43
207
51
43
207
51
43
207
51
43
207
51
43
207
51
43
207
51
43
207
51
43
207
51
43
207
51
43
207
51
43
207
51
43
207
51
43
207
51
43
207
51
43
207
51
43
207
51
43
207
51
43
207
51
43
207
51
43
207
51
43
207
51
43
207
51
43
207
51
43
207
51
43
207
51
43
207
51
43
207
51
43
207
51
43
207
51
43
207
51
43
207
51
43
207
51
43
207
51
43
207
51
43
207
51
43
207
51
43
207
51
43
207
51
43
207
51
43
207
51
43
207
51
43
207
51
43
207
51
43
207
51
43
207
51
43
207
51
43
207
51
43
207
51
43
207
51
43
207
51
43
207
51
43
207
51
43
207
51
43
207
51
43
207
51
43
207
51
43
207
51
43
207
51
43
207
51
43
207
51
43
207
51
43
207
51
43
207
51
43
207
51
43
207
51
43
207
51
43
207
51
43
207
51
43
207
51
43
207
51
43
207
51
43
207
51
43
207
51
43
207
51
43
207
51
43
207
51
43
207
51
43
207
51
43
207
51
43
207
51
43
207
51
43
207
51
43
207
51
43
207
51
43
207
51
43
207
51
43
207
51
43
207
51
43
207
51
43
207
51
43
207
51
43
207
51
43
207
51
43
207
51
43
207
51
43
207
51
43
207
51
43
207
51
43
207
51
43
207
51
43
207
51
43
207
51
43
207
51
43
207
51
43
207
51
43
207
51
43
207
51
43
207
51
43
207
51
43
207
51
43
207
51
43
207
51
43
207
51
43
207
51
43
207
51
43
207
51
43
207
51
43
207
51
43
207
51
43
207
51
43
207
51
43
207
51
43
207
51
43
207
51
43
207
51
43
207
51
43
207
51
43
207
51
43
207
51
43
207
51
43
207
51
43
207
51
43
207
51
43
207
51
43
207
51
43
207
51
43
207
51
43
207
51
43
207
51
43
207
51
43
207
51
43
207
51
43
207
51
43
207
51
43
207
51
43
207
51
43
207
51
43
207
51
43
207
51
43
207
51
43
207
51
43
207
51
43
207
51
43
207
51
43
207
51
43
207
51
43
207
51
43
207
51
43
207
51
43
207
51
43
207
51
43
207
51
43
207
51
43
207
51
43
207
51
43
207
51
43
207
51
43
207
51
43
207
51
43
207
51
43
207
51
43
207
51
43
207
51
43
207
51
43
207
51
43
207
51
43
207
51
43
207
51
43
207
51
43
207
51
43
207
51
43
207
51
43
207
51
43
207
51
43
207
51
43
207
51
43
207
51
43
207
51
43
207
51
43
207
51
43
207
51
43
207
51
43
207
51
43
207
51
43
207
51
43
207
51
43
207
51
43
207
51
43
207
51
43
207
51
43
207
51
43
207
51
43
207
51
43
207
51
43
207
51
43
207
51
43
207
51
43
207
51
43
207
51
43
207
51
43
207
51
43
207
51
43
207
51
43
207
51
43
207
51
43
207
51
43
207
51
43
207
51
43
207
51
43
207
51
43
207
51
43
207
51
43
207
51
43
207
51
43
207
51
43
207
51
43
207
51
43
207
51
43
207
51
43
207
51
43
207
51
43
207
51
43
207
51
43
207
51
43
207
51
43
207
51
43
207
51
43
207
51
43
207
51
43
207
51
43
207
51
43
207
51
43
207
51
43
207
51
43
207
51
43
207
51
43
207
51
43
207
51
43
207
51
43
207
51
43
207
51
43
207
51
43
207
51
43
207
51
43
207
51
43
207
51
43
207
51
43
207
51
43
207
51
43
207
51
43
207
51
43
207
51
43
207
51
43
207
51
43
207
51
43
207
51
43
207
51
43
207
51
43
207
51
43
207
51
43
207
51
43
207
51
43
207
51
43
207
51
43
207
51
43
207
51
43
207
51
43
207
51
43
207
51
43
207
51
43
207
51
43
207
51
43
207
51
43
207
51
43
207
51
43
207
51
43
207
51
43
207
51
43
207
51
43
207
51
43
207
51
43
207
51
43
207
51
43
207
51
43
207
51
43
207
51
43
207
51
43
207
51
43
207
51
43
207
51
43
207
51
43
207
51
43
207
51
43
207
51
43
207
51
43
207
51
43
207
51
43
207
51
43
207
51
43
207
51
43
207
51
43
207
51
43
207
51
43
207
51
43
207
51
43
207
51
43
207
51
43
207
51
43
207
51
43
207
51
43
207
51
43
207
51
43
207
51
43
207
51
43
207
51
43
207
51
43
207
51
43
207
51
43
207
51
43
207
51
43
207
51
43
207
51
43
207
51
43
207
51
43
207
51
43
207
51
43
207
51
43
207
51
43
207
51
43
207
51
43
207
51
43
207
51
43
207
51
43
207
51
43
207
51
43
207
51
43
207
51
43
207
51
43
207
51
43
207
51
43
207
51
43
207
51
43
207
51
43
207
51
43
207
51
43
207
51
43
207
51
43
207
51
43
207
51
43
207
51
43
207
51
43
207
51
43
207
51
43
207
51
43
207
51
43
207
51
43
207
51
43
207
51
43
207
51
43
207
51
43
207
51
43
207
51
43
207
51
43
207
51
43
207
51
43
207
51
43
207
51
43
207
51
43
207
51
43
207
51
43
207
51
43
207
51
43
207
51
43
207
51
43
207
51
43
207
51
43
207
51
43
207
51
43
207
51
43
207
51
43
207
51
43
207
51
43
207
51
43
207
51
43
207
51
43
207
51
43
207
51
43
207
51
43
207
51
43
207
51
43
207
51
43
207
51
43
207
51
43
207
51
43
207
51
43
207
51
43
207
51
43
207
51
43
207
51
43
207
51
43
207
51
43
207
51
43
207
51
43
207
51
43
207
51
43
207
51
43
207
51
43
207
51
43
207
51
43
207
51
43
207
51
43
207
51
43
207
51
43
207
51
43
207
51
43
207
51
43
207
51
43
207
51
43
207
51
43
207
51
43
207
51
43
207
51
43
207
51
43
207
51
43
207
51
43
207
51
43
207
51
43
207
51
43
207
51
43
207
51
43
207
51
43
207
51
43
207
51
43
207
51
43
207
51
43
207
51
43
207
51
43
207
51
43
207
51
43
207
51
43
207
51
43
207
51
43
207
51
43
207
51
43
207
51
43
207
51
43
207
51
43
207
51
43
207
51
43
207
51
43
207
51
43
207
51
43
207
51
43
207
51
43
207
51
43
207
51
43
207
51
43
207
51
43
207
51
43
207
51
43
207
51
43
207
51
43
207
51
43
207
51
43
207
51
43
207
51
43
207
51
43
207
51
43
207
51
43
207
51
43
207
51
43
207
51
43
207
51
43
207
51
43
207
51
43
207
51
43
207
51
43
207
51
43
207
51
43
207
51
43
207
51
43
207
51
43
207
51
43
207
51
43
207
51
43
207
51
43
207
51
43
207
51
43
207
51
43
207
51
43
207
51
43
207
51
43
207
51
43
207
51
43
207
51
43
207
51
43
207
51
43
207
51
43
207
51
43
207
51
43
207
51
43
207
51
43
207
51
43
207
51
43
207
51
43
207
51
43
207
51
43
207
51
43
207
51
43
207
51
43
207
51
43
207
51
43
207
51
43
207
51
43
207
51
43
207
51
43
207
51
43
207
51
43
207
51
43
207
51
43
207
51
43
207
51
43
207
51
43
207
51
43
207
51
43
207
51
43
207
51
43
207
51
43
207
51
43
207
51
43
207
51
43
207
51
43
207
51
43
207
51
43
207
51
43
207
51
43
207
51
43
207
51
43
207
51
43
207
51
43
207
51
43
207
51
43
207
51
43
207
51
43
207
51
43
207
51
43
207
51
43
207
51
43
207
51
43
207
51
43
207
51
43
207
51
43
207
51
43
207
51
43
207
51
43
207
51
43
207
51
43
207
51
43
207
51
43
207
51
43
207
51
43
207
51
43
207
51
43
207
51
43
207
51
43
207
51
43
207
51
43
207
51
43
207
51
43
207
51
43
207
51
43
207
51
43
207
51
43
207
51
43
207
51
43
207
51
43
207
51
43
207
51
43
207
51
43
207
51
43
207
51
43
207
51
43
207
51
43
207
51
43
207
51
43
207
51
43
207
51
43
207
51
43
207
51
43
207
51
43
207
51
43
207
51
43
207
51
43
207
51
43
207
51
43
207
51
43
207
51
43
207
51
43
207
51
43
207
51
43
207
51
43
207
51
43
207
51
43
207
51
43
207
51
43
207
51
43
207
51
43
207
51
43
207
51
43
207
51
43
207
51
43
207
51
43
207
51
43
207
51
43
207
51
43
207
51
43
207
51
43
207
51
43
207
51
43
207
51
43
207
51
43
207
51
43
207
51
43
207
51
43
207
51
43
207
51
43
207
51
43
207
51
43
207
51
43
207
51
43
207
51
43
207
51
43
207
51
43
207
51
43
207
51
43
207
51
43
207
51
43
207
51
43
207
51
43
207
51
43
207
51
43
207
51
43
207
51
43
207
51
43
207
51
43
207
51
43
207
51
43
207
51
43
207
51
43
207
51
43
207
51
43
207
51
43
207
51
43
207
51
43
207
51
43
207
51
43
207
51
43
207
51
43
207
51
43
207
51
43
207
51
43
207
51
43
207
51
43
207
51
43
207
51
43
207
51
43
207
51
43
207
51
43
207
51
43
207
51
43
207
51
43
207
51
43
207
51
43
207
51
43
207
51
43
207
51
43
207
51
43
207
51
43
207
51
43
207
51
43
207
51
43
207
51
43
207
51
43
207
51
43
207
51
43
207
51
43
207
51
43
207
51
43
207
51
43
207
51
43
207
51
43
207
51
43
207
51
43
207
51
43
207
51
43
207
51
43
207
51
43
207
51
43
207
51
43
207
51
43
207
51
43
207
51
43
207
51
43
207
51
43
207
51
43
207
51
43
207
51
43
207
51
43
207
51
43
207
51
43
207
51
43
207
51
43
207
51
43
207
51
43
207
51
43
207
51
43
207
51
43
207
51
43
207
51
43
207
51
43
207
51
43
207
51
43
207
51
43
207
51
43
207
51
43
207
51
43
207
51
43
207
51
43
207
51
43
207
51
43
207
51
43
207
51
43
207
51
43
207
51
43
207
51
43
207
51
43
207
51
43
207
51
43
207
51
43
207
51
43
207
51
43
207
51
43
207
51
43
207
51
43
207
51
43
207
51
43
207
51
43
207
51
43
207
51
43
207
51
43
207
51
43
207
51
43
207
51
43
207
51
43
207
51
43
207
51
43
207
51
43
207
51
43
207
51
43
207
51
43
207
51
43
207
51
43
207
51
43
207
51
43
207
51
43
207
51
43
207
51
43
207
51
43
207
51
43
207
51
43
207
51
43
207
51
43
207
51
43
207
51
43
207
51
43
207
51
43
207
51
43
207
51
43
207
51
43
207
51
43
207
51
43
207
51
43
207
51
43
207
51
43
207
51
43
207
51
43
207
51
43
207
51
43
207
51
43
207
51
43
207
51
43
207
51
43
207
51
43
207
51
43
207
51
43
207
51
43
207
51
43
207
51
43
207
51
43
207
51
43
207
51
43
207
51
43
207
51
43
207
51
43
207
51
43
207
51
43
207
51
43
207
51
43
207
51
43
207
51
43
207
51
43
207
51
43
207
51
43
207
51
43
207
51
43
207
51
43
207
51
43
207
51
43
207
51
43
207
51
43
207
51
43
207
51
43
207
51
43
207
51
43
207
51
43
207
51
43
207
51
43
207
51
43
207
51
43
207
51
43
207
51
43
207
51
43
207
51
43
207
51
43
207
51
43
207
51
43
207
51
43
207
51
43
207
51
43
207
51
43
207
51
43
207
51
43
207
51
43
207
51
43
207
51
43
207
51
43
207
51
43
207
51
43
207
51
43
207
51
43
207
51
43
207
51
43
207
51
43
207
51
43
207
51
43
207
51
43
207
51
43
207
51
43
207
51
43
207
51
43
207
51
43
207
51
43
207
51
43
207
51
43
207
51
43
207
51
43
207
51
43
207
51
43
207
51
43
207
51
43
207
51
43
207
51
43
207
51
43
207
51
43
207
51
43
207
51
43
207
51
43
207
51
43
207
51
43
207
51
43
207
51
43
207
51
43
207
51
43
207
51
43
207
51
43
207
51
43
207
51
43
207
51
43
207
51
43
207
51
43
207
51
43
207
51
43
207
51
43
207
51
43
207
51
43
207
51
43
207
51
43
207
51
43
207
51
43
207
51
43
207
51
43
207
51
43
207
51
43
207
51
43
207
51
43
207
51
43
207
51
43
207
51
43
207
51
43
207
51
43
207
51
43
207
51
43
207
51
43
207
51
43
207
51
43
207
51
43
207
51
43
207
51
43
207
51
43
207
51
43
207
51
43
207
51
43
207
51
43
207
51
43
207
51
43
207
51
43
207
51
43
207
51
43
207
51
43
207
51
43
207
51
43
207
51
43
207
51
43
207
51
43
207
51
43
207
51
43
207
51
43
207
51
43
207
51
43
207
51
43
207
51
43
207
51
43
207
51
43
207
51
43
207
51
43
207
51
43
207
51
43
207
51
43
207
51
43
207
51
43
207
51
43
207
51
43
207
51
43
207
51
43
207
51
43
207
51
43
207
51
43
207
51
43
207
51
43
207
51
43
207
51
43
207
51
43
207
51
43
207
51
43
207
51
43
207
51
43
207
51
43
207
51
43
207
51
43
207
51
43
207
51
43
207
51
43
207
51
43
207
51
43
207
51
43
207
51
43
207
51
43
207
51
43
207
51
43
207
51
43
207
51
43
207
51
43
207
51
43
207
51
43
207
51
43
207
51
43
207
51
43
207
51
43
207
51
43
207
51
43
207
51
43
207
51
43
207
51
43
207
51
43
207
51
43
207
51
43
207
51
43
207
51
43
207
51
43
207
51
43
207
51
43
207
51
43
207
51
43
207
51
43
207
51
43
207
51
43
207
51
43
207
51
43
207
51
43
207
51
43
207
51
43
207
51
43
207
51
43
207
51
43
207
51
43
207
51
43
207
51
43
207
51
43
207
51
43
207
51
43
207
51
43
207
51
43
207
51
43
207
51
43
207
51
43
207
51
43
207
51
43
207
51
43
207
51
43
207
51
43
207
51
43
207
51
43
207
51
43
207
51
43
207
51
43
207
51
43
207
51
43
207
51
43
207
51
43
207
51
43
207
51
43
207
51
43
207
51
43
207
51
43
207
51
43
207
51
43
207
51
43
207
51
43
207
51
43
207
51
43
207
51
43
207
51
43
207
51
43
207
51
43
207
51
43
207
51
43
207
51
43
207
51
43
207
51
43
207
51
43
207
51
43
207
51
43
207
51
43
207
51
43
207
51
43
207
51
43
207
51
43
207
51
43
207
51
43
207
51
43
207
51
43
207
51
43
207
51
43
207
51
43
207
51
43
207
51
43
207
51
43
207
51
43
207
51
43
207
51
43
207
51
43
207
51
43
207
51
43
207
51
43
207
51
43
207
51
43
207
51
43
207
51
43
207
51
43
207
51
43
207
51
43
207
51
43
207
51
43
207
51
43
207
51
43
207
51
43
207
51
43
207
51
43
207
51
43
207
51
43
207
51
43
207
51
43
207
51
43
207
51
43
207
51
43
207
51
43
207
51
43
207
51
43
207
51
43
207
51
43
207
51
43
207
51
43
207
51
43
207
51
43
207
51
43
207
51
43
207
51
43
207
51
43
207
51
43
207
51
43
207
51
43
207
51
43
207
51
43
207
51
43
207
51
43
207
51
43
207
51
43
207
51
43
207
51
43
207
51
43
207
51
43
207
51
43
207
51
43
207
51
43
207
51
43
207
51
43
207
51
43
207
51
43
207
51
43
207
51
43
207
51
43
207
51
43
207
51
43
207
51
43
207
51
43
207
51
43
207
51
43
207
51
43
207
51
43
207
51
43
207
51
43
207
51
43
207
51
43
207
51
43
207
51
43
207
51
43
207
51
43
207
51
43
207
51
43
207
51
43
207
51
43
207
51
43
207
51
43
207
51
43
207
51
43
207
51
43
207
51
43
207
51
43
207
51
43
207
51
43
207
51
43
207
51
43
207
51
43
207
51
43
207
51
43
207
51
43
207
51
43
207
51
43
207
51
43
207
51
43
207
51
43
207
51
43
207
51
43
207
51
43
207
51
43
207
51
43
207
51
43
207
51
43
207
51
43
207
51
43
207
51
43
207
51
43
207
51
43
207
51
43
207
51
43
207
51
43
207
51
43
207
51
43
207
51
43
207
51
43
207
51
43
207
51
43
207
51
43
207
51
43
207
51
43
207
51
43
207
51
43
207
51
43
207
51
43
207
51
43
207
51
43
207
51
43
207
51
43
207
51
43
207
51
43
207
51
43
207
51
43
207
51
43
207
51
43
207
51
43
207
51
43
207
51
43
207
51
43
207
51
43
207
51
43
207
51
43
207
51
43
207
51
43
207
51
43
207
51
43
207
51
43
207
51
43
207
51
43
207
51
43
207
51
43
207
51
43
207
51
43
207
51
43
207
51
43
207
51
43
207
51
43
207
51
43
207
51
43
207
51
43
207
51
43
207
51
43
207
51
43
207
51
43
207
51
43
207
51
43
207
51
43
207
51
43
207
51
43
207
51
43
207
51
43
207
51
43
207
51
43
207
51
43
207
51
43
207
51
43
207
51
43
207
51
43
207
51
43
207
51
43
207
51
43
207
51
43
207
51
43
207
51
43
207
51
43
207
51
43
207
51
43
207
51
43
207
51
43
207
51
43
207
51
43
207
51
43
207
51
43
207
51
43
207
51
43
207
51
43
207
51
43
207
51
43
207
51
43
207
51
43
207
51
43
207
51
43
207
51
43
207
51
43
207
51
43
207
51
43
207
51
43
207
51
43
207
51
43
207
51
43
207
51
43
207
51
43
207
51
43
207
51
43
207
51
43
207
51
43
207
51
43
207
51
43
207
51
43
207
51
43
207
51
43
207
51
43
207
51
43
207
51
43
207
51
43
207
51
43
207
51
43
207
51
43
207
51
43
207
51
43
207
51
43
207
51
43
207
51
43
207
51
43
207
51
43
207
51
43
207
51
43
207
51
43
207
51
43
207
51
43
207
51
43
207
51
43
207
51
43
207
51
43
207
51
43
207
51
43
207
51
43
207
51
43
207
51
43
207
51
43
207
51
43
207
51
43
207
51
43
207
51
43
207
51
43
207
51
43
207
51
43
207
51
43
207
51
43
207
51
43
207
51
43
207
51
43
207
51
43
207
51
43
207
51
43
207
51
43
207
51
43
207
51
43
207
51
43
207
51
43
207
51
43
207
51
43
207
51
43
207
51
43
207
51
43
207
51
43
207
51
43
207
51
43
207
51
43
207
51
43
207
51
43
207
51
43
207
51
43
207
51
43
207
51
43
207
51
43
207
51
43
207
51
43
207
51
43
207
51
43
207
51
43
207
51
43
207
51
43
207
51
43
207
51
43
207
51
43
207
51
43
207
51
43
207
51
43
207
51
43
207
51
43
207
51
43
207
51
43
207
51
43
207
51
43
207
51
43
207
51
43
207
51
43
207
51
43
207
51
43
207
51
43
207
51
43
207
51
43
207
51
43
207
51
43
207
51
43
207
51
43
207
51
43
207
51
43
207
51
43
207
51
43
207
51
43
207
51
43
207
51
43
207
51
43
207
51
43
207
51
43
207
51
43
207
51
43
207
51
43
207
51
43
207
51
43
207
51
43
207
51
43
207
51
43
207
51
43
207
51
43
207
51
43
207
51
43
207
51
43
207
51
43
207
51
43
207
51
43
207
51
43
207
51
43
207
51
43
207
51
43
207
51
43
207
51
43
207
51
43
207
51
43
207
51
43
207
51
43
207
51
43
207
51
43
207
51
43
207
51
43
207
51
43
207
51
43
207
51
43
207
51
43
207
51
43
207
51
43
207
51
43
207
51
43
207
51
43
207
51
43
207
51
43
207
51
43
207
51
43
207
51
43
207
51
43
207
51
43
207
51
43
207
51
43
207
51
43
207
51
43
207
51
43
207
51
43
207
51
43
207
51
43
207
51
43
207
51
43
207
51
43
207
51
43
207
51
43
207
51
43
207
51
43
207
51
43
207
51
43
207
51
43
207
51
43
207
51
43
207
51
43
207
51
43
207
51
43
207
51
43
207
51
43
207
51
43
207
51
43
207
51
43
207
51
43
207
51
43
207
51
43
207
51
43
207
51
43
207
51
43
207
51
43
207
51
43
207
51
43
207
51
43
207
51
43
207
51
43
207
51
43
207
51
43
207
51
43
207
51
43
207
51
43
207
51
43
207
51
43
207
51
43
207
51
43
207
51
43
207
51
43
207
51
43
207
51
43
207
51
43
207
51
43
207
51
43
207
51
43
207
51
43
207
51
43
207
51
43
207
51
43
207
51
43
207
51
43
207
51
43
207
51
43
207
51
43
207
51
43
207
51
43
207
51
43
207
51
43
207
51
43
207
51
43
207
51
43
207
51
43
207
51
43
207
51
43
207
51
43
207
51
43
207
51
43
207
51
43
207
51
43
207
51
43
207
51
43
207
51
43
207
51
43
207
51
43
207
51
43
207
51
43
207
51
43
207
51
43
207
51
43
207
51
43
207
51
43
207
51
43
207
51
43
207
51
43
207
51
43
207
51
43
207
51
43
207
51
43
207
51
43
207
51
43
207
51
43
207
51
43
207
51
43
207
51
43
207
51
43
207
51
43
207
51
43
207
51
43
207
51
43
207
51
43
207
51
43
207
51
43
207
51
43
207
51
43
207
51
43
207
51
43
207
51
43
207
51
43
207
51
43
207
51
43
207
51
43
207
51
43
207
51
43
207
51
43
207
51
43
207
51
43
207
51
43
207
51
43
207
51
43
207
51
43
207
51
43
207
51
43
207
51
43
207
51
43
207
51
43
207
51
43
207
51
43
207
51
43
207
51
43
207
51
43
207
51
43
207
51
43
207
51
43
207
51
43
207
51
43
207
51
43
207
51
43
207
51
43
207
51
43
207
51
43
207
51
43
207
51
43
207
51
43
207
51
43
207
51
43
207
51
43
207
51
43
207
51
43
207
51
43
207
51
43
207
51
43
207
51
43
207
51
43
207
51
43
207
51
43
207
51
43
207
51
43
207
51
43
207
51
43
207
51
43
207
51
43
207
51
43
207
51
43
207
51
43
207
51
43
207
51
43
207
51
43
207
51
43
207
51
43
207
51
43
207
51
43
207
51
43
207
51
43
207
51
43
207
51
43
207
51
43
207
51
43
207
51
43
207
51
43
207
51
43
207
51
43
207
51
43
207
51
43
207
51
43
207
51
43
207
51
43
207
51
43
207
51
43
207
51
43
207
51
43
207
51
43
207
51
43
207
51
43
207
51
43
207
51
43
207
51
43
207
51
43
207
51
43
207
51
43
207
51
43
207
51
43
207
51
43
207
51
43
207
51
43
207
51
43
207
51
43
207
51
43
207
51
43
207
51
43
207
51
43
207
51
43
207
51
43
207
51
43
207
51
43
207
51
43
207
51
43
207
51
43
207
51
43
207
51
43
207
51
43
207
51
43
207
51
43
207
51
43
207
51
43
207
51
43
207
51
43
207
51
43
207
51
43
207
51
43
207
51
43
207
51
43
207
51
43
207
51
43
207
51
43
207
51
43
207
51
43
207
51
43
207
51
43
207
51
43
207
51
43
207
51
43
207
51
43
207
51
43
207
51
43
207
51
43
207
51
43
207
51
43
207
51
43
207
51
43
207
51
43
207
51
43
207
51
43
207
51
43
207
51
43
207
51
43
207
51
43
207
51
43
207
51
43
207
51
43
207
51
43
207
51
43
207
51
43
207
51
43
207
51
43
207
51
43
207
51
43
207
51
43
207
51
43
207
51
43
207
51
43
207
51
43
207
51
43
207
51
43
207
51
43
207
51
43
207
51
43
207
51
43
207
51
43
207
51
43
207
51
43
207
51
43
207
51
43
207
51
43
207
51
43
207
51
43
207
51
43
207
51
43
207
51
43
207
51
43
207
51
43
207
51
43
207
51
43
207
51
43
207
51
43
207
51
43
207
51
43
207
51
43
207
51
43
207
51
43
207
51
43
207
51
43
207
51
43
207
51
43
207
51
43
207
51
43
207
51
43
207
51
43
207
51
43
207
51
43
207
51
43
207
51
43
207
51
43
207
51
43
207
51
43
207
51
43
207
51
43
207
51
43
207
51
43
207
51
43
207
51
43
207
51
43
207
51
43
207
51
43
207
51
43
207
51
43
207
51
43
207
51
43
207
51
43
207
51
43
207
51
43
207
51
43
207
51
43
207
51
43
207
51
43
207
51
43
207
51
43
207
51
43
207
51
43
207
51
43
207
51
43
207
51
43
207
51
43
207
51
43
207
51
43
207
51
43
207
51
43
207
51
43
207
51
43
207
51
43
207
51
43
207
51
43
207
51
43
207
51
43
207
51
43
207
51
43
207
51
43
207
51
43
207
51
43
207
51
43
207
51
43
207
51
43
207
51
43
207
51
43
207
51
43
207
51
43
207
51
43
207
51
43
207
51
43
207
51
43
207
51
43
207
51
43
207
51
43
207
51
43
207
51
43
207
51
43
207
51
43
207
51
43
207
51
43
207
51
43
207
51
43
207
51
43
207
51
43
207
51
43
207
51
43
207
51
43
207
51
43
207
51
43
207
51
43
207
51
43
207
51
43
207
51
43
207
51
43
207
51
43
207
51
43
207
51
43
207
51
43
207
51
43
207
51
43
207
51
43
207
51
43
207
51
43
207
51
43
207
51
43
207
51
43
207
51
43
207
51
43
207
51
43
207
51
43
207
51
43
207
51
43
207
51
43
207
51
43
207
51
43
207
51
43
207
51
43
207
51
43
207
51
43
207
51
43
207
51
43
207
51
43
207
51
43
207
51
43
207
51
43
207
51
43
207
51
43
207
51
43
207
51
43
207
51
43
207
51
43
207
51
43
207
51
43
207
51
43
207
51
43
207
51
43
207
51
43
207
51
43
207
51
43
207
51
43
207
51
43
207
51
43
207
51
43
207
51
43
207
51
43
207
51
43
207
51
43
207
51
43
207
51
43
207
51
43
207
51
43
207
51
43
207
51
43
207
51
43
207
51
43
207
51
43
207
51
43
207
51
43
207
51
43
207
51
43
207
51
43
207
51
43
207
51
43
207
51
43
207
51
43
207
51
43
207
51
43
207
51
43
207
51
43
207
51
43
207
51
43
207
51
43
207
51
43
207
51
43
207
51
43
207
51
43
207
51
43
207
51
43
207
51
43
207
51
43
207
51
43
207
51
43
207
51
43
207
51
43
207
51
43
207
51
43
207
51
43
207
51
43
207
51
43
207
51
43
207
51
43
207
51
43
207
51
43
207
51
43
207
51
43
207
51
43
207
51
43
207
51
43
207
51
43
207
51
43
207
51
43
207
51
43
207
51
43
207
51
43
207
51
43
207
51
43
207
51
43
207
51
43
207
51
43
207
51
43
207
51
43
207
51
43
207
51
43
207
51
43
207
51
43
207
51
43
207
51
43
207
51
43
207
51
43
207
51
43
207
51
43
207
51
43
207
51
43
207
51
43
207
51
43
207
51
43
207
51
43
207
51
43
207
51
43
207
51
43
207
51
43
207
51
43
207
51
43
207
51
43
207
51
43
207
51
43
207
51
43
207
51
43
207
51
43
207
51
43
207
51
43
207
51
43
207
51
43
207
51
43
207
51
43
207
51
43
207
51
43
207
51
43
207
51
43
207
51
43
207
51
43
207
51
43
207
51
43
207
51
43
207
51
43
207
51
43
207
51
43
207
51
43
207
51
43
207
51
43
207
51
43
207
51
43
207
51
43
207
51
43
207
51
43
207
51
43
207
51
43
207
51
43
207
51
43
207
51
43
207
51
43
207
51
43
207
51
43
207
51
43
207
51
43
207
51
43
207
51
43
207
51
43
207
51
43
207
51
43
207
51
43
207
51
43
207
51
43
207
51
43
207
51
43
207
51
43
207
51
43
207
51
43
207
51
43
207
51
43
207
51
43
207
51
43
207
51
43
207
51
43
207
51
43
207
51
43
207
51
43
207
51
43
207
51
43
207
51
43
207
51
43
207
51
43
207
51
43
207
51
43
207
51
43
207
51
43
207
51
43
207
51
43
207
51
43
207
51
43
207
51
43
207
51
43
207
51
43
207
51
43
207
51
43
207
51
43
207
51
43
207
51
43
207
51
43
207
51
43
207
51
43
207
51
43
207
51
43
207
51
43
207
51
43
207
51
43
207
51
43
207
51
43
207
51
43
207
51
43
207
51
43
207
51
43
207
51
43
207
51
43
207
51
43
207
51
43
207
51
43
207
51
43
207
51
43
207
51
43
207
51
43
207
51
43
207
51
43
207
51
43
207
51
43
207
51
43
207
51
43
207
51
43
207
51
43
207
51
43
207
51
43
207
51
43
207
51
43
207
51
43
207
51
43
207
51
43
207
51
43
207
51
43
207
51
43
207
51
43
207
51
43
207
51
43
207
51
43
207
51
43
207
51
43
207
51
43
207
51
43
207
51
43
207
51
43
207
51
43
207
51
43
207
51
43
207
51
43
207
51
43
207
51
43
207
51
43
207
51
43
207
51
43
207
51
43
207
51
43
207
51
43
207
51
43
207
51
43
207
51
43
207
51
43
207
51
43
207
51
43
207
51
43
207
51
43
207
51
43
207
51
43
207
51
43
207
51
43
207
51
43
207
51
43
207
51
43
207
51
43
207
51
43
207
51
43
207
51
43
207
51
43
207
51
43
207
51
43
207
51
43
207
51
43
207
51
43
207
51
43
207
51
43
207
51
43
207
51
43
207
51
43
207
51
43
207
51
43
207
51
43
207
51
43
207
51
43
207
51
43
207
51
43
207
51
43
207
51
43
207
51
43
207
51
43
207
51
43
207
51
43
207
51
43
207
51
43
207
51
43
207
51
43
207
51
43
207
51
43
207
51
43
207
51
43
207
51
43
207
51
43
207
51
43
207
51
43
207
51
43
207
51
43
207
51
43
207
51
43
207
51
43
207
51
43
207
51
43
207
51
43
207
51
43
207
51
43
207
51
43
207
51
43
207
51
43
207
51
43
207
51
43
207
51
43
207
51
43
207
51
43
207
51
43
207
51
43
207
51
43
207
51
43
207
51
43
207
51
43
207
51
43
207
51
43
207
51
43
207
51
43
207
51
43
207
51
43
207
51
43
207
51
43
207
51
43
207
51
43
207
51
43
207
51
43
207
51
43
207
51
43
207
51
43
207
51
43
207
51
43
207
51
43
207
51
43
207
51
43
207
51
43
207
51
43
207
51
43
207
51
43
207
51
43
207
51
43
207
51
43
207
51
43
207
51
43
207
51
43
207
51
43
207
51
43
207
51
43
207
51
43
207
51
43
207
51
43
207
51
43
207
51
43
207
51
43
207
51
43
207
51
43
207
51
43
207
51
43
207
51
43
207
51
43
207
51
43
207
51
43
207
51
43
207
51
43
207
51
43
207
51
43
207
51
43
207
51
43
207
51
43
207
51
43
207
51
43
207
51
43
207
51
43
207
51
43
207
51
43
207
51
43
207
51
43
207
51
43
207
51
43
207
51
43
207
51
43
207
51
43
207
51
43
207
51
43
207
51
43
207
51
43
207
51
43
207
51
43
207
51
43
207
51
43
207
51
43
207
51
43
207
51
43
207
51
43
207
51
43
207
51
43
207
51
43
207
51
43
207
51
43
207
51
43
207
51
43
207
51
43
207
51
43
207
51
43
207
51
43
207
51
43
207
51
43
207
51
43
207
51
43
207
51
43
207
51
43
207
51
43
207
51
43
207
51
43
207
51
43
207
51
43
207
51
43
207
51
43
207
51
43
207
51
43
207
51
43
207
51
43
207
51
43
207
51
43
207
51
43
207
51
43
207
51
43
207
51
43
207
51
43
207
51
43
207
51
43
207
51
43
207
51
43
207
51
43
207
51
43
207
51
43
207
51
43
207
51
43
207
51
43
207
51
43
207
51
43
207
51
43
207
51
43
207
51
43
207
51
43
207
51
43
207
51
43
207
51
43
207
51
43
207
51
43
207
51
43
207
51
43
207
51
43
207
51
43
207
51
43
207
51
43
207
51
43
207
51
43
207
51
43
207
51
43
207
51
43
207
51
43
207
51
43
207
51
43
207
51
43
207
51
43
207
51
43
207
51
43
207
51
43
207
51
43
207
51
43
207
51
43
207
51
43
207
51
43
207
51
43
207
51
43
207
51
43
207
51
43
207
51
43
207
51
43
207
51
43
207
51
43
207
51
43
207
51
43
207
51
43
207
51
43
207
51
43
207
51
43
207
51
43
207
51
43
207
51
43
207
51
43
207
51
43
207
51
43
207
51
43
207
51
43
207
51
43
207
51
43
207
51
43
207
51
43
207
51
43
207
51
43
207
51
43
207
51
43
207
51
43
207
51
43
207
51
43
207
51
43
207
51
43
207
51
43
207
51
43
207
51
43
207
51
43
207
51
43
207
51
43
207
51
43
207
51
43
207
51
43
207
51
43
207
51
43
207
51
43
207
51
43
207
51
43
207
51
43
207
51
43
207
51
43
207
51
43
207
51
43
207
51
43
207
51
43
207
51
43
207
51
43
207
51
43
207
51
43
207
51
43
207
51
43
207
51
43
207
51
43
207
51
43
207
51
43
207
51
43
207
51
43
207
51
43
207
51
43
207
51
43
207
51
43
207
51
43
207
51
43
207
51
43
207
51
43
207
51
43
207
51
43
207
51
43
207
51
43
207
51
43
207
51
43
207
51
43
207
51
43
207
51
43
207
51
43
207
51
43
207
51
43
207
51
43
207
51
43
207
51
43
207
51
43
207
51
43
207
51
43
207
51
43
207
51
43
207
51
43
207
51
43
207
51
43
207
51
43
207
51
43
207
51
43
207
51
43
207
51
43
207
51
43
207
51
43
207
51
43
207
51
43
207
51
43
207
51
43
207
51
43
207
51
43
207
51
43
207
51
43
207
51
43
207
51
43
207
51
43
207
51
43
207
51
43
207
51
43
207
51
43
207
51
43
207
51
43
207
51
43
207
51
43
207
51
43
207
51
43
207
51
43
207
51
43
207
51
43
207
51
43
207
51
43
207
51
43
207
51
43
207
51
43
207
51
43
207
51
43
207
51
43
207
51
43
207
51
43
207
51
43
207
51
43
207
51
43
207
51
43
207
51
43
207
51
43
207
51
43
207
51
43
207
51
43
207
51
43
207
51
43
207
51
43
207
51
43
207
51
43
207
51
43
207
51
43
207
51
43
207
51
43
207
51
43
207
51
43
207
51
43
207
51
43
207
51
43
207
51
43
207
51
43
207
51
43
207
51
43
207
51
43
207
51
43
207
51
43
207
51
43
207
51
43
207
51
43
207
51
43
207
51
43
207
51
43
207
51
43
207
51
43
207
51
43
207
51
43
207
51
43
207
51
43
207
51
43
207
51
43
207
51
43
207
51
43
207
51
43
207
51
43
207
51
43
207
51
43
207
51
43
207
51
43
207
51
43
207
51
43
207
51
43
207
51
43
207
51
43
207
51
43
207
51
43
207
51
43
207
51
43
207
51
43
207
51
43
207
51
43
207
51
43
207
51
43
207
51
43
207
51
43
207
51
43
207
51
43
207
51
43
207
51
43
207
51
43
207
51
43
207
51
43
207
51
43
207
51
43
207
51
43
207
51
43
207
51
43
207
51
43
207
51
43
207
51
43
207
51
43
207
51
43
207
51
43
207
51
43
207
51
43
207
51
43
207
51
43
207
51
43
207
51
43
207
51
43
207
51
43
207
51
43
207
51
43
207
51
43
207
51
43
207
51
43
207
51
43
207
51
43
207
51
43
207
51
43
207
51
43
207
51
43
207
51
43
207
51
43
207
51
43
207
51
43
207
51
43
207
51
43
207
51
43
207
51
43
207
51
43
207
51
43
207
51
43
207
51
43
207
51
43
207
51
43
207
51
43
207
51
43
207
51
43
207
51
43
207
51
43
207
51
43
207
51
43
207
51
43
207
51
43
207
51
43
207
51
43
207
51
43
207
51
43
207
51
43
207
51
43
207
51
43
207
51
43
207
51
43
207
51
43
207
51
43
207
51
43
207
51
43
207
51
43
207
51
43
207
51
43
207
51
43
207
51
43
207
51
43
207
51
43
207
51
43
207
51
43
207
51
43
207
51
43
207
51
43
207
51
43
207
51
43
207
51
43
207
51
43
207
51
43
207
51
43
207
51
43
207
51
43
207
51
43
207
51
43
207
51
43
207
51
43
207
51
43
207
51
43
207
51
43
207
51
43
207
51
43
207
51
43
207
51
43
207
51
43
207
51
43
207
51
43
207
51
43
207
51
43
207
51
43
207
51
43
207
51
43
207
51
43
207
51
43
207
51
43
207
51
43
207
51
43
207
51
43
207
51
43
207
51
43
207
51
43
207
51
43
207
51
43
207
51
43
207
51
43
207
51
43
207
51
43
207
51
43
207
51
43
207
51
43
207
51
43
207
51
43
207
51
43
207
51
43
207
51
43
207
51
43
207
51
43
207
51
43
207
51
43
207
51
43
207
51
43
207
51
43
207
51
43
207
51
43
207
51
43
207
51
43
207
51
43
207
51
43
207
51
43
207
51
43
207
51
43
207
51
43
207
51
43
207
51
43
207
51
43
207
51
43
207
51
43
207
51
43
207
51
43
207
51
43
207
51
43
207
51
43
207
51
43
207
51
43
207
51
43
207
51
43
207
51
43
207
51
43
207
51
43
207
51
43
207
51
43
207
51
43
207
51
43
207
51
43
207
51
43
207
51
43
207
51
43
207
51
43
207
51
43
207
51
43
207
51
43
207
51
43
207
51
43
207
51
43
207
51
43
207
51
43
207
51
43
207
51
43
207
51
43
207
51
43
207
51
43
207
51
43
207
51
43
207
51
43
207
51
43
207
51
43
207
51
43
207
51
43
207
51
43
207
51
43
207
51
43
207
51
43
207
51
43
207
51
43
207
51
43
207
51
43
207
51
43
207
51
43
207
51
43
207
51
43
207
51
43
207
51
43
207
51
43
207
51
43
207
51
43
207
51
43
207
51
43
207
51
43
207
51
43
207
51
43
207
51
43
207
51
43
207
51
43
207
51
43
207
51
43
207
51
43
207
51
43
207
51
43
207
51
43
207
51
43
207
51
43
207
51
43
207
51
43
207
51
43
207
51
43
207
51
43
207
51
43
207
51
43
207
51
43
207
51
43
207
51
43
207
51
43
207
51
43
207
51
43
207
51
43
207
51
43
207
51
43
207
51
43
207
51
43
207
51
43
207
51
43
207
51
43
207
51
43
207
51
43
207
51
43
207
51
43
207
51
43
207
51
43
207
51
43
207
51
43
207
51
43
207
51
43
207
51
43
207
51
43
207
51
43
207
51
43
207
51
43
207
51
43
207
51
43
207
51
43
207
51
43
207
51
43
207
51
43
207
51
43
207
51
43
207
51
43
207
51
43
207
51
43
207
51
43
207
51
43
207
51
43
207
51
43
207
51
43
207
51
43
207
51
43
207
51
43
207
51
43
207
51
43
207
51
43
207
51
43
207
51
43
207
51
43
207
51
43
207
51
43
207
51
43
207
51
43
207
51
43
207
51
43
207
51
43
207
51
43
207
51
43
207
51
43
207
51
43
207
51
43
207
51
43
207
51
43
207
51
43
207
51
43
207
51
43
207
51
43
207
51
43
207
51
43
207
51
43
207
51
43
207
51
43
207
51
43
207
51
43
207
51
43
207
51
43
207
51
43
207
51
43
207
51
43
207
51
43
207
51
43
207
51
43
207
51
43
207
51
43
207
51
43
207
51
43
207
51
43
207
51
43
207
51
43
207
51
43
207
51
43
207
51
43
207
51
43
207
51
43
207
51
43
207
51
43
207
51
43
207
51
43
207
51
43
207
51
43
207
51
43
207
51
43
207
51
43
207
51
43
207
51
43
207
51
43
207
51
43
207
51
43
207
51
43
207
51
43
207
51
43
207
51
43
207
51
43
207
51
43
207
51
43
207
51
43
207
51
43
207
51
43
207
51
43
207
51
43
207
51
43
207
51
43
207
51
43
207
51
43
207
51
43
207
51
43
207
51
43
207
51
43
207
51
43
207
51
43
207
51
43
207
51
43
207
51
43
207
51
43
207
51
43
207
51
43
207
51
43
207
51
43
207
51
43
207
51
43
207
51
43
207
51
43
207
51
43
207
51
43
207
51
43
207
51
43
207
51
43
207
51
43
207
51
43
207
51
43
207
51
43
207
51
43
207
51
43
207
51
43
207
51
43
207
51
43
207
51
43
207
51
43
207
51
43
207
51
43
207
51
43
207
51
43
207
51
43
207
51
43
207
51
43
207
51
43
207
51
43
207
51
43
207
51
43
207
51
43
207
51
43
207
51
43
207
51
43
207
51
43
207
51
43
207
51
43
207
51
43
207
51
43
207
51
43
207
51
43
207
51
43
207
51
43
207
51
43
207
51
43
207
51
43
207
51
43
207
51
43
207
51
43
207
51
43
207
51
43
207
51
43
207
51
43
207
51
43
207
51
43
207
51
43
207
51
43
207
51
43
207
51
43
207
51
43
207
51
43
207
51
43
207
51
43
207
51
43
207
51
43
207
51
43
207
51
43
207
51
43
207
51
43
207
51
43
207
51
43
207
51
43
207
51
43
207
51
43
207
51
43
207
51
43
207
51
43
207
51
43
207
51
43
207
51
43
207
51
43
207
51
43
207
51
43
207
51
43
207
51
43
207
51
43
207
51
43
207
51
43
207
51
43
207
51
43
207
51
43
207
51
43
207
51
43
207
51
43
207
51
43
207
51
43
207
51
43
207
51
43
207
51
43
207
51
43
207
51
43
207
51
43
207
51
43
207
51
43
207
51
43
207
51
43
207
51
43
207
51
43
207
51
43
207
51
43
207
51
43
207
51
43
207
51
43
207
51
43
207
51
43
207
51
43
207
51
43
207
51
43
207
51
43
207
51
43
207
51
43
207
51
43
207
51
43
207
51
43
207
51
43
207
51
43
207
51
43
207
51
43
207
51
43
207
51
43
207
51
43
207
51
43
207
51
43
207
51
43
207
51
43
207
51
43
207
51
43
207
51
43
207
51
43
207
51
43
207
51
43
207
51
43
207
51
43
207
51
43
207
51
43
207
51
43
207
51
43
207
51
43
207
51
43
207
51
43
207
51
43
207
51
43
207
51
43
207
51
43
207
51
43
207
51
43
207
51
43
207
51
43
207
51
43
207
51
43
207
51
43
207
51
43
207
51
43
207
51
43
207
51
43
207
51
43
207
51
43
207
51
43
207
51
43
207
51
43
207
51
43
207
51
43
207
51
43
207
51
43
207
51
43
207
51
43
207
51
43
207
51
43
207
51
43
207
51
43
207
51
43
207
51
43
207
51
43
207
51
43
207
51
43
207
51
43
207
51
43
207
51
43
207
51
43
207
51
43
207
51
43
207
51
43
207
51
43
207
51
43
207
51
43
207
51
43
207
51
43
207
51
43
207
51
43
207
51
43
207
51
43
207
51
43
207
51
43
207
51
43
207
51
43
207
51
43
207
51
43
207
51
43
207
51
43
207
51
43
207
51
43
207
51
43
207
51
43
207
51
43
207
51
43
207
51
43
207
51
43
207
51
43
207
51
43
207
51
43
207
51
43
207
51
43
207
51
43
207
51
43
207
51
43
207
51
43
207
51
43
207
51
43
207
51
43
207
51
43
207
51
43
207
51
43
207
51
43
207
51
43
207
51
43
207
51
43
207
51
43
207
51
43
207
51
43
207
51
43
207
51
43
207
51
43
207
51
43
207
51
43
207
51
43
207
51
43
207
51
43
207
51
43
207
51
43
207
51
43
207
51
43
207
51
43
207
51
43
207
51
43
207
51
43
207
51
43
207
51
43
207
51
43
207
51
43
207
51
43
207
51
43
207
51
43
207
51
43
207
51
43
207
51
43
207
51
43
207
51
43
207
51
43
207
51
43
207
51
43
207
51
43
207
51
43
207
51
43
207
51
43
207
51
43
207
51
43
207
51
43
207
51
43
207
51
43
207
51
43
207
51
43
207
51
43
207
51
43
207
51
43
207
51
43
207
51
43
207
51
43
207
51
43
207
51
43
207
51
43
207
51
43
207
51
43
207
51
43
207
51
43
207
51
43
207
51
43
207
51
43
207
51
43
207
51
43
207
51
43
207
51
43
207
51
43
207
51
43
207
51
43
207
51
43
207
51
43
207
51
43
207
51
43
207
51
43
207
51
43
207
51
43
207
51
43
207
51
43
207
51
43
207
51
43
207
51
43
207
51
43
207
51
43
207
51
43
207
51
43
207
51
43
207
51
43
207
51
43
207
51
43
207
51
43
207
51
43
207
51
43
207
51
43
207
51
43
207
51
43
207
51
43
207
51
43
207
51
43
207
51
43
207
51
43
207
51
43
207
51
43
207
51
43
207
51
43
207
51
43
207
51
43
207
51
43
207
51
43
207
51
43
207
51
43
207
51
43
207
51
43
207
51
43
207
51
43
207
51
43
207
51
43
207
51
43
207
51
43
207
51
43
207
51
43
207
51
43
207
51
43
207
51
43
207
51
43
207
51
43
207
51
43
207
51
43
207
51
43
207
51
43
207
51
43
207
51
43
207
51
43
207
51
43
207
51
43
207
51
43
207
51
43
207
51
43
207
51
43
207
51
43
207
51
43
207
51
43
207
51
43
207
51
43
207
51
43
207
51
43
207
51
43
207
51
43
207
51
43
207
51
43
207
51
43
207
51
43
207
51
43
207
51
43
207
51
43
207
51
43
207
51
43
207
51
43
207
51
43
207
51
43
207
51
43
207
51
43
207
51
43
207
51
43
207
51
43
207
51
43
207
51
43
207
51
43
207
51
43
207
51
43
207
51
43
207
51
43
207
51
43
207
51
43
207
51
43
207
51
43
207
51
43
207
51
43
207
51
43
207
51
43
207
51
43
207
51
43
207
51
43
207
51
43
207
51
43
207
51
43
207
51
43
207
51
43
207
51
43
207
51
43
207
51
43
207
51
43
207
51
43
207
51
43
207
51
43
207
51
43
207
51
43
207
51
43
207
51
43
207
51
43
207
51
43
207
51
43
207
51
43
207
51
43
207
51
43
207
51
43
207
51
43
207
51
43
207
51
43
207
51
43
207
51
43
207
51
43
207
51
43
207
51
43
207
51
43
207
51
43
207
51
43
207
51
43
207
51
43
207
51
43
207
51
43
207
51
43
207
51
43
207
51
43
207
51
43
207
51
43
207
51
43
207
51
43
207
51
43
207
51
43
207
51
43
207
51
43
207
51
43
207
51
43
207
51
43
207
51
43
207
51
43
207
51
43
207
51
43
207
51
43
207
51
43
207
51
43
207
51
43
207
51
43
207
51
43
207
51
43
207
51
43
207
51
43
207
51
43
207
51
43
207
51
43
207
51
43
207
51
43
207
51
43
207
51
43
207
51
43
207
51
43
207
51
43
207
51
43
207
51
43
207
51
43
207
51
43
207
51
43
207
51
43
207
51
43
207
51
43
207
51
43
207
51
43
207
51
43
207
51
43
207
51
43
207
51
43
207
51
43
207
51
43
207
51
43
207
51
43
207
51
43
207
51
43
207
51
43
207
51
43
207
51
43
207
51
43
207
51
43
207
51
43
207
51
43
207
51
43
207
51
43
207
51
43
207
51
43
207
51
43
207
51
43
207
51
43
207
51
43
207
51
43
207
51
43
207
51
43
207
51
43
207
51
43
207
51
43
207
51
43
207
51
43
207
51
43
207
51
43
207
51
43
207
51
43
207
51
43
207
51
43
207
51
43
207
51
43
207
51
43
207
51
43
207
51
43
207
51
43
207
51
43
207
51
43
207
51
43
207
51
43
207
51
43
207
51
43
207
51
43
207
51
43
207
51
43
207
51
43
207
51
43
207
51
43
207
51
43
207
51
43
207
51
43
207
51
43
207
51
43
207
51
43
207
51
43
207
51
43
207
51
43
207
51
43
207
51
43
207
51
43
207
51
43
207
51
43
207
51
43
207
51
43
207
51
43
207
51
43
207
51
43
207
51
43
207
51
43
207
51
43
207
51
43
207
51
43
207
51
43
207
51
43
207
51
43
207
51
43
207
51
43
207
51
43
207
51
43
207
51
43
207
51
43
207
51
43
207
51
43
207
51
43
207
51
43
207
51
43
207
51
43
207
51
43
207
51
43
207
51
43
207
51
43
207
51
43
207
51
43
207
51
43
207
51
43
207
51
43
207
51
43
207
51
43
207
51
43
207
51
43
207
51
43
207
51
43
207
51
43
207
51
43
207
51
43
207
51
43
207
51
43
207
51
43
207
51
43
207
51
43
207
51
43
207
51
43
207
51
43
207
51
43
207
51
43
207
51
43
207
51
43
207
51
43
207
51
43
207
51
43
207
51
43
207
51
43
207
51
43
207
51
43
207
51
43
207
51
43
207
51
43
207
51
43
207
51
43
207
51
43
207
51
43
207
51
43
207
51
43
207
51
43
207
51
43
207
51
43
207
51
43
207
51
43
207
51
43
207
51
43
207
51
43
207
51
43
207
51
43
207
51
43
207
51
43
207
51
43
207
51
43
207
51
43
207
51
43
207
51
43
207
51
43
207
51
43
207
51
43
207
51
43
207
51
43
207
51
43
207
51
43
207
51
43
207
51
43
207
51
43
207
51
43
207
51
43
207
51
43
207
51
43
207
51
43
207
51
43
207
51
43
207
51
43
207
51
43
207
51
43
207
51
43
207
51
43
207
51
43
207
51
43
207
51
43
207
51
43
207
51
43
207
51
43
207
51
43
207
51
43
207
51
43
207
51
43
207
51
43
207
51
43
207
51
43
207
51
43
207
51
43
207
51
43
207
51
43
207
51
43
207
51
43
207
51
43
207
51
43
207
51
43
207
51
43
207
51
43
207
51
43
207
51
43
207
51
43
207
51
43
207
51
43
207
51
43
207
51
43
207
51
43
207
51
43
207
51
43
207
51
43
207
51
43
207
51
43
207
51
43
207
51
43
207
51
43
207
51
43
207
51
43
207
51
43
207
51
43
207
51
43
207
51
43
207
51
43
207
51
43
207
51
43
207
51
43
207
51
43
207
51
43
207
51
43
207
51
43
207
51
43
207
51
43
207
51
43
207
51
43
207
51
43
207
51
43
207
51
43
207
51
43
207
51
43
207
51
43
207
51
43
207
51
43
207
51
43
207
51
43
207
51
43
207
51
43
207
51
43
207
51
43
207
51
43
207
51
43
207
51
43
207
51
43
207
51
43
207
51
43
207
51
43
207
51
43
207
51
43
207
51
43
207
51
43
207
51
43
207
51
43
207
51
43
207
51
43
207
51
43
207
51
43
207
51
43
207
51
43
207
51
43
207
51
43
207
51
43
207
51
43
207
51
43
207
51
43
207
51
43
207
51
43
207
51
43
207
51
43
207
51
43
207
51
43
207
51
43
207
51
43
207
51
43
207
51
43
207
51
43
207
51
43
207
51
43
207
51
43
207
51
43
207
51
43
207
51
43
207
51
43
207
51
43
207
51
43
207
51
43
207
51
43
207
51
43
207
51
43
207
51
43
207
51
43
207
51
43
207
51
43
207
51
43
207
51
43
207
51
43
207
51
43
207
51
43
207
51
43
207
51
43
207
51
43
207
51
43
207
51
43
207
51
43
207
51
43
207
51
43
207
51
43
207
51
43
207
51
43
207
51
43
207
51
43
207
51
43
207
51
43
207
51
43
207
51
43
207
51
43
207
51
43
207
51
43
207
51
43
207
51
43
207
51
43
207
51
43
207
51
43
207
51
43
207
51
43
207
51
43
207
51
43
207
51
43
207
51
43
207
51
43
207
51
43
207
51
43
207
51
43
207
51
43
207
51
43
207
51
43
207
51
43
207
51
43
207
51
43
207
51
43
207
51
43
207
51
43
207
51
43
207
51
43
207
51
43
207
51
43
207
51
43
207
51
43
207
51
43
207
51
43
207
51
43
207
51
43
207
51
43
207
51
43
207
51
43
207
51
43
207
51
43
207
51
43
207
51
43
207
51
43
207
51
43
207
51
43
207
51
43
207
51
43
207
51
43
207
51
43
207
51
43
207
51
43
207
51
43
207
51
43
207
51
43
207
51
43
207
51
43
207
51
43
207
51
43
207
51
43
207
51
43
207
51
43
207
51
43
207
51
43
207
51
43
207
51
43
207
51
43
207
51
43
207
51
43
207
51
43
207
51
43
207
51
43
207
51
43
207
51
43
207
51
43
207
51
43
207
51
43
207
51
43
207
51
43
207
51
43
207
51
43
207
51
43
207
51
43
207
51
43
207
51
43
207
51
43
207
51
43
207
51
43
207
51
43
207
51
43
207
51
43
207
51
43
207
51
43
207
51
43
207
51
43
207
51
43
207
51
43
207
51
43
207
51
43
207
51
43
207
51
43
207
51
43
207
51
43
207
51
43
207
51
43
207
51
43
207
51
43
207
51
43
207
51
43
207
51
43
207
51
43
207
51
43
207
51
43
207
51
43
207
51
43
207
51
43
207
51
43
207
51
43
207
51
43
207
51
43
207
51
43
207
51
43
207
51
43
207
51
43
207
51
43
207
51
43
207
51
43
207
51
43
207
51
43
207
51
43
207
51
43
207
51
43
207
51
43
207
51
43
207
51
43
207
51
43
207
51
43
207
51
43
207
51
43
207
51
43
207
51
43
207
51
43
207
51
43
207
51
43
207
51
43
207
51
43
207
51
43
207
51
43
207
51
43
207
51
43
207
51
43
207
51
43
207
51
43
207
51
43
207
51
43
207
51
43
207
51
43
207
51
43
207
51
43
207
51
43
207
51
43
207
51
43
207
51
43
207
51
43
207
51
43
207
51
43
207
51
43
207
51
43
207
51
43
207
51
43
207
51
43
207
51
43
207
51
43
207
51
43
207
51
43
207
51
43
207
51
43
207
51
43
207
51
43
207
51
43
207
51
43
207
51
43
207
51
43
207
51
43
207
51
43
207
51
43
207
51
43
207
51
43
207
51
43
207
51
43
207
51
43
207
51
43
207
51
43
207
51
43
207
51
43
207
51
43
207
51
43
207
51
43
207
51
43
207
51
43
207
51
43
207
51
43
207
51
43
207
51
43
207
51
43
207
51
43
207
51
43
207
51
43
207
51
43
207
51
43
207
51
43
207
51
43
207
51
43
207
51
43
207
51
43
207
51
43
207
51
43
207
51
43
207
51
43
207
51
43
207
51
43
207
51
43
207
51
43
207
51
43
207
51
43
207
51
43
207
51
43
207
51
43
207
51
43
207
51
43
207
51
43
207
51
43
207
51
43
207
51
43
207
51
43
207
51
43
207
51
43
207
51
43
207
51
43
207
51
43
207
51
43
207
51
43
207
51
43
207
51
43
207
51
43
207
51
43
207
51
43
207
51
43
207
51
43
207
51
43
207
51
43
207
51
43
207
51
43
207
51
43
207
51
43
207
51
43
207
51
43
207
51
43
207
51
43
207
51
43
207
51
43
207
51
43
207
51
43
207
51
43
207
51
43
207
51
43
207
51
43
207
51
43
207
51
43
207
51
43
207
51
43
207
51
43
207
51
43
207
51
43
207
51
43
207
51
43
207
51
43
207
51
43
207
51
43
207
51
43
207
51
43
207
51
43
207
51
43
207
51
43
207
51
43
207
51
43
207
51
43
207
51
43
207
51
43
207
51
43
207
51
43
207
51
43
207
51
43
207
51
43
207
51
43
207
51
43
207
51
43
207
51
43
207
51
43
207
51
43
207
51
43
207
51
43
207
51
43
207
51
43
207
51
43
207
51
43
207
51
43
207
51
43
207
51
43
207
51
43
207
51
43
207
51
43
207
51
43
207
51
43
207
51
43
207
51
43
207
51
43
207
51
43
207
51
43
207
51
43
207
51
43
207
51
43
207
51
43
207
51
43
207
51
43
207
51
43
207
51
43
207
51
43
207
51
43
207
51
43
207
51
43
207
51
43
207
51
43
207
51
43
207
51
43
207
51
43
207
51
43
207
51
43
207
51
43
207
51
43
207
51
43
207
51
43
207
51
43
207
51
43
207
51
43
207
51
43
207
51
43
207
51
43
207
51
43
207
51
43
207
51
43
207
51
43
207
51
43
207
51
43
207
51
43
207
51
43
207
51
43
207
51
43
207
51
43
207
51
43
207
51
43
207
51
43
207
51
43
207
51
43
207
51
43
207
51
43
207
51
43
207
51
43
207
51
43
207
51
43
207
51
43
207
51
43
207
51
43
207
51
43
207
51
43
207
51
43
207
51
43
207
51
43
207
51
43
207
51
43
207
51
43
207
51
43
207
51
43
207
51
43
207
51
43
207
51
43
207
51
43
207
51
43
207
51
43
207
51
43
207
51
43
207
51
43
207
51
43
207
51
43
207
51
43
207
51
43
207
51
43
207
51
43
207
51
43
207
51
43
207
51
43
207
51
43
207
51
43
207
51
43
207
51
43
207
51
43
207
51
43
207
51
43
207
51
43
207
51
43
207
51
43
207
51
43
207
51
43
207
51
43
207
51
43
207
51
43
207
51
43
207
51
43
207
51
43
207
51
43
207
51
43
207
51
43
207
51
43
207
51
43
207
51
43
207
51
43
207
51
43
207
51
43
207
51
43
207
51
43
207
51
43
207
51
43
207
51
43
207
51
43
207
51
43
207
51
43
207
51
43
207
51
43
207
51
43
207
51
43
207
51
43
207
51
43
207
51
43
207
51
43
207
51
43
207
51
43
207
51
43
207
51
43
207
51
43
207
51
43
207
51
43
207
51
43
207
51
43
207
51
43
207
51
43
207
51
43
207
51
43
207
51
43
207
51
43
207
51
43
207
51
43
207
51
43
207
51
43
207
51
43
207
51
43
207
51
43
207
51
43
207
51
43
207
51
43
207
51
43
207
51
43
207
51
43
207
51
43
207
51
43
207
51
43
207
51
43
207
51
43
207
51
43
207
51
43
207
51
43
207
51
43
207
51
43
207
51
43
207
51
43
207
51
43
207
51
43
207
51
43
207
51
43
207
51
43
207
51
43
207
51
43
207
51
43
207
51
43
207
51
43
207
51
43
207
51
43
207
51
43
207
51
43
207
51
43
207
51
43
207
51
43
207
51
43
207
51
43
207
51
43
207
51
43
207
51
43
207
51
43
207
51
43
207
51
43
207
51
43
207
51
43
207
51
43
207
51
43
207
51
43
207
51
43
207
51
43
207
51
43
207
51
43
207
51
43
207
51
43
207
51
43
207
51
43
207
51
43
207
51
43
207
51
43
207
51
43
207
51
43
207
51
43
207
51
43
207
51
43
207
51
43
207
51
43
207
51
43
207
51
43
207
51
43
207
51
43
207
51
43
207
51
43
207
51
43
207
51
43
207
51
43
207
51
43
207
51
43
207
51
43
207
51
43
207
51
43
207
51
43
207
51
43
207
51
43
207
51
43
207
51
43
207
51
43
207
51
43
207
51
43
207
51
43
207
51
43
207
51
43
207
51
43
207
51
43
207
51
43
207
51
43
207
51
43
207
51
43
207
51
43
207
51
43
207
51
43
207
51
43
207
51
43
207
51
43
207
51
43
207
51
43
207
51
43
207
51
43
207
51
43
207
51
43
207
51
43
207
51
43
207
51
43
207
51
43
207
51
43
207
51
43
207
51
43
207
51
43
207
51
43
207
51
43
207
51
43
207
51
43
207
51
43
207
51
43
207
51
43
207
51
43
207
51
43
207
51
43
207
51
43
207
51
43
207
51
43
207
51
43
207
51
43
207
51
43
207
51
43
207
51
43
207
51
43
207
51
43
207
51
43
207
51
43
207
51
43
207
51
43
207
51
43
207
51
43
207
51
43
207
51
43
207
51
43
207
51
43
207
51
43
207
51
43
207
51
43
207
51
43
207
51
43
207
51
43
207
51
43
207
51
43
207
51
43
207
51
43
207
51
43
207
51
43
207
51
43
207
51
43
207
51
43
207
51
43
207
51
43
207
51
43
207
51
43
207
51
43
207
51
43
207
51
43
207
51
43
207
51
43
207
51
43
207
51
43
207
51
43
207
51
43
207
51
43
207
51
43
207
51
43
207
51
43
207
51
43
207
51
43
207
51
43
207
51
43
207
51
43
207
51
43
207
51
43
207
51
43
207
51
43
207
51
43
207
51
43
207
51
43
207
51
43
207
51
43
207
51
43
207
51
43
207
51
43
207
51
43
207
51
43
207
51
43
207
51
43
207
51
43
207
51
43
207
51
43
207
51
43
207
51
43
207
51
43
207
51
43
207
51
43
207
51
43
207
51
43
207
51
43
207
51
43
207
51
43
207
51
43
207
51
43
207
51
43
207
51
43
207
51
43
207
51
43
207
51
43
207
51
43
207
51
43
207
51
43
207
51
43
207
51
43
207
51
43
207
51
43
207
51
43
207
51
43
207
51
43
207
51
43
207
51
43
207
51
43
207
51
43
207
51
43
207
51
43
207
51
43
207
51
43
207
51
43
207
51
43
207
51
43
207
51
43
207
51
43
207
51
43
207
51
43
207
51
43
207
51
43
207
51
43
207
51
43
207
51
43
207
51
43
207
51
43
207
51
43
207
51
43
207
51
43
207
51
43
207
51
43
207
51
43
207
51
43
207
51
43
207
51
43
207
51
43
207
51
43
207
51
43
207
51
43
207
51
43
207
51
43
207
51
43
207
51
43
207
51
43
207
51
43
207
51
43
207
51
43
207
51
43
207
51
43
207
51
43
207
51
43
207
51
43
207
51
43
207
51
43
207
51
43
207
51
43
207
51
43
207
51
43
207
51
43
207
51
43
207
51
43
207
51
43
207
51
43
207
51
43
207
51
43
207
51
43
207
51
43
207
51
43
207
51
43
207
51
43
207
51
43
207
51
43
207
51
43
207
51
43
207
51
43
207
51
43
207
51
43
207
51
43
207
51
43
207
51
43
207
51
43
207
51
43
207
51
43
207
51
43
207
51
43
207
51
43
207
51
43
207
51
43
207
51
43
207
51
43
207
51
43
207
51
43
207
51
43
207
51
43
207
51
43
207
51
43
207
51
43
207
51
43
207
51
43
207
51
43
207
51
43
207
51
43
207
51
43
207
51
43
207
51
43
207
51
43
207
51
43
207
51
43
207
51
43
207
51
43
207
51
43
207
51
43
207
51
43
207
51
43
207
51
43
207
51
43
207
51
43
207
51
43
207
51
43
207
51
43
207
51
43
207
51
43
207
51
43
207
51
43
207
51
43
207
51
43
207
51
43
207
51
43
207
51
43
207
51
43
207
51
43
207
51
43
207
51
43
207
51
43
207
51
43
207
51
43
207
51
43
207
51
43
207
51
43
207
51
43
207
51
43
207
51
43
207
51
43
207
51
43
207
51
43
207
51
43
207
51
43
207
51
43
207
51
43
207
51
43
207
51
43
207
51
43
207
51
43
207
51
43
207
51
43
207
51
43
207
51
43
207
51
43
207
51
43
207
51
43
207
51
43
207
51
43
207
51
43
207
51
43
207
51
43
207
51
43
207
51
43
207
51
43
207
51
43
207
51
43
207
51
43
207
51
43
207
51
43
207
51
43
207
51
43
207
51
43
207
51
43
207
51
43
207
51
43
207
51
43
207
51
43
207
51
43
207
51
43
207
51
43
207
51
43
207
51
43
207
51
43
207
51
43
207
51
43
207
51
43
207
51
43
207
51
43
207
51
43
207
51
43
207
51
43
207
51
43
207
51
43
207
51
43
207
51
43
207
51
43
207
51
43
207
51
43
207
51
43
207
51
43
207
51
43
207
51
43
207
51
43
207
51
43
207
51
43
207
51
43
207
51
43
207
51
43
207
51
43
207
51
43
207
51
43
207
51
43
207
51
43
207
51
43
207
51
43
207
51
43
207
51
43
207
51
43
207
51
43
207
51
43
207
51
43
207
51
43
207
51
43
207
51
43
207
51
43
207
51
43
207
51
43
207
51
43
207
51
43
207
51
43
207
51
43
207
51
43
207
51
43
207
51
43
207
51
43
207
51
43
207
51
43
207
51
43
207
51
43
207
51
43
207
51
43
207
51
43
207
51
43
207
51
43
207
51
43
207
51
43
207
51
43
207
51
43
207
51
43
207
51
43
207
51
43
207
51
43
207
51
43
207
51
43
207
51
43
207
51
43
207
51
43
207
51
43
207
51
43
207
51
43
207
51
43
207
51
43
207
51
43
207
51
43
207
51
43
207
51
43
207
51
43
207
51
43
207
51
43
207
51
43
207
51
43
207
51
43
207
51
43
207
51
43
207
51
43
207
51
43
207
51
43
207
51
43
207
51
43
207
51
43
207
51
43
207
51
43
207
51
43
207
51
43
207
51
43
207
51
43
207
51
43
207
51
43
207
51
43
207
51
43
207
51
43
207
51
43
207
51
43
207
51
43
207
51
43
207
51
43
207
51
43
207
51
43
207
51
43
207
51
43
207
51
43
207
51
43
207
51
43
207
51
43
207
51
43
207
51
43
207
51
43
207
51
43
207
51
43
207
51
43
207
51
43
207
51
43
207
51
43
207
51
43
207
51
43
207
51
43
207
51
43
207
51
43
207
51
43
207
51
43
207
51
43
207
51
43
207
51
43
207
51
43
207
51
43
207
51
43
207
51
43
207
51
43
207
51
43
207
51
43
207
51
43
207
51
43
207
51
43
207
51
43
207
51
43
207
51
43
207
51
43
207
51
43
207
51
43
207
51
43
207
51
43
207
51
43
207
51
43
207
51
43
207
51
43
207
51
43
207
51
43
207
51
43
207
51
43
207
51
43
207
51
43
207
51
43
207
51
43
207
51
43
207
51
43
207
51
43
207
51
43
207
51
43
207
51
43
207
51
43
207
51
43
207
51
43
207
51
43
207
51
43
207
51
43
207
51
43
207
51
43
207
51
43
207
51
43
207
51
43
207
51
43
207
51
43
207
51
43
207
51
43
207
51
43
207
51
43
207
51
43
207
51
43
207
51
43
207
51
43
207
51
43
207
51
43
207
51
43
207
51
43
207
51
43
207
51
43
207
51
43
207
51
43
207
51
43
207
51
43
207
51
43
207
51
43
207
51
43
207
51
43
207
51
43
207
51
43
207
51
43
207
51
43
207
51
43
207
51
43
207
51
43
207
51
43
207
51
43
207
51
43
207
51
43
207
51
43
207
51
43
207
51
43
207
51
43
207
51
43
207
51
43
207
51
43
207
51
43
207
51
43
207
51
43
207
51
43
207
51
43
207
51
43
207
51
43
207
51
43
207
51
43
207
51
43
207
51
43
207
51
43
207
51
43
207
51
43
207
51
43
207
51
43
207
51
43
207
51
43
207
51
43
207
51
43
207
51
43
207
51
43
207
51
43
207
51
43
207
51
43
207
51
43
207
51
43
207
51
43
207
51
43
207
51
43
207
51
43
207
51
43
207
51
43
207
51
43
207
51
43
207
51
43
207
51
43
207
51
43
207
51
43
207
51
43
207
51
43
207
51
43
207
51
43
207
51
43
207
51
43
207
51
43
207
51
43
207
51
43
207
51
43
207
51
43
207
51
43
207
51
43
207
51
43
207
51
43
207
51
43
207
51
43
207
51
43
207
51
43
207
51
43
207
51
43
207
51
43
207
51
43
207
51
43
207
51
43
207
51
43
207
51
43
207
51
43
207
51
43
207
51
43
207
51
43
207
51
43
207
51
43
207
51
43
207
51
43
207
51
43
207
51
43
207
51
43
207
51
43
207
51
43
207
51
43
207
51
43
207
51
43
207
51
43
207
51
43
207
51
43
207
51
43
207
51
43
207
51
43
207
51
43
207
51
43
207
51
43
207
51
43
207
51
43
207
51
43
207
51
43
207
51
43
207
51
43
207
51
43
207
51
43
207
51
43
207
51
43
207
51
43
207
51
43
207
51
43
207
51
43
207
51
43
207
51
43
207
51
43
207
51
43
207
51
43
207
51
43
207
51
43
207
51
43
207
51
43
207
51
43
207
51
43
207
51
43
207
51
43
207
51
43
207
51
43
207
51
43
207
51
43
207
51
43
207
51
43
207
51
43
207
51
43
207
51
43
207
51
43
207
51
43
207
51
43
207
51
43
207
51
43
207
51
43
207
51
43
207
51
43
207
51
43
207
51
43
207
51
43
207
51
43
207
51
43
207
51
43
207
51
43
207
51
43
207
51
43
207
51
43
207
51
43
207
51
43
207
51
43
207
51
43
207
51
43
207
51
43
207
51
43
207
51
43
207
51
43
207
51
43
207
51
43
207
51
43
207
51
43
207
51
43
207
51
43
207
51
43
207
51
43
207
51
43
207
51
43
207
51
43
207
51
43
207
51
43
207
51
43
207
51
43
207
51
43
207
51
43
207
51
43
207
51
43
207
51
43
207
51
43
207
51
43
207
51
43
207
51
43
207
51
43
207
51
43
207
51
43
207
51
43
207
51
43
207
51
43
207
51
43
207
51
43
207
51
43
207
51
43
207
51
43
207
51
43
207
51
43
207
51
43
207
51
43
207
51
43
207
51
43
207
51
43
207
51
43
207
51
43
207
51
43
207
51
43
207
51
43
207
51
43
207
51
43
207
51
43
207
51
43
207
51
43
207
51
43
207
51
43
207
51
43
207
51
43
207
51
43
207
51
43
207
51
43
207
51
43
207
51
43
207
51
43
207
51
43
207
51
43
207
51
43
207
51
43
207
51
43
207
51
43
207
51
43
207
51
43
207
51
43
207
51
43
207
51
43
207
51
43
207
51
43
207
51
43
207
51
43
207
51
43
207
51
43
207
51
43
207
51
43
207
51
43
207
51
43
207
51
43
207
51
43
207
51
43
207
51
43
207
51
43
207
51
43
207
51
43
207
51
43
207
51
43
207
51
43
207
51
43
207
51
43
207
51
43
207
51
43
207
51
43
207
51
43
207
51
43
207
51
43
207
51
43
207
51
43
207
51
43
207
51
43
207
51
43
207
51
43
207
51
43
207
51
43
207
51
43
207
51
43
207
51
43
207
51
43
207
51
43
207
51
43
207
51
43
207
51
43
207
51
43
207
51
43
207
51
43
207
51
43
207
51
43
207
51
43
207
51
43
207
51
43
207
51
43
207
51
43
207
51
43
207
51
43
207
51
43
207
51
43
207
51
43
207
51
43
207
51
43
207
51
43
207
51
43
207
51
43
207
51
43
207
51
43
207
51
43
207
51
43
207
51
43
207
51
43
207
51
43
207
51
43
207
51
43
207
51
43
207
51
43
207
51
43
207
51
43
207
51
43
207
51
43
207
51
43
207
51
43
207
51
43
207
51
43
207
51
43
207
51
43
207
51
43
207
51
43
207
51
43
207
51
43
207
51
43
207
51
43
207
51
43
207
51
43
207
51
43
207
51
43
207
51
43
207
51
43
207
51
43
207
51
43
207
51
43
207
51
43
207
51
43
207
51
43
207
51
43
207
51
43
207
51
43
207
51
43
207
51
43
207
51
43
207
51
43
207
51
43
207
51
43
207
51
43
207
51
43
207
51
43
207
51
43
207
51
43
207
51
43
207
51
43
207
51
43
207
51
43
207
51
43
207
51
43
207
51
43
207
51
43
207
51
43
207
51
43
207
51
43
207
51
43
207
51
43
207
51
43
207
51
43
207
51
43
207
51
43
207
51
43
207
51
43
207
51
43
207
51
43
207
51
43
207
51
43
207
51
43
207
51
43
207
51
43
207
51
43
207
51
43
207
51
43
207
51
43
207
51
43
207
51
43
207
51
43
207
51
43
207
51
43
207
51
43
207
51
43
207
51
43
207
51
43
207
51
43
207
51
43
207
51
43
207
51
43
207
51
43
207
51
43
207
51
43
207
51
43
207
51
43
207
51
43
207
51
43
207
51
43
207
51
43
207
51
43
207
51
43
207
51
43
207
51
43
207
51
43
207
51
43
207
51
43
207
51
43
207
51
43
207
51
43
207
51
43
207
51
43
207
51
43
207
51
43
207
51
43
207
51
43
207
51
43
207
51
43
207
51
43
207
51
43
207
51
43
207
51
43
207
51
43
207
51
43
207
51
43
207
51
43
207
51
43
207
51
43
207
51
43
207
51
43
207
51
43
207
51
43
207
51
43
207
51
43
207
51
43
207
51
43
207
51
43
207
51
43
207
51
43
207
51
43
207
51
43
207
51
43
207
51
43
207
51
43
207
51
43
207
51
43
207
51
43
207
51
43
207
51
43
207
51
43
207
51
43
207
51
43
207
51
43
207
51
43
207
51
43
207
51
43
207
51
43
207
51
43
207
51
43
207
51
43
207
51
43
207
51
43
207
51
43
207
51
43
207
51
43
207
51
43
207
51
43
207
51
43
207
51
43
207
51
43
207
51
43
207
51
43
207
51
43
207
51
43
207
51
43
207
51
43
207
51
43
207
51
43
207
51
43
207
51
43
207
51
43
207
51
43
207
51
43
207
51
43
207
51
43
207
51
43
207
51
43
207
51
43
207
51
43
207
51
43
207
51
43
207
51
43
207
51
43
207
51
43
207
51
43
207
51
43
207
51
43
207
51
43
207
51
43
207
51
43
207
51
43
207
51
43
207
51
43
207
51
43
207
51
43
207
51
43
207
51
43
207
51
43
207
51
43
207
51
43
207
51
43
207
51
43
207
51
43
207
51
43
207
51
43
207
51
43
207
51
43
207
51
43
207
51
43
207
51
43
207
51
43
207
51
43
207
51
43
207
51
43
207
51
43
207
51
43
207
51
43
207
51
43
207
51
43
207
51
43
207
51
43
207
51
43
207
51
43
207
51
43
207
51
43
207
51
43
207
51
43
207
51
43
207
51
43
207
51
43
207
51
43
207
51
43
207
51
43
207
51
43
207
51
43
207
51
43
207
51
43
207
51
43
207
51
43
207
51
43
207
51
43
207
51
43
207
51
43
207
51
43
207
51
43
207
51
43
207
51
43
207
51
43
207
51
43
207
51
43
207
51
43
207
51
43
207
51
43
207
51
43
207
51
43
207
51
43
207
51
43
207
51
43
207
51
43
207
51
43
207
51
43
207
51
43
207
51
43
207
51
43
207
51
43
207
51
43
207
51
43
207
51
43
207
51
43
207
51
43
207
51
43
207
51
43
207
51
43
207
51
43
207
51
43
207
51
43
207
51
43
207
51
43
207
51
43
207
51
43
207
51
43
207
51
43
207
51
43
207
51
43
207
51
43
207
51
43
207
51
43
207
51
43
207
51
43
207
51
43
207
51
43
207
51
43
207
51
43
207
51
43
207
51
43
207
51
43
207
51
43
207
51
43
207
51
43
207
51
43
207
51
43
207
51
43
207
51
43
207
51
43
207
51
43
207
51
43
207
51
43
207
51
43
207
51
43
207
51
43
207
51
43
207
51
43
207
51
43
207
51
43
207
51
43
207
51
43
207
51
43
207
51
43
207
51
43
207
51
43
207
51
43
207
51
43
207
51
43
207
51
43
207
51
43
207
51
43
207
51
43
207
51
43
207
51
43
207
51
43
207
51
43
207
51
43
207
51
43
207
51
43
207
51
43
207
51
43
207
51
43
207
51
43
207
51
43
207
51
43
207
51
43
207
51
43
207
51
43
207
51
43
207
51
43
207
51
43
207
51
43
207
51
43
207
51
43
207
51
43
207
51
43
207
51
43
207
51
43
207
51
43
207
51
43
207
51
43
207
51
43
207
51
43
207
51
43
207
51
43
207
51
43
207
51
43
207
51
43
207
51
43
207
51
43
207
51
43
207
51
43
207
51
43
207
51
43
207
51
43
207
51
43
207
51
43
207
51
43
207
51
43
207
51
43
207
51
43
207
51
43
207
51
43
207
51
43
207
51
43
207
51
43
207
51
43
207
51
43
207
51
43
207
51
43
207
51
43
207
51
43
207
51
43
207
51
43
207
51
43
207
51
43
207
51
43
207
51
43
207
51
43
207
51
43
207
51
43
207
51
43
207
51
43
207
51
43
207
51
43
207
51
43
207
51
43
207
51
43
207
51
43
207
51
43
207
51
43
207
51
43
207
51
43
207
51
43
207
51
43
207
51
43
207
51
43
207
51
43
207
51
43
207
51
43
207
51
43
207
51
43
207
51
43
207
51
43
207
51
43
207
51
43
207
51
43
207
51
43
207
51
43
207
51
43
207
51
43
207
51
43
207
51
43
207
51
43
207
51
43
207
51
43
207
51
43
207
51
43
207
51
43
207
51
43
207
51
43
207
51
43
207
51
43
207
51
43
207
51
43
207
51
43
207
51
43
207
51
43
207
51
43
207
51
43
207
51
43
207
51
43
207
51
43
207
51
43
207
51
43
207
51
43
207
51
43
207
51
43
207
51
43
207
51
43
207
51
43
207
51
43
207
51
43
207
51
43
207
51
43
207
51
43
207
51
43
207
51
43
207
51
43
207
51
43
207
51
43
207
51
43
207
51
43
207
51
43
207
51
43
207
51
43
207
51
43
207
51
43
207
51
43
207
51
43
207
51
43
207
51
43
207
51
43
207
51
43
207
51
43
207
51
43
207
51
43
207
51
43
207
51
43
207
51
43
207
51
43
207
51
43
207
51
43
207
51
43
207
51
43
207
51
43
207
51
43
207
51
43
207
51
43
207
51
43
207
51
43
207
51
43
207
51
43
207
51
43
207
51
43
207
51
43
207
51
43
207
51
43
207
51
43
207
51
43
207
51
43
207
51
43
207
51
43
207
51
43
207
51
43
207
51
43
207
51
43
207
51
43
207
51
43
207
51
43
207
51
43
207
51
43
207
51
43
207
51
43
207
51
43
207
51
43
207
51
43
207
51
43
207
51
43
207
51
43
207
51
43
207
51
43
207
51
43
207
51
43
207
51
43
207
51
43
207
51
43
207
51
43
207
51
43
207
51
43
207
51
43
207
51
43
207
51
43
207
51
43
207
51
43
207
51
43
207
51
43
207
51
43
207
51
43
207
51
43
207
51
43
207
51
43
207
51
43
207
51
43
207
51
43
207
51
43
207
51
43
207
51
43
207
51
43
207
51
43
207
51
43
207
51
43
207
51
43
207
51
43
207
51
43
207
51
43
207
51
43
207
51
43
207
51
43
207
51
43
207
51
43
207
51
43
207
51
43
207
51
43
207
51
43
207
51
43
207
51
43
207
51
43
207
51
43
207
51
43
207
51
43
207
51
43
207
51
43
207
51
43
207
51
43
207
51
43
207
51
43
207
51
43
207
51
43
207
51
43
207
51
43
207
51
43
207
51
43
207
51
43
207
51
43
207
51
43
207
51
43
207
51
43
207
51
43
207
51
43
207
51
43
207
51
43
207
51
43
207
51
43
207
51
43
207
51
43
207
51
43
207
51
43
207
51
43
207
51
43
207
51
43
207
51
43
207
51
43
207
51
43
207
51
43
207
51
43
207
51
43
207
51
43
207
51
43
207
51
43
207
51
43
207
51
43
207
51
43
207
51
43
207
51
43
207
51
43
207
51
43
207
51
43
207
51
43
207
51
43
207
51
43
207
51
43
207
51
43
207
51
43
207
51
43
207
51
43
207
51
43
207
51
43
207
51
43
207
51
43
207
51
43
207
51
43
207
51
43
207
51
43
207
51
43
207
51
43
207
51
43
207
51
43
207
51
43
207
51
43
207
51
43
207
51
43
207
51
43
207
51
43
207
51
43
207
51
43
207
51
43
207
51
43
207
51
43
207
51
43
207
51
43
207
51
43
207
51
43
207
51
43
207
51
43
207
51
43
207
51
43
207
51
43
207
51
43
207
51
43
207
51
43
207
51
43
207
51
43
207
51
43
207
51
43
207
51
43
207
51
43
207
51
43
207
51
43
207
51
43
207
51
43
207
51
43
207
51
43
207
51
43
207
51
43
207
51
43
207
51
43
207
51
43
207
51
43
207
51
43
207
51
43
207
51
43
207
51
43
207
51
43
207
51
43
207
51
43
207
51
43
207
51
43
207
51
43
207
51
43
207
51
43
207
51
43
207
51
43
207
51
43
207
51
43
207
51
43
207
51
43
207
51
43
207
51
43
207
51
43
207
51
43
207
51
43
207
51
43
207
51
43
207
51
43
207
51
43
207
51
43
207
51
43
207
51
43
207
51
43
207
51
43
207
51
43
207
51
43
207
51
43
207
51
43
207
51
43
207
51
43
207
51
43
207
51
43
207
51
43
207
51
43
207
51
43
207
51
43
207
51
43
207
51
43
207
51
43
207
51
43
207
51
43
207
51
43
207
51
43
207
51
43
207
51
43
207
51
43
207
51
43
207
51
43
207
51
43
207
51
43
207
51
43
207
51
43
207
51
43
207
51
43
207
51
43
207
51
43
207
51
43
207
51
43
207
51
43
207
51
43
207
51
43
207
51
43
207
51
43
207
51
43
207
51
43
207
51
43
207
51
43
207
51
43
207
51
43
207
51
43
207
51
43
207
51
43
207
51
43
207
51
43
207
51
43
207
51
43
207
51
43
207
51
43
207
51
43
207
51
43
207
51
43
207
51
43
207
51
43
207
51
43
207
51
43
207
51
43
207
51
43
207
51
43
207
51
43
207
51
43
207
51
43
207
51
43
207
51
43
207
51
43
207
51
43
207
51
43
207
51
43
207
51
43
207
51
43
207
51
43
207
51
43
207
51
43
207
51
43
207
51
43
207
51
43
207
51
43
207
51
43
207
51
43
207
51
43
207
51
43
207
51
43
207
51
43
207
51
43
207
51
43
207
51
43
207
51
43
207
51
43
207
51
43
207
51
43
207
51
43
207
51
43
207
51
43
207
51
43
207
51
43
207
51
43
207
51
43
207
51
43
207
51
43
207
51
43
207
51
43
207
51
43
207
51
43
207
51
43
207
51
43
207
51
43
207
51
43
207
51
43
207
51
43
207
51
43
207
51
43
207
51
43
207
51
43
207
51
43
207
51
43
207
51
43
207
51
43
207
51
43
207
51
43
207
51
43
207
51
43
207
51
43
207
51
43
207
51
43
207
51
43
207
51
43
207
51
43
207
51
43
207
51
43
207
51
43
207
51
43
207
51
43
207
51
43
207
51
43
207
51
43
207
51
43
207
51
43
207
51
43
207
51
43
207
51
43
207
51
43
207
51
43
207
51
43
207
51
43
207
51
43
207
51
43
207
51
43
207
51
43
207
51
43
207
51
43
207
51
43
207
51
43
207
51
43
207
51
43
207
51
43
207
51
43
207
51
43
207
51
43
207
51
43
207
51
43
207
51
43
207
51
43
207
51
43
207
51
43
207
51
43
207
51
43
207
51
43
207
51
43
207
51
43
207
51
43
207
51
43
207
51
43
207
51
43
207
51
43
207
51
43
207
51
43
207
51
43
207
51
43
207
51
43
207
51
43
207
51
43
207
51
43
207
51
43
207
51
43
207
51
43
207
51
43
207
51
43
207
51
43
207
51
43
207
51
43
207
51
43
207
51
43
207
51
43
207
51
43
207
51
43
207
51
43
207
51
43
207
51
43
207
51
43
207
51
43
207
51
43
207
51
43
207
51
43
207
51
43
207
51
43
207
51
43
207
51
43
207
51
43
207
51
43
207
51
43
207
51
43
207
51
43
207
51
43
207
51
43
207
51
43
207
51
43
207
51
43
207
51
43
207
51
43
207
51
43
207
51
43
207
51
43
207
51
43
207
51
43
207
51
43
207
51
43
207
51
43
207
51
43
207
51
43
207
51
43
207
51
43
207
51
43
207
51
43
207
51
43
207
51
43
207
51
43
207
51
43
207
51
43
207
51
43
207
51
43
207
51
43
207
51
43
207
51
43
207
51
43
207
51
43
207
51
43
207
51
43
207
51
43
207
51
43
207
51
43
207
51
43
207
51
43
207
51
43
207
51
43
207
51
43
207
51
43
207
51
43
207
51
43
207
51
43
207
51
43
207
51
43
207
51
43
207
51
43
207
51
43
207
51
43
207
51
43
207
51
43
207
51
43
207
51
43
207
51
43
207
51
43
207
51
43
207
51
43
207
51
43
207
51
43
207
51
43
207
51
43
207
51
43
207
51
43
207
51
43
207
51
43
207
51
43
207
51
43
207
51
43
207
51
43
207
51
43
207
51
43
207
51
43
207
51
43
207
51
43
207
51
43
207
51
43
207
51
43
207
51
43
207
51
43
207
51
43
207
51
43
207
51
43
207
51
43
207
51
43
207
51
43
207
51
43
207
51
43
207
51
43
207
51
43
207
51
43
207
51
43
207
51
43
207
51
43
207
51
43
207
51
43
207
51
43
207
51
43
207
51
43
207
51
43
207
51
43
207
51
43
207
51
43
207
51
43
207
51
43
207
51
43
207
51
43
207
51
43
207
51
43
207
51
43
207
51
43
207
51
43
207
51
43
207
51
43
207
51
43
207
51
43
207
51
43
207
51
43
207
51
43
207
51
43
207
51
43
207
51
43
207
51
43
207
51
43
207
51
43
207
51
43
207
51
43
207
51
43
207
51
43
207
51
43
207
51
43
207
51
43
207
51
43
207
51
43
207
51
43
207
51
43
207
51
43
207
51
43
207
51
43
207
51
43
207
51
43
207
51
43
207
51
43
207
51
43
207
51
43
207
51
43
207
51
43
207
51
43
207
51
43
207
51
43
207
51
43
207
51
43
207
51
43
207
51
43
207
51
43
207
51
43
207
51
43
207
51
43
207
51
43
207
51
43
207
51
43
207
51
43
207
51
43
207
51
43
207
51
43
207
51
43
207
51
43
207
51
43
207
51
43
207
51
43
207
51
43
207
51
43
207
51
43
207
51
43
207
51
43
207
51
43
207
51
43
207
51
43
207
51
43
207
51
43
207
51
43
207
51
43
207
51
43
207
51
43
207
51
43
207
51
43
207
51
43
207
51
43
207
51
43
207
51
43
207
51
43
207
51
43
207
51
43
207
51
43
207
51
43
207
51
43
207
51
43
207
51
43
207
51
43
207
51
43
207
51
43
207
51
43
207
51
43
207
51
43
207
51
43
207
51
43
207
51
43
207
51
43
207
51
43
207
51
43
207
51
43
207
51
43
207
51
43
207
51
43
207
51
43
207
51
43
207
51
43
207
51
43
207
51
43
207
51
43
207
51
43
207
51
43
207
51
43
207
51
43
207
51
43
207
51
43
207
51
43
207
51
43
207
51
43
207
51
43
207
51
43
207
51
43
207
51
43
207
51
43
207
51
43
207
51
43
207
51
43
207
51
43
207
51
43
207
51
43
207
51
43
207
51
43
207
51
43
207
51
43
207
51
43
207
51
43
207
51
43
207
51
43
207
51
43
207
51
43
207
51
43
207
51
43
207
51
43
207
51
43
207
51
43
207
51
43
207
51
43
207
51
43
207
51
43
207
51
43
207
51
43
207
51
43
207
51
43
207
51
43
207
51
43
207
51
43
207
51
43
207
51
43
207
51
43
207
51
43
207
51
43
207
51
43
207
51
43
207
51
43
207
51
43
207
51
43
207
51
43
207
51
43
207
51
43
207
51
43
207
51
43
207
51
43
207
51
43
207
51
43
207
51
43
207
51
43
207
51
43
207
51
43
207
51
43
207
51
43
207
51
43
207
51
43
207
51
43
207
51
43
207
51
43
207
51
43
207
51
43
207
51
43
207
51
43
207
51
43
207
51
43
207
51
43
207
51
43
207
51
43
207
51
43
207
51
43
207
51
43
207
51
43
207
51
43
207
51
43
207
51
43
207
51
43
207
51
43
207
51
43
207
51
43
207
51
43
207
51
43
207
51
43
207
51
43
207
51
43
207
51
43
207
51
43
207
51
43
207
51
43
207
51
43
207
51
43
207
51
43
207
51
43
207
51
43
207
51
43
207
51
43
207
51
43
207
51
43
207
51
43
207
51
43
207
51
43
207
51
43
207
51
43
207
51
43
207
51
43
207
51
43
207
51
43
207
51
43
207
51
43
207
51
43
207
51
43
207
51
43
207
51
43
207
51
43
207
51
43
207
51
43
207
51
43
207
51
43
207
51
43
207
51
43
207
51
43
207
51
43
207
51
43
207
51
43
207
51
43
207
51
43
207
51
43
207
51
43
207
51
43
207
51
43
207
51
43
207
51
43
207
51
43
207
51
43
207
51
43
207
51
43
207
51
43
207
51
43
207
51
43
207
51
43
207
51
43
207
51
43
207
51
43
207
51
43
207
51
43
207
51
43
207
51
43
207
51
43
207
51
43
207
51
43
207
51
43
207
51
43
207
51
43
207
51
43
207
51
43
207
51
43
207
51
43
207
51
43
207
51
43
207
51
43
207
51
43
207
51
43
207
51
43
207
51
43
207
51
43
207
51
43
207
51
43
207
51
43
207
51
43
207
51
43
207
51
43
207
51
43
207
51
43
207
51
43
207
51
43
207
51
43
207
51
43
207
51
43
207
51
43
207
51
43
207
51
43
207
51
43
207
51
43
207
51
43
207
51
43
207
51
43
207
51
43
207
51
43
207
51
43
207
51
43
207
51
43
207
51
43
207
51
43
207
51
43
207
51
43
207
51
43
207
51
43
207
51
43
207
51
43
207
51
43
207
51
43
207
51
43
207
51
43
207
51
43
207
51
43
207
51
43
207
51
43
207
51
43
207
51
43
207
51
43
207
51
43
207
51
43
207
51
43
207
51
43
207
51
43
207
51
43
207
51
43
207
51
43
207
51
43
207
51
43
207
51
43
207
51
43
207
51
43
207
51
43
207
51
43
207
51
43
207
51
43
207
51
43
207
51
43
207
51
43
207
51
43
207
51
43
207
51
43
207
51
43
207
51
43
207
51
43
207
51
43
207
51
43
207
51
43
207
51
43
207
51
43
207
51
43
207
51
43
207
51
43
207
51
43
207
51
43
207
51
43
207
51
43
207
51
43
207
51
43
207
51
43
207
51
43
207
51
43
207
51
43
207
51
43
207
51
43
207
51
43
207
51
43
207
51
43
207
51
43
207
51
43
207
51
43
207
51
43
207
51
43
207
51
43
207
51
43
207
51
43
207
51
43
207
51
43
207
51
43
207
51
43
207
51
43
207
51
43
207
51
43
207
51
43
207
51
43
207
51
43
207
51
43
207
51
43
207
51
43
207
51
43
207
51
43
207
51
43
207
51
43
207
51
43
207
51
43
207
51
43
207
51
43
207
51
43
207
51
43
207
51
43
207
51
43
207
51
43
207
51
43
207
51
43
207
51
43
207
51
43
207
51
43
207
51
43
207
51
43
207
51
43
207
51
43
207
51
43
207
51
43
207
51
43
207
51
43
207
51
43
207
51
43
207
51
43
207
51
43
207
51
43
207
51
43
207
51
43
207
51
43
207
51
43
207
51
43
207
51
43
207
51
43
207
51
43
207
51
43
207
51
43
207
51
43
207
51
43
207
51
43
207
51
43
207
51
43
207
51
43
207
51
43
207
51
43
207
51
43
207
51
43
207
51
43
207
51
43
207
51
43
207
51
43
207
51
43
207
51
43
207
51
43
207
51
43
207
51
43
207
51
43
207
51
43
207
51
43
207
51
43
207
51
43
207
51
43
207
51
43
207
51
43
207
51
43
207
51
43
207
51
43
207
51
43
207
51
43
207
51
43
207
51
43
207
51
43
207
51
43
207
51
43
207
51
43
207
51
43
207
51
43
207
51
43
207
51
43
207
51
43
207
51
43
207
51
43
207
51
43
207
51
43
207
51
43
207
51
43
207
51
43
207
51
43
207
51
43
207
51
43
207
51
43
207
51
43
207
51
43
207
51
43
207
51
43
207
51
43
207
51
43
207
51
43
207
51
43
207
51
43
207
51
43
207
51
43
207
51
43
207
51
43
207
51
43
207
51
43
207
51
43
207
51
43
207
51
43
207
51
43
207
51
43
207
51
43
207
51
43
207
51
43
207
51
43
207
51
43
207
51
43
207
51
43
207
51
43
207
51
43
207
51
43
207
51
43
207
51
43
207
51
43
207
51
43
207
51
43
207
51
43
207
51
43
207
51
43
207
51
43
207
51
43
207
51
43
207
51
43
207
51
43
207
51
43
207
51
43
207
51
43
207
51
43
207
51
43
207
51
43
207
51
43
207
51
43
207
51
43
207
51
43
207
51
43
207
51
43
207
51
43
207
51
43
207
51
43
207
51
43
207
51
43
207
51
43
207
51
43
207
51
43
207
51
43
207
51
43
207
51
43
207
51
43
207
51
43
207
51
43
207
51
43
207
51
43
207
51
43
207
51
43
207
51
43
207
51
43
207
51
43
207
51
43
207
51
43
207
51
43
207
51
43
207
51
43
207
51
43
207
51
43
207
51
43
207
51
43
207
51
43
207
51
43
207
51
43
207
51
43
207
51
43
207
51
43
207
51
43
207
51
43
207
51
43
207
51
43
207
51
43
207
51
43
207
51
43
207
51
43
207
51
43
207
51
43
207
51
43
207
51
43
207
51
43
207
51
43
207
51
43
207
51
43
207
51
43
207
51
43
207
51
43
207
51
43
207
51
43
207
51
43
207
51
43
207
51
43
207
51
43
207
51
43
207
51
43
207
51
43
207
51
43
207
51
43
207
51
43
207
51
43
207
51
43
207
51
43
207
51
43
207
51
43
207
51
43
207
51
43
207
51
43
207
51
43
207
51
43
207
51
43
207
51
43
207
51
43
207
51
43
207
51
43
207
51
43
207
51
43
207
51
43
207
51
43
207
51
43
207
51
43
207
51
43
207
51
43
207
51
43
207
51
43
207
51
43
207
51
43
207
51
43
207
51
43
207
51
43
207
51
43
207
51
43
207
51
43
207
51
43
207
51
43
207
51
43
207
51
43
207
51
43
207
51
43
207
51
43
207
51
43
207
51
43
207
51
43
207
51
43
207
51
43
207
51
43
207
51
43
207
51
43
207
51
43
207
51
43
207
51
43
207
51
43
207
51
43
207
51
43
207
51
43
207
51
43
207
51
43
207
51
43
207
51
43
207
51
43
207
51
43
207
51
43
207
51
43
207
51
43
207
51
43
207
51
43
207
51
43
207
51
43
207
51
43
207
51
43
207
51
43
207
51
43
207
51
43
207
51
43
207
51
43
207
51
43
207
51
43
207
51
43
207
51
43
207
51
43
207
51
43
207
51
43
207
51
43
207
51
43
207
51
43
207
51
43
207
51
43
207
51
43
207
51
43
207
51
43
207
51
43
207
51
43
207
51
43
207
51
43
207
51
43
207
51
43
207
51
43
207
51
43
207
51
43
207
51
43
207
51
43
207
51
43
207
51
43
207
51
43
207
51
43
207
51
43
207
51
43
207
51
43
207
51
43
207
51
43
207
51
43
207
51
43
207
51
43
207
51
43
207
51
43
207
51
43
207
51
43
207
51
43
207
51
43
207
51
43
207
51
43
207
51
43
207
51
43
207
51
43
207
51
43
207
51
43
207
51
43
207
51
43
207
51
43
207
51
43
207
51
43
207
51
43
207
51
43
207
51
43
207
51
43
207
51
43
207
51
43
207
51
43
207
51
43
207
51
43
207
51
43
207
51
43
207
51
43
207
51
43
207
51
43
207
51
43
207
51
43
207
51
43
207
51
43
207
51
43
207
51
43
207
51
43
207
51
43
207
51
43
207
51
43
207
51
43
207
51
43
207
51
43
207
51
43
207
51
43
207
51
43
207
51
43
207
51
43
207
51
43
207
51
43
207
51
43
207
51
43
207
51
43
207
51
43
207
51
43
207
51
43
207
51
43
207
51
43
207
51
43
207
51
43
207
51
43
207
51
43
207
51
43
207
51
43
207
51
43
207
51
43
207
51
43
207
51
43
207
51
43
207
51
43
207
51
43
207
51
43
207
51
43
207
51
43
207
51
43
207
51
43
207
51
43
207
51
43
207
51
43
207
51
43
207
51
43
207
51
43
207
51
43
207
51
43
207
51
43
207
51
43
207
51
43
207
51
43
207
51
43
207
51
43
207
51
43
207
51
43
207
51
43
207
51
43
207
51
43
207
51
43
207
51
43
207
51
43
207
51
43
207
51
43
207
51
43
207
51
43
207
51
43
207
51
43
207
51
43
207
51
43
207
51
43
207
51
43
207
51
43
207
51
43
207
51
43
207
51
43
207
51
43
207
51
43
207
51
43
207
51
43
207
51
43
207
51
43
207
51
43
207
51
43
207
51
43
207
51
43
207
51
43
207
51
43
207
51
43
207
51
43
207
51
43
207
51
43
207
51
43
207
51
43
207
51
43
207
51
43
207
51
43
207
51
43
207
51
43
207
51
43
207
51
43
207
51
43
207
51
43
207
51
43
207
51
43
207
51
43
207
51
43
207
51
43
207
51
43
207
51
43
207
51
43
207
51
43
207
51
43
207
51
43
207
51
43
207
51
43
207
51
43
207
51
43
207
51
43
207
51
43
207
51
43
207
51
43
207
51
43
207
51
43
207
51
43
207
51
43
207
51
43
207
51
43
207
51
43
207
51
43
207
51
43
207
51
43
207
51
43
207
51
43
207
51
43
207
51
43
207
51
43
207
51
43
207
51
43
207
51
43
207
51
43
207
51
43
207
51
43
207
51
43
207
51
43
207
51
43
207
51
43
207
51
43
207
51
43
207
51
43
207
51
43
207
51
43
207
51
43
207
51
43
207
51
43
207
51
43
207
51
43
207
51
43
207
51
43
207
51
43
207
51
43
207
51
43
207
51
43
207
51
43
207
51
43
207
51
43
207
51
43
207
51
43
207
51
43
207
51
43
207
51
43
207
51
43
207
51
43
207
51
43
207
51
43
207
51
43
207
51
43
207
51
43
207
51
43
207
51
43
207
51
43
207
51
43
207
51
43
207
51
43
207
51
43
207
51
43
207
51
43
207
51
43
207
51
43
207
51
43
207
51
43
207
51
43
207
51
43
207
51
43
207
51
43
207
51
43
207
51
43
207
51
43
207
51
43
207
51
43
207
51
43
207
51
43
207
51
43
207
51
43
207
51
43
207
51
43
207
51
43
207
51
43
207
51
43
207
51
43
207
51
43
207
51
43
207
51
43
207
51
43
207
51
43
207
51
43
207
51
43
207
51
43
207
51
43
207
51
43
207
51
43
207
51
43
207
51
43
207
51
43
207
51
43
207
51
43
207
51
43
207
51
43
207
51
43
207
51
43
207
51
43
207
51
43
207
51
43
207
51
43
207
51
43
207
51
43
207
51
43
207
51
43
207
51
43
207
51
43
207
51
43
207
51
43
207
51
43
207
51
43
207
51
43
207
51
43
207
51
43
207
51
43
207
51
43
207
51
43
207
51
43
207
51
43
207
51
43
207
51
43
207
51
43
207
51
43
207
51
43
207
51
43
207
51
43
207
51
43
207
51
43
207
51
43
207
51
43
207
51
43
207
51
43
207
51
43
207
51
43
207
51
43
207
51
43
207
51
43
207
51
43
207
51
43
207
51
43
207
51
43
207
51
43
207
51
43
207
51
43
207
51
43
207
51
43
207
51
43
207
51
43
207
51
43
207
51
43
207
51
43
207
51
43
207
51
43
207
51
43
207
51
43
207
51
43
207
51
43
207
51
43
207
51
43
207
51
43
207
51
43
207
51
43
207
51
43
207
51
43
207
51
43
207
51
43
207
51
43
207
51
43
207
51
43
207
51
43
207
51
43
207
51
43
207
51
43
207
51
43
207
51
43
207
51
43
207
51
43
207
51
43
207
51
43
207
51
43
207
51
43
207
51
43
207
51
43
207
51
43
207
51
43
207
51
43
207
51
43
207
51
43
207
51
43
207
51
43
207
51
43
207
51
43
207
51
43
207
51
43
207
51
43
207
51
43
207
51
43
207
51
43
207
51
43
207
51
43
207
51
43
207
51
43
207
51
43
207
51
43
207
51
43
207
51
43
207
51
43
207
51
43
207
51
43
207
51
43
207
51
43
207
51
43
207
51
43
207
51
43
207
51
43
207
51
43
207
51
43
207
51
43
207
51
43
207
51
43
207
51
43
207
51
43
207
51
43
207
51
43
207
51
43
207
51
43
207
51
43
207
51
43
207
51
43
207
51
43
207
51
43
207
51
43
207
51
43
207
51
43
207
51
43
207
51
43
207
51
43
207
51
43
207
51
43
207
51
43
207
51
43
207
51
43
207
51
43
207
51
43
207
51
43
207
51
43
207
51
43
207
51
43
207
51
43
207
51
43
207
51
43
207
51
43
207
51
43
207
51
43
207
51
43
207
51
43
207
51
43
207
51
43
207
51
43
207
51
43
207
51
43
207
51
43
207
51
43
207
51
43
207
51
43
207
51
43
207
51
43
207
51
43
207
51
43
207
51
43
207
51
43
207
51
43
207
51
43
207
51
43
207
51
43
207
51
43
207
51
43
207
51
43
207
51
43
207
51
43
207
51
43
207
51
43
207
51
43
207
51
43
207
51
43
207
51
43
207
51
43
207
51
43
207
51
43
207
51
43
207
51
43
207
51
43
207
51
43
207
51
43
207
51
43
207
51
43
207
51
43
207
51
43
207
51
43
207
51
43
207
51
43
207
51
43
207
51
43
207
51
43
207
51
43
207
51
43
207
51
43
207
51
43
207
51
43
207
51
43
207
51
43
207
51
43
207
51
43
207
51
43
207
51
43
207
51
43
207
51
43
207
51
43
207
51
43
207
51
43
207
51
43
207
51
43
207
51
43
207
51
43
207
51
43
207
51
43
207
51
43
207
51
43
207
51
43
207
51
43
207
51
43
207
51
43
207
51
43
207
51
43
207
51
43
207
51
43
207
51
43
207
51
43
207
51
43
207
51
43
207
51
43
207
51
43
207
51
43
207
51
43
207
51
43
207
51
43
207
51
43
207
51
43
207
51
43
207
51
43
207
51
43
207
51
43
207
51
43
207
51
43
207
51
43
207
51
43
207
51
43
207
51
43
207
51
43
207
51
43
207
51
43
207
51
43
207
51
43
207
51
43
207
51
43
207
51
43
207
51
43
207
51
43
207
51
43
207
51
43
207
51
43
207
51
43
207
51
43
207
51
43
207
51
43
207
51
43
207
51
43
207
51
43
207
51
43
207
51
43
207
51
43
207
51
43
207
51
43
207
51
43
207
51
43
207
51
43
207
51
43
207
51
43
207
51
43
207
51
43
207
51
43
207
51
43
207
51
43
207
51
43
207
51
43
207
51
43
207
51
43
207
51
43
207
51
43
207
51
43
207
51
43
207
51
43
207
51
43
207
51
43
207
51
43
207
51
43
207
51
43
207
51
43
207
51
43
207
51
43
207
51
43
207
51
43
207
51
43
207
51
43
207
51
43
207
51
43
207
51
43
207
51
43
207
51
43
207
51
43
207
51
43
207
51
43
207
51
43
207
51
43
207
51
43
207
51
43
207
51
43
207
51
43
207
51
43
207
51
43
207
51
43
207
51
43
207
51
43
207
51
43
207
51
43
207
51
43
207
51
43
207
51
43
207
51
43
207
51
43
207
51
43
207
51
43
207
51
43
207
51
43
207
51
43
207
51
43
207
51
43
207
51
43
207
51
43
207
51
43
207
51
43
207
51
43
207
51
43
207
51
43
207
51
43
207
51
43
207
51
43
207
51
43
207
51
43
207
51
43
207
51
43
207
51
43
207
51
43
207
51
43
207
51
43
207
51
43
207
51
43
207
51
43
207
51
43
207
51
43
207
51
43
207
51
43
207
51
43
207
51
43
207
51
43
207
51
43
207
51
43
207
51
43
207
51
43
207
51
43
207
51
43
207
51
43
207
51
43
207
51
43
207
51
43
207
51
43
207
51
43
207
51
43
207
51
43
207
51
43
207
51
43
207
51
43
207
51
43
207
51
43
207
51
43
207
51
43
207
51
43
207
51
43
207
51
43
207
51
43
207
51
43
207
51
43
207
51
43
207
51
43
207
51
43
207
51
43
207
51
43
207
51
43
207
51
43
207
51
43
207
51
43
207
51
43
207
51
43
207
51
43
207
51
43
207
51
43
207
51
43
207
51
43
207
51
43
207
51
43
207
51
43
207
51
43
207
51
43
207
51
43
207
51
43
207
51
43
207
51
43
207
51
43
207
51
43
207
51
43
207
51
43
207
51
43
207
51
43
207
51
43
207
51
43
207
51
43
207
51
43
207
51
43
207
51
43
207
51
43
207
51
43
207
51
43
207
51
43
207
51
43
207
51
43
207
51
43
207
51
43
207
51
43
207
51
43
207
51
43
207
51
43
207
51
43
207
51
43
207
51
43
207
51
43
207
51
43
207
51
43
207
51
43
207
51
43
207
51
43
207
51
43
207
51
43
207
51
43
207
51
43
207
51
43
207
51
43
207
51
43
207
51
43
207
51
43
207
51
43
207
51
43
207
51
43
207
51
43
207
51
43
207
51
43
207
51
43
207
51
43
207
51
43
207
51
43
207
51
43
207
51
43
207
51
43
207
51
43
207
51
43
207
51
43
207
51
43
207
51
43
207
51
43
207
51
43
207
51
43
207
51
43
207
51
43
207
51
43
207
51
43
207
51
43
207
51
43
207
51
43
207
51
43
207
51
43
207
51
43
207
51
43
207
51
43
207
51
43
207
51
43
207
51
43
207
51
43
207
51
43
207
51
43
207
51
43
207
51
43
207
51
43
207
51
43
207
51
43
207
51
43
207
51
43
207
51
43
207
51
43
207
51
43
207
51
43
207
51
43
207
51
43
207
51
43
207
51
43
207
51
43
207
51
43
207
51
43
207
51
43
207
51
43
207
51
43
207
51
43
207
51
43
207
51
43
207
51
43
207
51
43
207
51
43
207
51
43
207
51
43
207
51
43
207
51
43
207
51
43
207
51
43
207
51
43
207
51
43
207
51
43
207
51
43
207
51
43
207
51
43
207
51
43
207
51
43
207
51
43
207
51
43
207
51
43
207
51
43
207
51
43
207
51
43
207
51
43
207
51
43
207
51
43
207
51
43
207
51
43
207
51
43
207
51
43
207
51
43
207
51
43
207
51
43
207
51
43
207
51
43
207
51
43
207
51
43
207
51
43
207
51
43
207
51
43
207
51
43
207
51
43
207
51
43
207
51
43
207
51
43
207
51
43
207
51
43
207
51
43
207
51
43
207
51
43
207
51
43
207
51
43
207
51
43
207
51
43
207
51
43
207
51
43
207
51
43
207
51
43
207
51
43
207
51
43
207
51
43
207
51
43
207
51
43
207
51
43
207
51
43
207
51
43
207
51
43
207
51
43
207
51
43
207
51
43
207
51
43
207
51
43
207
51
43
207
51
43
207
51
43
207
51
43
207
51
43
207
51
43
207
51
43
207
51
43
207
51
43
207
51
43
207
51
43
207
51
43
207
51
43
207
51
43
207
51
43
207
51
43
207
51
43
207
51
43
207
51
43
207
51
43
207
51
43
207
51
43
207
51
43
207
51
43
207
51
43
207
51
43
207
51
43
207
51
43
207
51
43
207
51
43
207
51
43
207
51
43
207
51
43
207
51
43
207
51
43
207
51
43
207
51
43
207
51
43
207
51
43
207
51
43
207
51
43
207
51
43
207
51
43
207
51
43
207
51
43
207
51
43
207
51
43
207
51
43
207
51
43
207
51
43
207
51
43
207
51
43
207
51
43
207
51
43
207
51
43
207
51
43
207
51
43
207
51
43
207
51
43
207
51
43
207
51
43
207
51
43
207
51
43
207
51
43
207
51
43
207
51
43
207
51
43
207
51
43
207
51
43
207
51
43
207
51
43
207
51
43
207
51
43
207
51
43
207
51
43
207
51
43
207
51
43
207
51
43
207
51
43
207
51
43
207
51
43
207
51
43
207
51
43
207
51
43
207
51
43
207
51
43
207
51
43
207
51
43
207
51
43
207
51
43
207
51
43
207
51
43
207
51
43
207
51
43
207
51
43
207
51
43
207
51
43
207
51
43
207
51
43
207
51
43
207
51
43
207
51
43
207
51
43
207
51
43
207
51
43
207
51
43
207
51
43
207
51
43
207
51
43
207
51
43
207
51
43
207
51
43
207
51
43
207
51
43
207
51
43
207
51
43
207
51
43
207
51
43
207
51
43
207
51
43
207
51
43
207
51
43
207
51
43
207
51
43
207
51
43
207
51
43
207
51
43
207
51
43
207
51
43
207
51
43
207
51
43
207
51
43
207
51
43
207
51
43
207
51
43
207
51
43
207
51
43
207
51
43
207
51
43
207
51
43
207
51
43
207
51
43
207
51
43
207
51
43
207
51
43
207
51
43
207
51
43
207
51
43
207
51
43
207
51
43
207
51
43
207
51
43
207
51
43
207
51
43
207
51
43
207
51
43
207
51
43
207
51
43
207
51
43
207
51
43
207
51
43
207
51
43
207
51
43
207
51
43
207
51
43
207
51
43
207
51
43
207
51
43
207
51
43
207
51
43
207
51
43
207
51
43
207
51
43
207
51
43
207
51
43
207
51
43
207
51
43
207
51
43
207
51
43
207
51
43
207
51
43
207
51
43
207
51
43
207
51
43
207
51
43
207
51
43
207
51
43
207
51
43
207
51
43
207
51
43
207
51
43
207
51
43
207
51
43
207
51
43
207
51
43
207
51
43
207
51
43
207
51
43
207
51
43
207
51
43
207
51
43
207
51
43
207
51
43
207
51
43
207
51
43
207
51
43
207
51
43
207
51
43
207
51
43
207
51
43
207
51
43
207
51
43
207
51
43
207
51
43
207
51
43
207
51
43
207
51
43
207
51
43
207
51
43
207
51
43
207
51
43
207
51
43
207
51
43
207
51
43
207
51
43
207
51
43
207
51
43
207
51
43
207
51
43
207
51
43
207
51
43
207
51
43
207
51
43
207
51
43
207
51
43
207
51
43
207
51
43
207
51
43
207
51
43
207
51
43
207
51
43
207
51
43
207
51
43
207
51
43
207
51
43
207
51
43
207
51
43
207
51
43
207
51
43
207
51
43
207
51
43
207
51
43
207
51
43
207
51
43
207
51
43
207
51
43
207
51
43
207
51
43
207
51
43
207
51
43
207
51
43
207
51
43
207
51
43
207
51
43
207
51
43
207
51
43
207
51
43
207
51
43
207
51
43
207
51
43
207
51
43
207
51
43
207
51
43
207
51
43
207
51
43
207
51
43
207
51
43
207
51
43
207
51
43
207
51
43
207
51
43
207
51
43
207
51
43
207
51
43
207
51
43
207
51
43
207
51
43
207
51
43
207
51
43
207
51
43
207
51
43
207
51
43
207
51
43
207
51
43
207
51
43
207
51
43
207
51
43
207
51
43
207
51
43
207
51
43
207
51
43
207
51
43
207
51
43
207
51
43
207
51
43
207
51
43
207
51
43
207
51
43
207
51
43
207
51
43
207
51
43
207
51
43
207
51
43
207
51
43
207
51
43
207
51
43
207
51
43
207
51
43
207
51
43
207
51
43
207
51
43
207
51
43
207
51
43
207
51
43
207
51
43
207
51
43
207
51
43
207
51
43
207
51
43
207
51
43
207
51
43
207
51
43
207
51
43
207
51
43
207
51
43
207
51
43
207
51
43
207
51
43
207
51
43
207
51
43
207
51
43
207
51
43
207
51
43
207
51
43
207
51
43
207
51
43
207
51
43
207
51
43
207
51
43
207
51
43
207
51
43
207
51
43
207
51
43
207
51
43
207
51
43
207
51
43
207
51
43
207
51
43
207
51
43
207
51
43
207
51
43
207
51
43
207
51
43
207
51
43
207
51
43
207
51
43
207
51
43
207
51
43
207
51
43
207
51
43
207
51
43
207
51
43
207
51
43
207
51
43
207
51
43
207
51
43
207
51
43
207
51
43
207
51
43
207
51
43
207
51
43
207
51
43
207
51
43
207
51
43
207
51
43
207
51
43
207
51
43
207
51
43
207
51
43
207
51
43
207
51
43
207
51
43
207
51
43
207
51
43
207
51
43
207
51
43
207
51
43
207
51
43
207
51
43
207
51
43
207
51
43
207
51
43
207
51
43
207
51
43
207
51
43
207
51
43
207
51
43
207
51
43
207
51
43
207
51
43
207
51
43
207
51
43
207
51
43
207
51
43
207
51
43
207
51
43
207
51
43
207
51
43
207
51
43
207
51
43
207
51
43
207
51
43
207
51
43
207
51
43
207
51
43
207
51
43
207
51
43
207
51
43
207
51
43
207
51
43
207
51
43
207
51
43
207
51
43
207
51
43
207
51
43
207
51
43
207
51
43
207
51
43
207
51
43
207
51
43
207
51
43
207
51
43
207
51
43
207
51
43
207
51
43
207
51
43
207
51
43
207
51
43
207
51
43
207
51
43
207
51
43
207
51
43
207
51
43
207
51
43
207
51
43
207
51
43
207
51
43
207
51
43
207
51
43
207
51
43
207
51
43
207
51
43
207
51
43
207
51
43
207
51
43
207
51
43
207
51
43
207
51
43
207
51
43
207
51
43
207
51
43
207
51
43
207
51
43
207
51
43
207
51
43
207
51
43
207
51
43
207
51
43
207
51
43
207
51
43
207
51
43
207
51
43
207
51
43
207
51
43
207
51
43
207
51
43
207
51
43
207
51
43
207
51
43
207
51
43
207
51
43
207
51
43
207
51
43
207
51
43
207
51
43
207
51
43
207
51
43
207
51
43
207
51
43
207
51
43
207
51
43
207
51
43
207
51
43
207
51
43
207
51
43
207
51
43
207
51
43
207
51
43
207
51
43
207
51
43
207
51
43
207
51
43
207
51
43
207
51
43
207
51
43
207
51
43
207
51
43
207
51
43
207
51
43
207
51
43
207
51
43
207
51
43
207
51
43
207
51
43
207
51
43
207
51
43
207
51
43
207
51
43
207
51
43
207
51
43
207
51
43
207
51
43
207
51
43
207
51
43
207
51
43
207
51
43
207
51
43
207
51
43
207
51
43
207
51
43
207
51
43
207
51
43
207
51
43
207
51
43
207
51
43
207
51
43
207
51
43
207
51
43
207
51
43
207
51
43
207
51
43
207
51
43
207
51
43
207
51
43
207
51
43
207
51
43
207
51
43
207
51
43
207
51
43
207
51
43
207
51
43
207
51
43
207
51
43
207
51
43
207
51
43
207
51
43
207
51
43
207
51
43
207
51
43
207
51
43
207
51
43
207
51
43
207
51
43
207
51
43
207
51
43
207
51
43
207
51
43
207
51
43
207
51
43
207
51
43
207
51
43
207
51
43
207
51
43
207
51
43
207
51
43
207
51
43
207
51
43
207
51
43
207
51
43
207
51
43
207
51
43
207
51
43
207
51
43
207
51
43
207
51
43
207
51
43
207
51
43
207
51
43
207
51
43
207
51
43
207
51
43
207
51
43
207
51
43
207
51
43
207
51
43
207
51
43
207
51
43
207
51
43
207
51
43
207
51
43
207
51
43
207
51
43
207
51
43
207
51
43
207
51
43
207
51
43
207
51
43
207
51
43
207
51
43
207
51
43
207
51
43
207
51
43
207
51
43
207
51
43
207
51
43
207
51
43
207
51
43
207
51
43
207
51
43
207
51
43
207
51
43
207
51
43
207
51
43
207
51
43
207
51
43
207
51
43
207
51
43
207
51
43
207
51
43
207
51
43
207
51
43
207
51
43
207
51
43
207
51
43
207
51
43
207
51
43
207
51
43
207
51
43
207
51
43
207
51
43
207
51
43
207
51
43
207
51
43
207
51
43
207
51
43
207
51
43
207
51
43
207
51
43
207
51
43
207
51
43
207
51
43
207
51
43
207
51
43
207
51
43
207
51
43
207
51
43
207
51
43
207
51
43
207
51
43
207
51
43
207
51
43
207
51
43
207
51
43
207
51
43
207
51
43
207
51
43
207
51
43
207
51
43
207
51
43
207
51
43
207
51
43
207
51
43
207
51
43
207
51
43
207
51
43
207
51
43
207
51
43
207
51
43
207
51
43
207
51
43
207
51
43
207
51
43
207
51
43
207
51
43
207
51
43
207
51
43
207
51
43
207
51
43
207
51
43
207
51
43
207
51
43
207
51
43
207
51
43
207
51
43
207
51
43
207
51
43
207
51
43
207
51
43
207
51
43
207
51
43
207
51
43
207
51
43
207
51
43
207
51
43
207
51
43
207
51
43
207
51
43
207
51
43
207
51
43
207
51
43
207
51
43
207
51
43
207
51
43
207
51
43
207
51
43
207
51
43
207
51
43
207
51
43
207
51
43
207
51
43
207
51
43
207
51
43
207
51
43
207
51
43
207
51
43
207
51
43
207
51
43
207
51
43
207
51
43
207
51
43
207
51
43
207
51
43
207
51
43
207
51
43
207
51
43
207
51
43
207
51
43
207
51
43
207
51
43
207
51
43
207
51
43
207
51
43
207
51
43
207
51
43
207
51
43
207
51
43
207
51
43
207
51
43
207
51
43
207
51
43
207
51
43
207
51
43
207
51
43
207
51
43
207
51
43
207
51
43
207
51
43
207
51
43
207
51
43
207
51
43
207
51
43
207
51
43
207
51
43
207
51
43
207
51
43
207
51
43
207
51
43
207
51
43
207
51
43
207
51
43
207
51
43
207
51
43
207
51
43
207
51
43
207
51
43
207
51
43
207
51
43
207
51
43
207
51
43
207
51
43
207
51
43
207
51
43
207
51
43
207
51
43
207
51
43
207
51
43
207
51
43
207
51
43
207
51
43
207
51
43
207
51
43
207
51
43
207
51
43
207
51
43
207
51
43
207
51
43
207
51
43
207
51
43
207
51
43
207
51
43
207
51
43
207
51
43
207
51
43
207
51
43
207
51
43
207
51
43
207
51
43
207
51
43
207
51
43
207
51
43
207
51
43
207
51
43
207
51
43
207
51
43
207
51
43
207
51
43
207
51
43
207
51
43
207
51
43
207
51
43
207
51
43
207
51
43
207
51
43
207
51
43
207
51
43
207
51
43
207
51
43
207
51
43
207
51
43
207
51
43
207
51
43
207
51
43
207
51
43
207
51
43
207
51
43
207
51
43
207
51
43
207
51
43
207
51
43
207
51
43
207
51
43
207
51
43
207
51
43
207
51
43
207
51
43
207
51
43
207
51
43
207
51
43
207
51
43
207
51
43
207
51
43
207
51
43
207
51
43
207
51
43
207
51
43
207
51
43
207
51
43
207
51
43
207
51
43
207
51
43
207
51
43
207
51
43
207
51
43
207
51
43
207
51
43
207
51
43
207
51
43
207
51
43
207
51
43
207
51
43
207
51
43
207
51
43
207
51
43
207
51
43
207
51
43
207
51
43
207
51
43
207
51
43
207
51
43
207
51
43
207
51
43
207
51
43
207
51
43
207
51
43
207
51
43
207
51
43
207
51
43
207
51
43
207
51
43
207
51
43
207
51
43
207
51
43
207
51
43
207
51
43
207
51
43
207
51
43
207
51
43
207
51
43
207
51
43
207
51
43
207
51
43
207
51
43
207
51
43
207
51
43
207
51
43
207
51
43
207
51
43
207
51
43
207
51
43
207
51
43
207
51
43
207
51
43
207
51
43
207
51
43
207
51
43
207
51
43
207
51
43
207
51
43
207
51
43
207
51
43
207
51
43
207
51
43
207
51
43
207
51
43
207
51
43
207
51
43
207
51
43
207
51
43
207
51
43
207
51
43
207
51
43
207
51
43
207
51
43
207
51
43
207
51
43
207
51
43
207
51
43
207
51
43
207
51
43
207
51
43
207
51
43
207
51
43
207
51
43
207
51
43
207
51
43
207
51
43
207
51
43
207
51
43
207
51
43
207
51
43
207
51
43
207
51
43
207
51
43
207
51
43
207
51
43
207
51
43
207
51
43
207
51
43
207
51
43
207
51
43
207
51
43
207
51
43
207
51
43
207
51
43
207
51
43
207
51
43
207
51
43
207
51
43
207
51
43
207
51
43
207
51
43
207
51
43
207
51
43
207
51
43
207
51
43
207
51
43
207
51
43
207
51
43
207
51
43
207
51
43
207
51
43
207
51
43
207
51
43
207
51
43
207
51
43
207
51
43
207
51
43
207
51
43
207
51
43
207
51
43
207
51
43
207
51
43
207
51
43
207
51
43
207
51
43
207
51
43
207
51
43
207
51
43
207
51
43
207
51
43
207
51
43
207
51
43
207
51
43
207
51
43
207
51
43
207
51
43
207
51
43
207
51
43
207
51
43
207
51
43
207
51
43
207
51
43
207
51
43
207
51
43
207
51
43
207
51
43
207
51
43
207
51
43
207
51
43
207
51
43
207
51
43
207
51
43
207
51
43
207
51
43
207
51
43
207
51
43
207
51
43
207
51
43
207
51
43
207
51
43
207
51
43
207
51
43
207
51
43
207
51
43
207
51
43
207
51
43
207
51
43
207
51
43
207
51
43
207
51
43
207
51
43
207
51
43
207
51
43
207
51
43
207
51
43
207
51
43
207
51
43
207
51
43
207
51
43
207
51
43
207
51
43
207
51
43
207
51
43
207
51
43
207
51
43
207
51
43
207
51
43
207
51
43
207
51
43
207
51
43
207
51
43
207
51
43
207
51
43
207
51
43
207
51
43
207
51
43
207
51
43
207
51
43
207
51
43
207
51
43
207
51
43
207
51
43
207
51
43
207
51
43
207
51
43
207
51
43
207
51
43
207
51
43
207
51
43
207
51
43
207
51
43
207
51
43
207
51
43
207
51
43
207
51
43
207
51
43
207
51
43
207
51
43
207
51
43
207
51
43
207
51
43
207
51
43
207
51
43
207
51
43
207
51
43
207
51
43
207
51
43
207
51
43
207
51
43
207
51
43
207
51
43
207
51
43
207
51
43
207
51
43
207
51
43
207
51
43
207
51
43
207
51
43
207
51
43
207
51
43
207
51
43
207
51
43
207
51
43
207
51
43
207
51
43
207
51
43
207
51
43
207
51
43
207
51
43
207
51
43
207
51
43
207
51
43
207
51
43
207
51
43
207
51
43
207
51
43
207
51
43
207
51
43
207
51
43
207
51
43
207
51
43
207
51
43
207
51
43
207
51
43
207
51
43
207
51
43
207
51
43
207
51
43
207
51
43
207
51
43
207
51
43
207
51
43
207
51
43
207
51
43
207
51
43
207
51
43
207
51
43
207
51
43
207
51
43
207
51
43
207
51
43
207
51
43
207
51
43
207
51
43
207
51
43
207
51
43
207
51
43
207
51
43
207
51
43
207
51
43
207
51
43
207
51
43
207
51
43
207
51
43
207
51
43
207
51
43
207
51
43
207
51
43
207
51
43
207
51
43
207
51
43
207
51
43
207
51
43
207
51
43
207
51
43
207
51
43
207
51
43
207
51
43
207
51
43
207
51
43
207
51
43
207
51
43
207
51
43
207
51
43
207
51
43
207
51
43
207
51
43
207
51
43
207
51
43
207
51
43
207
51
43
207
51
43
207
51
43
207
51
43
207
51
43
207
51
43
207
51
43
207
51
43
207
51
43
207
51
43
207
51
43
207
51
43
207
51
43
207
51
43
207
51
43
207
51
43
207
51
43
207
51
43
207
51
43
207
51
43
207
51
43
207
51
43
207
51
43
207
51
43
207
51
43
207
51
43
207
51
43
207
51
43
207
51
43
207
51
43
207
51
43
207
51
43
207
51
43
207
51
43
207
51
43
207
51
43
207
51
43
207
51
43
207
51
43
207
51
43
207
51
43
207
51
43
207
51
43
207
51
43
207
51
43
207
51
43
207
51
43
207
51
43
207
51
43
207
51
43
207
51
43
207
51
43
207
51
43
207
51
43
207
51
43
207
51
43
207
51
43
207
51
43
207
51
43
207
51
43
207
51
43
207
51
43
207
51
43
207
51
43
207
51
43
207
51
43
207
51
43
207
51
43
207
51
43
207
51
43
207
51
43
207
51
43
207
51
43
207
51
43
207
51
43
207
51
43
207
51
43
207
51
43
207
51
43
207
51
43
207
51
43
207
51
43
207
51
43
207
51
43
207
51
43
207
51
43
207
51
43
207
51
43
207
51
43
207
51
43
207
51
43
207
51
43
207
51
43
207
51
43
207
51
43
207
51
43
207
51
43
207
51
43
207
51
43
207
51
43
207
51
43
207
51
43
207
51
43
207
51
43
207
51
43
207
51
43
207
51
43
207
51
43
207
51
43
207
51
43
207
51
43
207
51
43
207
51
43
207
51
43
207
51
43
207
51
43
207
51
43
207
51
43
207
51
43
207
51
43
207
51
43
207
51
43
207
51
43
207
51
43
207
51
43
207
51
43
207
51
43
207
51
43
207
51
43
207
51
43
207
51
43
207
51
43
207
51
43
207
51
43
207
51
43
207
51
43
207
51
43
207
51
43
207
51
43
207
51
43
207
51
43
207
51
43
207
51
43
207
51
43
207
51
43
207
51
43
207
51
43
207
51
43
207
51
43
207
51
43
207
51
43
207
51
43
207
51
43
207
51
43
207
51
43
207
51
43
207
51
43
207
51
43
207
51
43
207
51
43
207
51
43
207
51
43
207
51
43
207
51
43
207
51
43
207
51
43
207
51
43
207
51
43
207
51
43
207
51
43
207
51
43
207
51
43
207
51
43
207
51
43
207
51
43
207
51
43
207
51
43
207
51
43
207
51
43
207
51
43
207
51
43
207
51
43
207
51
43
207
51
43
207
51
43
207
51
43
207
51
43
207
51
43
207
51
43
207
51
43
207
51
43
207
51
43
207
51
43
207
51
43
207
51
43
207
51
43
207
51
43
207
51
43
207
51
43
207
51
43
207
51
43
207
51
43
207
51
43
207
51
43
207
51
43
207
51
43
207
51
43
207
51
43
207
51
43
207
51
43
207
51
43
207
51
43
207
51
43
207
51
43
207
51
43
207
51
43
207
51
43
207
51
43
207
51
43
207
51
43
207
51
43
207
51
43
207
51
43
207
51
43
207
51
43
207
51
43
207
51
43
207
51
43
207
51
43
207
51
43
207
51
43
207
51
43
207
51
43
207
51
43
207
51
43
207
51
43
207
51
43
207
51
43
207
51
43
207
51
43
207
51
43
207
51
43
207
51
43
207
51
43
207
51
43
207
51
43
207
51
43
207
51
43
207
51
43
207
51
43
207
51
43
207
51
43
207
51
43
207
51
43
207
51
43
207
51
43
207
51
43
207
51
43
207
51
43
207
51
43
207
51
43
207
51
43
207
51
43
207
51
43
207
51
43
207
51
43
207
51
43
207
51
43
207
51
43
207
51
43
207
51
43
207
51
43
207
51
43
207
51
43
207
51
43
207
51
43
207
51
43
207
51
43
207
51
43
207
51
43
207
51
43
207
51
43
207
51
43
207
51
43
207
51
43
207
51
43
207
51
43
207
51
43
207
51
43
207
51
43
207
51
43
207
51
43
207
51
43
207
51
43
207
51
43
207
51
43
207
51
43
207
51
43
207
51
43
207
51
43
207
51
43
207
51
43
207
51
43
207
51
43
207
51
43
207
51
43
207
51
43
207
51
43
207
51
43
207
51
43
207
51
43
207
51
43
207
51
43
207
51
43
207
51
43
207
51
43
207
51
43
207
51
43
207
51
43
207
51
43
207
51
43
207
51
43
207
51
43
207
51
43
207
51
43
207
51
43
207
51
43
207
51
43
207
51
43
207
51
43
207
51
43
207
51
43
207
51
43
207
51
43
207
51
43
207
51
43
207
51
43
207
51
43
207
51
43
207
51
43
207
51
43
207
51
43
207
51
43
207
51
43
207
51
43
207
51
43
207
51
43
207
51
43
207
51
43
207
51
43
207
51
43
207
51
43
207
51
43
207
51
43
207
51
43
207
51
43
207
51
43
207
51
43
207
51
43
207
51
43
207
51
43
207
51
43
207
51
43
207
51
43
207
51
43
207
51
43
207
51
43
207
51
43
207
51
43
207
51
43
207
51
43
207
51
43
207
51
43
207
51
43
207
51
43
207
51
43
207
51
43
207
51
43
207
51
43
207
51
43
207
51
43
207
51
43
207
51
43
207
51
43
207
51
43
207
51
43
207
51
43
207
51
43
207
51
43
207
51
43
207
51
43
207
51
43
207
51
43
207
51
43
207
51
43
207
51
43
207
51
43
207
51
43
207
51
43
207
51
43
207
51
43
207
51
43
207
51
43
207
51
43
207
51
43
207
51
43
207
51
43
207
51
43
207
51
43
207
51
43
207
51
43
207
51
43
207
51
43
207
51
43
207
51
43
207
51
43
207
51
43
207
51
43
207
51
43
207
51
43
207
51
43
207
51
43
207
51
43
207
51
43
207
51
43
207
51
43
207
51
43
207
51
43
207
51
43
207
51
43
207
51
43
207
51
43
207
51
43
207
51
43
207
51
43
207
51
43
207
51
43
207
51
43
207
51
43
207
51
43
207
51
43
207
51
43
207
51
43
207
51
43
207
51
43
207
51
43
207
51
43
207
51
43
207
51
43
207
51
43
207
51
43
207
51
43
207
51
43
207
51
43
207
51
43
207
51
43
207
51
43
207
51
43
207
51
43
207
51
43
207
51
43
207
51
43
207
51
43
207
51
43
207
51
43
207
51
43
207
51
43
207
51
43
207
51
43
207
51
43
207
51
43
207
51
43
207
51
43
207
51
43
207
51
43
207
51
43
207
51
43
207
51
43
207
51
43
207
51
43
207
51
43
207
51
43
207
51
43
207
51
43
207
51
43
207
51
43
207
51
43
207
51
43
207
51
43
207
51
43
207
51
43
207
51
43
207
51
43
207
51
43
207
51
43
207
51
43
207
51
43
207
51
43
207
51
43
207
51
43
207
51
43
207
51
43
207
51
43
207
51
43
207
51
43
207
51
43
207
51
43
207
51
43
207
51
43
207
51
43
207
51
43
207
51
43
207
51
43
207
51
43
207
51
43
207
51
43
207
51
43
207
51
43
207
51
43
207
51
43
207
51
43
207
51
43
207
51
43
207
51
43
207
51
43
207
51
43
207
51
43
207
51
43
207
51
43
207
51
43
207
51
43
207
51
43
207
51
43
207
51
43
207
51
43
207
51
43
207
51
43
207
51
43
207
51
43
207
51
43
207
51
43
207
51
43
207
51
43
207
51
43
207
51
43
207
51
43
207
51
43
207
51
43
207
51
43
207
51
43
207
51
43
207
51
43
207
51
43
207
51
43
207
51
43
207
51
43
207
51
43
207
51
43
207
51
43
207
51
43
207
51
43
207
51
43
207
51
43
207
51
43
207
51
43
207
51
43
207
51
43
207
51
43
207
51
43
207
51
43
207
51
43
207
51
43
207
51
43
207
51
43
207
51
43
207
51
43
207
51
43
207
51
43
207
51
43
207
51
43
207
51
43
207
51
43
207
51
43
207
51
43
207
51
43
207
51
43
207
51
43
207
51
43
207
51
43
207
51
43
207
51
43
207
51
43
207
51
43
207
51
43
207
51
43
207
51
43
207
51
43
207
51
43
207
51
43
207
51
43
207
51
43
207
51
43
207
51
43
207
51
43
207
51
43
207
51
43
207
51
43
207
51
43
207
51
43
207
51
43
207
51
43
207
51
43
207
51
43
207
51
43
207
51
43
207
51
43
207
51
43
207
51
43
207
51
43
207
51
43
207
51
43
207
51
43
207
51
43
207
51
43
207
51
43
207
51
43
207
51
43
207
51
43
207
51
43
207
51
43
207
51
43
207
51
43
207
51
43
207
51
43
207
51
43
207
51
43
207
51
43
207
51
43
207
51
43
207
51
43
207
51
43
207
51
43
207
51
43
207
51
43
207
51
43
207
51
43
207
51
43
207
51
43
207
51
43
207
51
43
207
51
43
207
51
43
207
51
43
207
51
43
207
51
43
207
51
43
207
51
43
207
51
43
207
51
43
207
51
43
207
51
43
207
51
43
207
51
43
207
51
43
207
51
43
207
51
43
207
51
43
207
51
43
207
51
43
207
51
43
207
51
43
207
51
43
207
51
43
207
51
43
207
51
43
207
51
43
207
51
43
207
51
43
207
51
43
207
51
43
207
51
43
207
51
43
207
51
43
207
51
43
207
51
43
207
51
43
207
51
43
207
51
43
207
51
43
207
51
43
207
51
43
207
51
43
207
51
43
207
51
43
207
51
43
207
51
43
207
51
43
207
51
43
207
51
43
207
51
43
207
51
43
207
51
43
207
51
43
207
51
43
207
51
43
207
51
43
207
51
43
207
51
43
207
51
43
207
51
43
207
51
43
207
51
43
207
51
43
207
51
43
207
51
43
207
51
43
207
51
43
207
51
43
207
51
43
207
51
43
207
51
43
207
51
43
207
51
43
207
51
43
207
51
43
207
51
43
207
51
43
207
51
43
207
51
43
207
51
43
207
51
43
207
51
43
207
51
43
207
51
43
207
51
43
207
51
43
207
51
43
207
51
43
207
51
43
207
51
43
207
51
43
207
51
43
207
51
43
207
51
43
207
51
43
207
51
43
207
51
43
207
51
43
207
51
43
207
51
43
207
51
43
207
51
43
207
51
43
207
51
43
207
51
43
207
51
43
207
51
43
207
51
43
207
51
43
207
51
43
207
51
43
207
51
43
207
51
43
207
51
43
207
51
43
207
51
43
207
51
43
207
51
43
207
51
43
207
51
43
207
51
43
207
51
43
207
51
43
207
51
43
207
51
43
207
51
43
207
51
43
207
51
43
207
51
43
207
51
43
207
51
43
207
51
43
207
51
43
207
51
43
207
51
43
207
51
43
207
51
43
207
51
43
207
51
43
207
51
43
207
51
43
207
51
43
207
51
43
207
51
43
207
51
43
207
51
43
207
51
43
207
51
43
207
51
43
207
51
43
207
51
43
207
51
43
207
51
43
207
51
43
207
51
43
207
51
43
207
51
43
207
51
43
207
51
43
207
51
43
207
51
43
207
51
43
207
51
43
207
51
43
207
51
43
207
51
43
207
51
43
207
51
43
207
51
43
207
51
43
207
51
43
207
51
43
207
51
43
207
51
43
207
51
43
207
51
43
207
51
43
207
51
43
207
51
43
207
51
43
207
51
43
207
51
43
207
51
43
207
51
43
207
51
43
207
51
43
207
51
43
207
51
43
207
51
43
207
51
43
207
51
43
207
51
43
207
51
43
207
51
43
207
51
43
207
51
43
207
51
43
207
51
43
207
51
43
207
51
43
207
51
43
207
51
43
207
51
43
207
51
43
207
51
43
207
51
43
207
51
43
207
51
43
207
51
43
207
51
43
207
51
43
207
51
43
207
51
43
207
51
43
207
51
43
207
51
43
207
51
43
207
51
43
207
51
43
207
51
43
207
51
43
207
51
43
207
51
43
207
51
43
207
51
43
207
51
43
207
51
43
207
51
43
207
51
43
207
51
43
207
51
43
207
51
43
207
51
43
207
51
43
207
51
43
207
51
43
207
51
43
207
51
43
207
51
43
207
51
43
207
51
43
207
51
43
207
51
43
207
51
43
207
51
43
207
51
43
207
51
43
207
51
43
207
51
43
207
51
43
207
51
43
207
51
43
207
51
43
207
51
43
207
51
43
207
51
43
207
51
43
207
51
43
207
51
43
207
51
43
207
51
43
207
51
43
207
51
43
207
51
43
207
51
43
207
51
43
207
51
43
207
51
43
207
51
43
207
51
43
207
51
43
207
51
43
207
51
43
207
51
43
207
51
43
207
51
43
207
51
43
207
51
43
207
51
43
207
51
43
207
51
43
207
51
43
207
51
43
207
51
43
207
51
43
207
51
43
207
51
43
207
51
43
207
51
43
207
51
43
207
51
43
207
51
43
207
51
43
207
51
43
207
51
43
207
51
43
207
51
43
207
51
43
207
51
43
207
51
43
207
51
43
207
51
43
207
51
43
207
51
43
207
51
43
207
51
43
207
51
43
207
51
43
207
51
43
207
51
43
207
51
43
207
51
43
207
51
43
207
51
43
207
51
43
207
51
43
207
51
43
207
51
43
207
51
43
207
51
43
207
51
43
207
51
43
207
51
43
207
51
43
207
51
43
207
51
43
207
51
43
207
51
43
207
51
43
207
51
43
207
51
43
207
51
43
207
51
43
207
51
43
207
51
43
207
51
43
207
51
43
207
51
43
207
51
43
207
51
43
207
51
43
207
51
43
207
51
43
207
51
43
207
51
43
207
51
43
207
51
43
207
51
43
207
51
43
207
51
43
207
51
43
207
51
43
207
51
43
207
51
43
207
51
43
207
51
43
207
51
43
207
51
43
207
51
43
207
51
43
207
51
43
207
51
43
207
51
43
207
51
43
207
51
43
207
51
43
207
51
43
207
51
43
207
51
43
207
51
43
207
51
43
207
51
43
207
51
43
207
51
43
207
51
43
207
51
43
207
51
43
207
51
43
207
51
43
207
51
43
207
51
43
207
51
43
207
51
43
207
51
43
207
51
43
207
51
43
207
51
43
207
51
43
207
51
43
207
51
43
207
51
43
207
51
43
207
51
43
207
51
43
207
51
43
207
51
43
207
51
43
207
51
43
207
51
43
207
51
43
207
51
43
207
51
43
207
51
43
207
51
43
207
51
43
207
51
43
207
51
43
207
51
43
207
51
43
207
51
43
207
51
43
207
51
43
207
51
43
207
51
43
207
51
43
207
51
43
207
51
43
207
51
43
207
51
43
207
51
43
207
51
43
207
51
43
207
51
43
207
51
43
207
51
43
207
51
43
207
51
43
207
51
43
207
51
43
207
51
43
207
51
43
207
51
43
207
51
43
207
51
43
207
51
43
207
51
43
207
51
43
207
51
43
207
51
43
207
51
43
207
51
43
207
51
43
207
51
43
207
51
43
207
51
43
207
51
43
207
51
43
207
51
43
207
51
43
207
51
43
207
51
43
207
51
43
207
51
43
207
51
43
207
51
43
207
51
43
207
51
43
207
51
43
207
51
43
207
51
43
207
51
43
207
51
43
207
51
43
207
51
43
207
51
43
207
51
43
207
51
43
207
51
43
207
51
43
207
51
43
207
51
43
207
51
43
207
51
43
207
51
43
207
51
43
207
51
43
207
51
43
207
51
43
207
51
43
207
51
43
207
51
43
207
51
43
207
51
43
207
51
43
207
51
43
207
51
43
207
51
43
207
51
43
207
51
43
207
51
43
207
51
43
207
51
43
207
51
43
207
51
43
207
51
43
207
51
43
207
51
43
207
51
43
207
51
43
207
51
43
207
51
43
207
51
43
207
51
43
207
51
43
207
51
43
207
51
43
207
51
43
207
51
43
207
51
43
207
51
43
207
51
43
207
51
43
207
51
43
207
51
43
207
51
43
207
51
43
207
51
43
207
51
43
207
51
43
207
51
43
207
51
43
207
51
43
207
51
43
207
51
43
207
51
43
207
51
43
207
51
43
207
51
43
207
51
43
207
51
43
207
51
43
207
51
43
207
51
43
207
51
43
207
51
43
207
51
43
207
51
43
207
51
43
207
51
43
207
51
43
207
51
43
207
51
43
207
51
43
207
51
43
207
51
43
207
51
43
207
51
43
207
51
43
207
51
43
207
51
43
207
51
43
207
51
43
207
51
43
207
51
43
207
51
43
207
51
43
207
51
43
207
51
43
207
51
43
207
51
43
207
51
43
207
51
43
207
51
43
207
51
43
207
51
43
207
51
43
207
51
43
207
51
43
207
51
43
207
51
43
207
51
43
207
51
43
207
51
43
207
51
43
207
51
43
207
51
43
207
51
43
207
51
43
207
51
43
207
51
43
207
51
43
207
51
43
207
51
43
207
51
43
207
51
43
207
51
43
207
51
43
207
51
43
207
51
43
207
51
43
207
51
43
207
51
43
207
51
43
207
51
43
207
51
43
207
51
43
207
51
43
207
51
43
207
51
43
207
51
43
207
51
43
207
51
43
207
51
43
207
51
43
207
51
43
207
51
43
207
51
43
207
51
43
207
51
43
207
51
43
207
51
43
207
51
43
207
51
43
207
51
43
207
51
43
207
51
43
207
51
43
207
51
43
207
51
43
207
51
43
207
51
43
207
51
43
207
51
43
207
51
43
207
51
43
207
51
43
207
51
43
207
51
43
207
51
43
207
51
43
207
51
43
207
51
43
207
51
43
207
51
43
207
51
43
207
51
43
207
51
43
207
51
43
207
51
43
207
51
43
207
51
43
207
51
43
207
51
43
207
51
43
207
51
43
207
51
43
207
51
43
207
51
43
207
51
43
207
51
43
207
51
43
207
51
43
207
51
43
207
51
43
207
51
43
207
51
43
207
51
43
207
51
43
207
51
43
207
51
43
207
51
43
207
51
43
207
51
43
207
51
43
207
51
43
207
51
43
207
51
43
207
51
43
207
51
43
207
51
43
207
51
43
207
51
43
207
51
43
207
51
43
207
51
43
207
51
43
207
51
43
207
51
43
207
51
43
207
51
43
207
51
43
207
51
43
207
51
43
207
51
43
207
51
43
207
51
43
207
51
43
207
51
43
207
51
43
207
51
43
207
51
43
207
51
43
207
51
43
207
51
43
207
51
43
207
51
43
207
51
43
207
51
43
207
51
43
207
51
43
207
51
43
207
51
43
207
51
43
207
51
43
207
51
43
207
51
43
207
51
43
207
51
43
207
51
43
207
51
43
207
51
43
207
51
43
207
51
43
207
51
43
207
51
43
207
51
43
207
51
43
207
51
43
207
51
43
207
51
43
207
51
43
207
51
43
207
51
43
207
51
43
207
51
43
207
51
43
207
51
43
207
51
43
207
51
43
207
51
43
207
51
43
207
51
43
207
51
43
207
51
43
207
51
43
207
51
43
207
51
43
207
51
43
207
51
43
207
51
43
207
51
43
207
51
43
207
51
43
207
51
43
207
51
43
207
51
43
207
51
43
207
51
43
207
51
43
207
51
43
207
51
43
207
51
43
207
51
43
207
51
43
207
51
43
207
51
43
207
51
43
207
51
43
207
51
43
207
51
43
207
51
43
207
51
43
207
51
43
207
51
43
207
51
43
207
51
43
207
51
43
207
51
43
207
51
43
207
51
43
207
51
43
207
51
43
207
51
43
207
51
43
207
51
43
207
51
43
207
51
43
207
51
43
207
51
43
207
51
43
207
51
43
207
51
43
207
51
43
207
51
43
207
51
43
207
51
43
207
51
43
207
51
43
207
51
43
207
51
43
207
51
43
207
51
43
207
51
43
207
51
43
207
51
43
207
51
43
207
51
43
207
51
43
207
51
43
207
51
43
207
51
43
207
51
43
207
51
43
207
51
43
207
51
43
207
51
43
207
51
43
207
51
43
207
51
43
207
51
43
207
51
43
207
51
43
207
51
43
207
51
43
207
51
43
207
51
43
207
51
43
207
51
43
207
51
43
207
51
43
207
51
43
207
51
43
207
51
43
207
51
43
207
51
43
207
51
43
207
51
43
207
51
43
207
51
43
207
51
43
207
51
43
207
51
43
207
51
43
207
51
43
207
51
43
207
51
43
207
51
43
207
51
43
207
51
43
207
51
43
207
51
43
207
51
43
207
51
43
207
51
43
207
51
43
207
51
43
207
51
43
207
51
43
207
51
43
207
51
43
207
51
43
207
51
43
207
51
43
207
51
43
207
51
43
207
51
43
207
51
43
207
51
43
207
51
43
207
51
43
207
51
43
207
51
43
207
51
43
207
51
43
207
51
43
207
51
43
207
51
43
207
51
43
207
51
43
207
51
43
207
51
43
207
51
43
207
51
43
207
51
43
207
51
43
207
51
43
207
51
43
207
51
43
207
51
43
207
51
43
207
51
43
207
51
43
207
51
43
207
51
43
207
51
43
207
51
43
207
51
43
207
51
43
207
51
43
207
51
43
207
51
43
207
51
43
207
51
43
207
51
43
207
51
43
207
51
43
207
51
43
207
51
43
207
51
43
207
51
43
207
51
43
207
51
43
207
51
43
207
51
43
207
51
43
207
51
43
207
51
43
207
51
43
207
51
43
207
51
43
207
51
43
207
51
43
207
51
43
207
51
43
207
51
43
207
51
43
207
51
43
207
51
43
207
51
43
207
51
43
207
51
43
207
51
43
207
51
43
207
51
43
207
51
43
207
51
43
207
51
43
207
51
43
207
51
43
207
51
43
207
51
43
207
51
43
207
51
43
207
51
43
207
51
43
207
51
43
207
51
43
207
51
43
207
51
43
207
51
43
207
51
43
207
51
43
207
51
43
207
51
43
207
51
43
207
51
43
207
51
43
207
51
43
207
51
43
207
51
43
207
51
43
207
51
43
207
51
43
207
51
43
207
51
43
207
51
43
207
51
43
207
51
43
207
51
43
207
51
43
207
51
43
207
51
43
207
51
43
207
51
43
207
51
43
207
51
43
207
51
43
207
51
43
207
51
43
207
51
43
207
51
43
207
51
43
207
51
43
207
51
43
207
51
43
207
51
43
207
51
43
207
51
43
207
51
43
207
51
43
207
51
43
207
51
43
207
51
43
207
51
43
207
51
43
207
51
43
207
51
43
207
51
43
207
51
43
207
51
43
207
51
43
207
51
43
207
51
43
207
51
43
207
51
43
207
51
43
207
51
43
207
51
43
207
51
43
207
51
43
207
51
43
207
51
43
207
51
43
207
51
43
207
51
43
207
51
43
207
51
43
207
51
43
207
51
43
207
51
43
207
51
43
207
51
43
207
51
43
207
51
43
207
51
43
207
51
43
207
51
43
207
51
43
207
51
43
207
51
43
207
51
43
207
51
43
207
51
43
207
51
43
207
51
43
207
51
43
207
51
43
207
51
43
207
51
43
207
51
43
207
51
43
207
51
43
207
51
43
207
51
43
207
51
43
207
51
43
207
51
43
207
51
43
207
51
43
207
51
43
207
51
43
207
51
43
207
51
43
207
51
43
207
51
43
207
51
43
207
51
43
207
51
43
207
51
43
207
51
43
207
51
43
207
51
43
207
51
43
207
51
43
207
51
43
207
51
43
207
51
43
207
51
43
207
51
43
207
51
43
207
51
43
207
51
43
207
51
43
207
51
43
207
51
43
207
51
43
207
51
43
207
51
43
207
51
43
207
51
43
207
51
43
207
51
43
207
51
43
207
51
43
207
51
43
207
51
43
207
51
43
207
51
43
207
51
43
207
51
43
207
51
43
207
51
43
207
51
43
207
51
43
207
51
43
207
51
43
207
51
43
207
51
43
207
51
43
207
51
43
207
51
43
207
51
43
207
51
43
207
51
43
207
51
43
207
51
43
207
51
43
207
51
43
207
51
43
207
51
43
207
51
43
207
51
43
207
51
43
207
51
43
207
51
43
207
51
43
207
51
43
207
51
43
207
51
43
207
51
43
207
51
43
207
51
43
207
51
43
207
51
43
207
51
43
207
51
43
207
51
43
207
51
43
207
51
43
207
51
43
207
51
43
207
51
43
207
51
43
207
51
43
207
51
43
207
51
43
207
51
43
207
51
43
207
51
43
207
51
43
207
51
43
207
51
43
207
51
43
207
51
43
207
51
43
207
51
43
207
51
43
207
51
43
207
51
43
207
51
43
207
51
43
207
51
43
207
51
43
207
51
43
207
51
43
207
51
43
207
51
43
207
51
43
207
51
43
207
51
43
207
51
43
207
51
43
207
51
43
207
51
43
207
51
43
207
51
43
207
51
43
207
51
43
207
51
43
207
51
43
207
51
43
207
51
43
207
51
43
207
51
43
207
51
43
207
51
43
207
51
43
207
51
43
207
51
43
207
51
43
207
51
43
207
51
43
207
51
43
207
51
43
207
51
43
207
51
43
207
51
43
207
51
43
207
51
43
207
51
43
207
51
43
207
51
43
207
51
43
207
51
43
207
51
43
207
51
43
207
51
43
207
51
43
207
51
43
207
51
43
207
51
43
207
51
43
207
51
43
207
51
43
207
51
43
207
51
43
207
51
43
207
51
43
207
51
43
207
51
43
207
51
43
207
51
43
207
51
43
207
51
43
207
51
43
207
51
43
207
51
43
207
51
43
207
51
43
207
51
43
207
51
43
207
51
43
207
51
43
207
51
43
207
51
43
207
51
43
207
51
43
207
51
43
207
51
43
207
51
43
207
51
43
207
51
43
207
51
43
207
51
43
207
51
43
207
51
43
207
51
43
207
51
43
207
51
43
207
51
43
207
51
43
207
51
43
207
51
43
207
51
43
207
51
43
207
51
43
207
51
43
207
51
43
207
51
43
207
51
43
207
51
43
207
51
43
207
51
43
207
51
43
207
51
43
207
51
43
207
51
43
207
51
43
207
51
43
207
51
43
207
51
43
207
51
43
207
51
43
207
51
43
207
51
43
207
51
43
207
51
43
207
51
43
207
51
43
207
51
43
207
51
43
207
51
43
207
51
43
207
51
43
207
51
43
207
51
43
207
51
43
207
51
43
207
51
43
207
51
43
207
51
43
207
51
43
207
51
43
207
51
43
207
51
43
207
51
43
207
51
43
207
51
43
207
51
43
207
51
43
207
51
43
207
51
43
207
51
43
207
51
43
207
51
43
207
51
43
207
51
43
207
51
43
207
51
43
207
51
43
207
51
43
207
51
43
207
51
43
207
51
43
207
51
43
207
51
43
207
51
43
207
51
43
207
51
43
207
51
43
207
51
43
207
51
43
207
51
43
207
51
43
207
51
43
207
51
43
207
51
43
207
51
43
207
51
43
207
51
43
207
51
43
207
51
43
207
51
43
207
51
43
207
51
43
207
51
43
207
51
43
207
51
43
207
51
43
207
51
43
207
51
43
207
51
43
207
51
43
207
51
43
207
51
43
207
51
43
207
51
43
207
51
43
207
51
43
207
51
43
207
51
43
207
51
43
207
51
43
207
51
43
207
51
43
207
51
43
207
51
43
207
51
43
207
51
43
207
51
43
207
51
43
207
51
43
207
51
43
207
51
43
207
51
43
207
51
43
207
51
43
207
51
43
207
51
43
207
51
43
207
51
43
207
51
43
207
51
43
207
51
43
207
51
43
207
51
43
207
51
43
207
51
43
207
51
43
207
51
43
207
51
43
207
51
43
207
51
43
207
51
43
207
51
43
207
51
43
207
51
43
207
51
43
207
51
43
207
51
43
207
51
43
207
51
43
207
51
43
207
51
43
207
51
43
207
51
43
207
51
43
207
51
43
207
51
43
207
51
43
207
51
43
207
51
43
207
51
43
207
51
43
207
51
43
207
51
43
207
51
43
207
51
43
207
51
43
207
51
43
207
51
43
207
51
43
207
51
43
207
51
43
207
51
43
207
51
43
207
51
43
207
51
43
207
51
43
207
51
43
207
51
43
207
51
43
207
51
43
207
51
43
207
51
43
207
51
43
207
51
43
207
51
43
207
51
43
207
51
43
207
51
43
207
51
43
207
51
43
207
51
43
207
51
43
207
51
43
207
51
43
207
51
43
207
51
43
207
51
43
207
51
43
207
51
43
207
51
43
207
51
43
207
51
43
207
51
43
207
51
43
207
51
43
207
51
43
207
51
43
207
51
43
207
51
43
207
51
43
207
51
43
207
51
43
207
51
43
207
51
43
207
51
43
207
51
43
207
51
43
207
51
43
207
51
43
207
51
43
207
51
43
207
51
43
207
51
43
207
51
43
207
51
43
207
51
43
207
51
43
207
51
43
207
51
43
207
51
43
207
51
43
207
51
43
207
51
43
207
51
43
207
51
43
207
51
43
207
51
43
207
51
43
207
51
43
207
51
43
207
51
43
207
51
43
207
51
43
207
51
43
207
51
43
207
51
43
207
51
43
207
51
43
207
51
43
207
51
43
207
51
43
207
51
43
207
51
43
207
51
43
207
51
43
207
51
43
207
51
43
207
51
43
207
51
43
207
51
43
207
51
43
207
51
43
207
51
43
207
51
43
207
51
43
207
51
43
207
51
43
207
51
43
207
51
43
207
51
43
207
51
43
207
51
43
207
51
43
207
51
43
207
51
43
207
51
43
207
51
43
207
51
43
207
51
43
207
51
43
207
51
43
207
51
43
207
51
43
207
51
43
207
51
43
207
51
43
207
51
43
207
51
43
207
51
43
207
51
43
207
51
43
207
51
43
207
51
43
207
51
43
207
51
43
207
51
43
207
51
43
207
51
43
207
51
43
207
51
43
207
51
43
207
51
43
207
51
43
207
51
43
207
51
43
207
51
43
207
51
43
207
51
43
207
51
43
207
51
43
207
51
43
207
51
43
207
51
43
207
51
43
207
51
43
207
51
43
207
51
43
207
51
43
207
51
43
207
51
43
207
51
43
207
51
43
207
51
43
207
51
43
207
51
43
207
51
43
207
51
43
207
51
43
207
51
43
207
51
43
207
51
43
207
51
43
207
51
43
207
51
43
207
51
43
207
51
43
207
51
43
207
51
43
207
51
43
207
51
43
207
51
43
207
51
43
207
51
43
207
51
43
207
51
43
207
51
43
207
51
43
207
51
43
207
51
43
207
51
43
207
51
43
207
51
43
207
51
43
207
51
43
207
51
43
207
51
43
207
51
43
207
51
43
207
51
43
207
51
43
207
51
43
207
51
43
207
51
43
207
51
43
207
51
43
207
51
43
207
51
43
207
51
43
207
51
43
207
51
43
207
51
43
207
51
43
207
51
43
207
51
43
207
51
43
207
51
43
207
51
43
207
51
43
207
51
43
207
51
43
207
51
43
207
51
43
207
51
43
207
51
43
207
51
43
207
51
43
207
51
43
207
51
43
207
51
43
207
51
43
207
51
43
207
51
43
207
51
43
207
51
43
207
51
43
207
51
43
207
51
43
207
51
43
207
51
43
207
51
43
207
51
43
207
51
43
207
51
43
207
51
43
207
51
43
207
51
43
207
51
43
207
51
43
207
51
43
207
51
43
207
51
43
207
51
43
207
51
43
207
51
43
207
51
43
207
51
43
207
51
43
207
51
43
207
51
43
207
51
43
207
51
43
207
51
43
207
51
43
207
51
43
207
51
43
207
51
43
207
51
43
207
51
43
207
51
43
207
51
43
207
51
43
207
51
43
207
51
43
207
51
43
207
51
43
207
51
43
207
51
43
207
51
43
207
51
43
207
51
43
207
51
43
207
51
43
207
51
43
207
51
43
207
51
43
207
51
43
207
51
43
207
51
43
207
51
43
207
51
43
207
51
43
207
51
43
207
51
43
207
51
43
207
51
43
207
51
43
207
51
43
207
51
43
207
51
43
207
51
43
207
51
43
207
51
43
207
51
43
207
51
43
207
51
43
207
51
43
207
51
43
207
51
43
207
51
43
207
51
43
207
51
43
207
51
43
207
51
43
207
51
43
207
51
43
207
51
43
207
51
43
207
51
43
207
51
43
207
51
43
207
51
43
207
51
43
207
51
43
207
51
43
207
51
43
207
51
43
207
51
43
207
51
43
207
51
43
207
51
43
207
51
43
207
51
43
207
51
43
207
51
43
207
51
43
207
51
43
207
51
43
207
51
43
207
51
43
207
51
43
207
51
43
207
51
43
207
51
43
207
51
43
207
51
43
207
51
43
207
51
43
207
51
43
207
51
43
207
51
43
207
51
43
207
51
43
207
51
43
207
51
43
207
51
43
207
51
43
207
51
43
207
51
43
207
51
43
207
51
43
207
51
43
207
51
43
207
51
43
207
51
43
207
51
43
207
51
43
207
51
43
207
51
43
207
51
43
207
51
43
207
51
43
207
51
43
207
51
43
207
51
43
207
51
43
207
51
43
207
51
43
207
51
43
207
51
43
207
51
43
207
51
43
207
51
43
207
51
43
207
51
43
207
51
43
207
51
43
207
51
43
207
51
43
207
51
43
207
51
43
207
51
43
207
51
43
207
51
43
207
51
43
207
51
43
207
51
43
207
51
43
207
51
43
207
51
43
207
51
43
207
51
43
207
51
43
207
51
43
207
51
43
207
51
43
207
51
43
207
51
43
207
51
43
207
51
43
207
51
43
207
51
43
207
51
43
207
51
43
207
51
43
207
51
43
207
51
43
207
51
43
207
51
43
207
51
43
207
51
43
207
51
43
207
51
43
207
51
43
207
51
43
207
51
43
207
51
43
207
51
43
207
51
43
207
51
43
207
51
43
207
51
43
207
51
43
207
51
43
207
51
43
207
51
43
207
51
43
207
51
43
207
51
43
207
51
43
207
51
43
207
51
43
207
51
43
207
51
43
207
51
43
207
51
43
207
51
43
207
51
43
207
51
43
207
51
43
207
51
43
207
51
43
207
51
43
207
51
43
207
51
43
207
51
43
207
51
43
207
51
43
207
51
43
207
51
43
207
51
43
207
51
43
207
51
43
207
51
43
207
51
43
207
51
43
207
51
43
207
51
43
207
51
43
207
51
43
207
51
43
207
51
43
207
51
43
207
51
43
207
51
43
207
51
43
207
51
43
207
51
43
207
51
43
207
51
43
207
51
43
207
51
43
207
51
43
207
51
43
207
51
43
207
51
43
207
51
43
207
51
43
207
51
43
207
51
43
207
51
43
207
51
43
207
51
43
207
51
43
207
51
43
207
51
43
207
51
43
207
51
43
207
51
43
207
51
43
207
51
43
207
51
43
207
51
43
207
51
43
207
51
43
207
51
43
207
51
43
207
51
43
207
51
43
207
51
43
207
51
43
207
51
43
207
51
43
207
51
43
207
51
43
207
51
43
207
51
43
207
51
43
207
51
43
207
51
43
207
51
43
207
51
43
207
51
43
207
51
43
207
51
43
207
51
43
207
51
43
207
51
43
207
51
43
207
51
43
207
51
43
207
51
43
207
51
43
207
51
43
207
51
43
207
51
43
207
51
43
207
51
43
207
51
43
207
51
43
207
51
43
207
51
43
207
51
43
207
51
43
207
51
43
207
51
43
207
51
43
207
51
43
207
51
43
207
51
43
207
51
43
207
51
43
207
51
43
207
51
43
207
51
43
207
51
43
207
51
43
207
51
43
207
51
43
207
51
43
207
51
43
207
51
43
207
51
43
207
51
43
207
51
43
207
51
43
207
51
43
207
51
43
207
51
43
207
51
43
207
51
43
207
51
43
207
51
43
207
51
43
207
51
43
207
51
43
207
51
43
207
51
43
207
51
43
207
51
43
207
51
43
207
51
43
207
51
43
207
51
43
207
51
43
207
51
43
207
51
43
207
51
43
207
51
43
207
51
43
207
51
43
207
51
43
207
51
43
207
51
43
207
51
43
207
51
43
207
51
43
207
51
43
207
51
43
207
51
43
207
51
43
207
51
43
207
51
43
207
51
43
207
51
43
207
51
43
207
51
43
207
51
43
207
51
43
207
51
43
207
51
43
207
51
43
207
51
43
207
51
43
207
51
43
207
51
43
207
51
43
207
51
43
207
51
43
207
51
43
207
51
43
207
51
43
207
51
43
207
51
43
207
51
43
207
51
43
207
51
43
207
51
43
207
51
43
207
51
43
207
51
43
207
51
43
207
51
43
207
51
43
207
51
43
207
51
43
207
51
43
207
51
43
207
51
43
207
51
43
207
51
43
207
51
43
207
51
43
207
51
43
207
51
43
207
51
43
207
51
43
207
51
43
207
51
43
207
51
43
207
51
43
207
51
43
207
51
43
207
51
43
207
51
43
207
51
43
207
51
43
207
51
43
207
51
43
207
51
43
207
51
43
207
51
43
207
51
43
207
51
43
207
51
43
207
51
43
207
51
43
207
51
43
207
51
43
207
51
43
207
51
43
207
51
43
207
51
43
207
51
43
207
51
43
207
51
43
207
51
43
207
51
43
207
51
43
207
51
43
207
51
43
207
51
43
207
51
43
207
51
43
207
51
43
207
51
43
207
51
43
207
51
43
207
51
43
207
51
43
207
51
43
207
51
43
207
51
43
207
51
43
207
51
43
207
51
43
207
51
43
207
51
43
207
51
43
207
51
43
207
51
43
207
51
43
207
51
43
207
51
43
207
51
43
207
51
43
207
51
43
207
51
43
207
51
43
207
51
43
207
51
43
207
51
43
207
51
43
207
51
43
207
51
43
207
51
43
207
51
43
207
51
43
207
51
43
207
51
43
207
51
43
207
51
43
207
51
43
207
51
43
207
51
43
207
51
43
207
51
43
207
51
43
207
51
43
207
51
43
207
51
43
207
51
43
207
51
43
207
51
43
207
51
43
207
51
43
207
51
43
207
51
43
207
51
43
207
51
43
207
51
43
207
51
43
207
51
43
207
51
43
207
51
43
207
51
43
207
51
43
207
51
43
207
51
43
207
51
43
207
51
43
207
51
43
207
51
43
207
51
43
207
51
43
207
51
43
207
51
43
207
51
43
207
51
43
207
51
43
207
51
43
207
51
43
207
51
43
207
51
43
207
51
43
207
51
43
207
51
43
207
51
43
207
51
43
207
51
43
207
51
43
207
51
43
207
51
43
207
51
43
207
51
43
207
51
43
207
51
43
207
51
43
207
51
43
207
51
43
207
51
43
207
51
43
207
51
43
207
51
43
207
51
43
207
51
43
207
51
43
207
51
43
207
51
43
207
51
43
207
51
43
207
51
43
207
51
43
207
51
43
207
51
43
207
51
43
207
51
43
207
51
43
207
51
43
207
51
43
207
51
43
207
51
43
207
51
43
207
51
43
207
51
43
207
51
43
207
51
43
207
51
43
207
51
43
207
51
43
207
51
43
207
51
43
207
51
43
207
51
43
207
51
43
207
51
43
207
51
43
207
51
43
207
51
43
207
51
43
207
51
43
207
51
43
207
51
43
207
51
43
207
51
43
207
51
43
207
51
43
207
51
43
207
51
43
207
51
43
207
51
43
207
51
43
207
51
43
207
51
43
207
51
43
207
51
43
207
51
43
207
51
43
207
51
43
207
51
43
207
51
43
207
51
43
207
51
43
207
51
43
207
51
43
207
51
43
207
51
43
207
51
43
207
51
43
207
51
43
207
51
43
207
51
43
207
51
43
207
51
43
207
51
43
207
51
43
207
51
43
207
51
43
207
51
43
207
51
43
207
51
43
207
51
43
207
51
43
207
51
43
207
51
43
207
51
43
207
51
43
207
51
43
207
51
43
207
51
43
207
51
43
207
51
43
207
51
43
207
51
43
207
51
43
207
51
43
207
51
43
207
51
43
207
51
43
207
51
43
207
51
43
207
51
43
207
51
43
207
51
43
207
51
43
207
51
43
207
51
43
207
51
43
207
51
43
207
51
43
207
51
43
207
51
43
207
51
43
207
51
43
207
51
43
207
51
43
207
51
43
207
51
43
207
51
43
207
51
43
207
51
43
207
51
43
207
51
43
207
51
43
207
51
43
207
51
43
207
51
43
207
51
43
207
51
43
207
51
43
207
51
43
207
51
43
207
51
43
207
51
43
207
51
43
207
51
43
207
51
43
207
51
43
207
51
43
207
51
43
207
51
43
207
51
43
207
51
43
207
51
43
207
51
43
207
51
43
207
51
43
207
51
43
207
51
43
207
51
43
207
51
43
207
51
43
207
51
43
207
51
43
207
51
43
207
51
43
207
51
43
207
51
43
207
51
43
207
51
43
207
51
43
207
51
43
207
51
43
207
51
43
207
51
43
207
51
43
207
51
43
207
51
43
207
51
43
207
51
43
207
51
43
207
51
43
207
51
43
207
51
43
207
51
43
207
51
43
207
51
43
207
51
43
207
51
43
207
51
43
207
51
43
207
51
43
207
51
43
207
51
43
207
51
43
207
51
43
207
51
43
207
51
43
207
51
43
207
51
43
207
51
43
207
51
43
207
51
43
207
51
43
207
51
43
207
51
43
207
51
43
207
51
43
207
51
43
207
51
43
207
51
43
207
51
43
207
51
43
207
51
43
207
51
43
207
51
43
207
51
43
207
51
43
207
51
43
207
51
43
207
51
43
207
51
43
207
51
43
207
51
43
207
51
43
207
51
43
207
51
43
207
51
43
207
51
43
207
51
43
207
51
43
207
51
43
207
51
43
207
51
43
207
51
43
207
51
43
207
51
43
207
51
43
207
51
43
207
51
43
207
51
43
207
51
43
207
51
43
207
51
43
207
51
43
207
51
43
207
51
43
207
51
43
207
51
43
207
51
43
207
51
43
207
51
43
207
51
43
207
51
43
207
51
43
207
51
43
207
51
43
207
51
43
207
51
43
207
51
43
207
51
43
207
51
43
207
51
43
207
51
43
207
51
43
207
51
43
207
51
43
207
51
43
207
51
43
207
51
43
207
51
43
207
51
43
207
51
43
207
51
43
207
51
43
207
51
43
207
51
43
207
51
43
207
51
43
207
51
43
207
51
43
207
51
43
207
51
43
207
51
43
207
51
43
207
51
43
207
51
43
207
51
43
207
51
43
207
51
43
207
51
43
207
51
43
207
51
43
207
51
43
207
51
43
207
51
43
207
51
43
207
51
43
207
51
43
207
51
43
207
51
43
207
51
43
207
51
43
207
51
43
207
51
43
207
51
43
207
51
43
207
51
43
207
51
43
207
51
43
207
51
43
207
51
43
207
51
43
207
51
43
207
51
43
207
51
43
207
51
43
207
51
43
207
51
43
207
51
43
207
51
43
207
51
43
207
51
43
207
51
43
207
51
43
207
51
43
207
51
43
207
51
43
207
51
43
207
51
43
207
51
43
207
51
43
207
51
43
207
51
43
207
51
43
207
51
43
207
51
43
207
51
43
207
51
43
207
51
43
207
51
43
207
51
43
207
51
43
207
51
43
207
51
43
207
51
43
207
51
43
207
51
43
207
51
43
207
51
43
207
51
43
207
51
43
207
51
43
207
51
43
207
51
43
207
51
43
207
51
43
207
51
43
207
51
43
207
51
43
207
51
43
207
51
43
207
51
43
207
51
43
207
51
43
207
51
43
207
51
43
207
51
43
207
51
43
207
51
43
207
51
43
207
51
43
207
51
43
207
51
43
207
51
43
207
51
43
207
51
43
207
51
43
207
51
43
207
51
43
207
51
43
207
51
43
207
51
43
207
51
43
207
51
43
207
51
43
207
51
43
207
51
43
207
51
43
207
51
43
207
51
43
207
51
43
207
51
43
207
51
43
207
51
43
207
51
43
207
51
43
207
51
43
207
51
43
207
51
43
207
51
43
207
51
43
207
51
43
207
51
43
207
51
43
207
51
43
207
51
43
207
51
43
207
51
43
207
51
43
207
51
43
207
51
43
207
51
43
207
51
43
207
51
43
207
51
43
207
51
43
207
51
43
207
51
43
207
51
43
207
51
43
207
51
43
207
51
43
207
51
43
207
51
43
207
51
43
207
51
43
207
51
43
207
51
43
207
51
43
207
51
43
207
51
43
207
51
43
207
51
43
207
51
43
207
51
43
207
51
43
207
51
43
207
51
43
207
51
43
207
51
43
207
51
43
207
51
43
207
51
43
207
51
43
207
51
43
207
51
43
207
51
43
207
51
43
207
51
43
207
51
43
207
51
43
207
51
43
207
51
43
207
51
43
207
51
43
207
51
43
207
51
43
207
51
43
207
51
43
207
51
43
207
51
43
207
51
43
207
51
43
207
51
43
207
51
43
207
51
43
207
51
43
207
51
43
207
51
43
207
51
43
207
51
43
207
51
43
207
51
43
207
51
43
207
51
43
207
51
43
207
51
43
207
51
43
207
51
43
207
51
43
207
51
43
207
51
43
207
51
43
207
51
43
207
51
43
207
51
43
207
51
43
207
51
43
207
51
43
207
51
43
207
51
43
207
51
43
207
51
43
207
51
43
207
51
43
207
51
43
207
51
43
207
51
43
207
51
43
207
51
43
207
51
43
207
51
43
207
51
43
207
51
43
207
51
43
207
51
43
207
51
43
207
51
43
207
51
43
207
51
43
207
51
43
207
51
43
207
51
43
207
51
43
207
51
43
207
51
43
207
51
43
207
51
43
207
51
43
207
51
43
207
51
43
207
51
43
207
51
43
207
51
43
207
51
43
207
51
43
207
51
43
207
51
43
207
51
43
207
51
43
207
51
43
207
51
43
207
51
43
207
51
43
207
51
43
207
51
43
207
51
43
207
51
43
207
51
43
207
51
43
207
51
43
207
51
43
207
51
43
207
51
43
207
51
43
207
51
43
207
51
43
207
51
43
207
51
43
207
51
43
207
51
43
207
51
43
207
51
43
207
51
43
207
51
43
207
51
43
207
51
43
207
51
43
207
51
43
207
51
43
207
51
43
207
51
43
207
51
43
207
51
43
207
51
43
207
51
43
207
51
43
207
51
43
207
51
43
207
51
43
207
51
43
207
51
43
207
51
43
207
51
43
207
51
43
207
51
43
207
51
43
207
51
43
207
51
43
207
51
43
207
51
43
207
51
43
207
51
43
207
51
43
207
51
43
207
51
43
207
51
43
207
51
43
207
51
43
207
51
43
207
51
43
207
51
43
207
51
43
207
51
43
207
51
43
207
51
43
207
51
43
207
51
43
207
51
43
207
51
43
207
51
43
207
51
43
207
51
43
207
51
43
207
51
43
207
51
43
207
51
43
207
51
43
207
51
43
207
51
43
207
51
43
207
51
43
207
51
43
207
51
43
207
51
43
207
51
43
207
51
43
207
51
43
207
51
43
207
51
43
207
51
43
207
51
43
207
51
43
207
51
43
207
51
43
207
51
43
207
51
43
207
51
43
207
51
43
207
51
43
207
51
43
207
51
43
207
51
43
207
51
43
207
51
43
207
51
43
207
51
43
207
51
43
207
51
43
207
51
43
207
51
43
207
51
43
207
51
43
207
51
43
207
51
43
207
51
43
207
51
43
207
51
43
207
51
43
207
51
43
207
51
43
207
51
43
207
51
43
207
51
43
207
51
43
207
51
43
207
51
43
207
51
43
207
51
43
207
51
43
207
51
43
207
51
43
207
51
43
207
51
43
207
51
43
207
51
43
207
51
43
207
51
43
207
51
43
207
51
43
207
51
43
207
51
43
207
51
43
207
51
43
207
51
43
207
51
43
207
51
43
207
51
43
207
51
43
207
51
43
207
51
43
207
51
43
207
51
43
207
51
43
207
51
43
207
51
43
207
51
43
207
51
43
207
51
43
207
51
43
207
51
43
207
51
43
207
51
43
207
51
43
207
51
43
207
51
43
207
51
43
207
51
43
207
51
43
207
51
43
207
51
43
207
51
43
207
51
43
207
51
43
207
51
43
207
51
43
207
51
43
207
51
43
207
51
43
207
51
43
207
51
43
207
51
43
207
51
43
207
51
43
207
51
43
207
51
43
207
51
43
207
51
43
207
51
43
207
51
43
207
51
43
207
51
43
207
51
43
207
51
43
207
51
43
207
51
43
207
51
43
207
51
43
207
51
43
207
51
43
207
51
43
207
51
43
207
51
43
207
51
43
207
51
43
207
51
43
207
51
43
207
51
43
207
51
43
207
51
43
207
51
43
207
51
43
207
51
43
207
51
43
207
51
43
207
51
43
207
51
43
207
51
43
207
51
43
207
51
43
207
51
43
207
51
43
207
51
43
207
51
43
207
51
43
207
51
43
207
51
43
207
51
43
207
51
43
207
51
43
207
51
43
207
51
43
207
51
43
207
51
43
207
51
43
207
51
43
207
51
43
207
51
43
207
51
43
207
51
43
207
51
43
207
51
43
207
51
43
207
51
43
207
51
43
207
51
43
207
51
43
207
51
43
207
51
43
207
51
43
207
51
43
207
51
43
207
51
43
207
51
43
207
51
43
207
51
43
207
51
43
207
51
43
207
51
43
207
51
43
207
51
43
207
51
43
207
51
43
207
51
43
207
51
43
207
51
43
207
51
43
207
51
43
207
51
43
207
51
43
207
51
43
207
51
43
207
51
43
207
51
43
207
51
43
207
51
43
207
51
43
207
51
43
207
51
43
207
51
43
207
51
43
207
51
43
207
51
43
207
51
43
207
51
43
207
51
43
207
51
43
207
51
43
207
51
43
207
51
43
207
51
43
207
51
43
207
51
43
207
51
43
207
51
43
207
51
43
207
51
43
207
51
43
207
51
43
207
51
43
207
51
43
207
51
43
207
51
43
207
51
43
207
51
43
207
51
43
207
51
43
207
51
43
207
51
43
207
51
43
207
51
43
207
51
43
207
51
43
207
51
43
207
51
43
207
51
43
207
51
43
207
51
43
207
51
43
207
51
43
207
51
43
207
51
43
207
51
43
207
51
43
207
51
43
207
51
43
207
51
43
207
51
43
207
51
43
207
51
43
207
51
43
207
51
43
207
51
43
207
51
43
207
51
43
207
51
43
207
51
43
207
51
43
207
51
43
207
51
43
207
51
43
207
51
43
207
51
43
207
51
43
207
51
43
207
51
43
207
51
43
207
51
43
207
51
43
207
51
43
207
51
43
207
51
43
207
51
43
207
51
43
207
51
43
207
51
43
207
51
43
207
51
43
207
51
43
207
51
43
207
51
43
207
51
43
207
51
43
207
51
43
207
51
43
207
51
43
207
51
43
207
51
43
207
51
43
207
51
43
207
51
43
207
51
43
207
51
43
207
51
43
207
51
43
207
51
43
207
51
43
207
51
43
207
51
43
207
51
43
207
51
43
207
51
43
207
51
43
207
51
43
207
51
43
207
51
43
207
51
43
207
51
43
207
51
43
207
51
43
207
51
43
207
51
43
207
51
43
207
51
43
207
51
43
207
51
43
207
51
43
207
51
43
207
51
43
207
51
43
207
51
43
207
51
43
207
51
43
207
51
43
207
51
43
207
51
43
207
51
43
207
51
43
207
51
43
207
51
43
207
51
43
207
51
43
207
51
43
207
51
43
207
51
43
207
51
43
207
51
43
207
51
43
207
51
43
207
51
43
207
51
43
207
51
43
207
51
43
207
51
43
207
51
43
207
51
43
207
51
43
207
51
43
207
51
43
207
51
43
207
51
43
207
51
43
207
51
43
207
51
43
207
51
43
207
51
43
207
51
43
207
51
43
207
51
43
207
51
43
207
51
43
207
51
43
207
51
43
207
51
43
207
51
43
207
51
43
207
51
43
207
51
43
207
51
43
207
51
43
207
51
43
207
51
43
207
51
43
207
51
43
207
51
43
207
51
43
207
51
43
207
51
43
207
51
43
207
51
43
207
51
43
207
51
43
207
51
43
207
51
43
207
51
43
207
51
43
207
51
43
207
51
43
207
51
43
207
51
43
207
51
43
207
51
43
207
51
43
207
51
43
207
51
43
207
51
43
207
51
43
207
51
43
207
51
43
207
51
43
207
51
43
207
51
43
207
51
43
207
51
43
207
51
43
207
51
43
207
51
43
207
51
43
207
51
43
207
51
43
207
51
43
207
51
43
207
51
43
207
51
43
207
51
43
207
51
43
207
51
43
207
51
43
207
51
43
207
51
43
207
51
43
207
51
43
207
51
43
207
51
43
207
51
43
207
51
43
207
51
43
207
51
43
207
51
43
207
51
43
207
51
43
207
51
43
207
51
43
207
51
43
207
51
43
207
51
43
207
51
43
207
51
43
207
51
43
207
51
43
207
51
43
207
51
43
207
51
43
207
51
43
207
51
43
207
51
43
207
51
43
207
51
43
207
51
43
207
51
43
207
51
43
207
51
43
207
51
43
207
51
43
207
51
43
207
51
43
207
51
43
207
51
43
207
51
43
207
51
43
207
51
43
207
51
43
207
51
43
207
51
43
207
51
43
207
51
43
207
51
43
207
51
43
207
51
43
207
51
43
207
51
43
207
51
43
207
51
43
207
51
43
207
51
43
207
51
43
207
51
43
207
51
43
207
51
43
207
51
43
207
51
43
207
51
43
207
51
43
207
51
43
207
51
43
207
51
43
207
51
43
207
51
43
207
51
43
207
51
43
207
51
43
207
51
43
207
51
43
207
51
43
207
51
43
207
51
43
207
51
43
207
51
43
207
51
43
207
51
43
207
51
43
207
51
43
207
51
43
207
51
43
207
51
43
207
51
43
207
51
43
207
51
43
207
51
43
207
51
43
207
51
43
207
51
43
207
51
43
207
51
43
207
51
43
207
51
43
207
51
43
207
51
43
207
51
43
207
51
43
207
51
43
207
51
43
207
51
43
207
51
43
207
51
43
207
51
43
207
51
43
207
51
43
207
51
43
207
51
43
207
51
43
207
51
43
207
51
43
207
51
43
207
51
43
207
51
43
207
51
43
207
51
43
207
51
43
207
51
43
207
51
43
207
51
43
207
51
43
207
51
43
207
51
43
207
51
43
207
51
43
207
51
43
207
51
43
207
51
43
207
51
43
207
51
43
207
51
43
207
51
43
207
51
43
207
51
43
207
51
43
207
51
43
207
51
43
207
51
43
207
51
43
207
51
43
207
51
43
207
51
43
207
51
43
207
51
43
207
51
43
207
51
43
207
51
43
207
51
43
207
51
43
207
51
43
207
51
43
207
51
43
207
51
43
207
51
43
207
51
43
207
51
43
207
51
43
207
51
43
207
51
43
207
51
43
207
51
43
207
51
43
207
51
43
207
51
43
207
51
43
207
51
43
207
51
43
207
51
43
207
51
43
207
51
43
207
51
43
207
51
43
207
51
43
207
51
43
207
51
43
207
51
43
207
51
43
207
51
43
207
51
43
207
51
43
207
51
43
207
51
43
207
51
43
207
51
43
207
51
43
207
51
43
207
51
43
207
51
43
207
51
43
207
51
43
207
51
43
207
51
43
207
51
43
207
51
43
207
51
43
207
51
43
207
51
43
207
51
43
207
51
43
207
51
43
207
51
43
207
51
43
207
51
43
207
51
43
207
51
43
207
51
43
207
51
43
207
51
43
207
51
43
207
51
43
207
51
43
207
51
43
207
51
43
207
51
43
207
51
43
207
51
43
207
51
43
207
51
43
207
51
43
207
51
43
207
51
43
207
51
43
207
51
43
207
51
43
207
51
43
207
51
43
207
51
43
207
51
43
207
51
43
207
51
43
207
51
43
207
51
43
207
51
43
207
51
43
207
51
43
207
51
43
207
51
43
207
51
43
207
51
43
207
51
43
207
51
43
207
51
43
207
51
43
207
51
43
207
51
43
207
51
43
207
51
43
207
51
43
207
51
43
207
51
43
207
51
43
207
51
43
207
51
43
207
51
43
207
51
43
207
51
43
207
51
43
207
51
43
207
51
43
207
51
43
207
51
43
207
51
43
207
51
43
207
51
43
207
51
43
207
51
43
207
51
43
207
51
43
207
51
43
207
51
43
207
51
43
207
51
43
207
51
43
207
51
43
207
51
43
207
51
43
207
51
43
207
51
43
207
51
43
207
51
43
207
51
43
207
51
43
207
51
43
207
51
43
207
51
43
207
51
43
207
51
43
207
51
43
207
51
43
207
51
43
207
51
43
207
51
43
207
51
43
207
51
43
207
51
43
207
51
43
207
51
43
207
51
43
207
51
43
207
51
43
207
51
43
207
51
43
207
51
43
207
51
43
207
51
43
207
51
43
207
51
43
207
51
43
207
51
43
207
51
43
207
51
43
207
51
43
207
51
43
207
51
43
207
51
43
207
51
43
207
51
43
207
51
43
207
51
43
207
51
43
207
51
43
207
51
43
207
51
43
207
51
43
207
51
43
207
51
43
207
51
43
207
51
43
207
51
43
207
51
43
207
51
43
207
51
43
207
51
43
207
51
43
207
51
43
207
51
43
207
51
43
207
51
43
207
51
43
207
51
43
207
51
43
207
51
43
207
51
43
207
51
43
207
51
43
207
51
43
207
51
43
207
51
43
207
51
43
207
51
43
207
51
43
207
51
43
207
51
43
207
51
43
207
51
43
207
51
43
207
51
43
207
51
43
207
51
43
207
51
43
207
51
43
207
51
43
207
51
43
207
51
43
207
51
43
207
51
43
207
51
43
207
51
43
207
51
43
207
51
43
207
51
43
207
51
43
207
51
43
207
51
43
207
51
43
207
51
43
207
51
43
207
51
43
207
51
43
207
51
43
207
51
43
207
51
43
207
51
43
207
51
43
207
51
43
207
51
43
207
51
43
207
51
43
207
51
43
207
51
43
207
51
43
207
51
43
207
51
43
207
51
43
207
51
43
207
51
43
207
51
43
207
51
43
207
51
43
207
51
43
207
51
43
207
51
43
207
51
43
207
51
43
207
51
43
207
51
43
207
51
43
207
51
43
207
51
43
207
51
43
207
51
43
207
51
43
207
51
43
207
51
43
207
51
43
207
51
43
207
51
43
207
51
43
207
51
43
207
51
43
207
51
43
207
51
43
207
51
43
207
51
43
207
51
43
207
51
43
207
51
43
207
51
43
207
51
43
207
51
43
207
51
43
207
51
43
207
51
43
207
51
43
207
51
43
207
51
43
207
51
43
207
51
43
207
51
43
207
51
43
207
51
43
207
51
43
207
51
43
207
51
43
207
51
43
207
51
43
207
51
43
207
51
43
207
51
43
207
51
43
207
51
43
207
51
43
207
51
43
207
51
43
207
51
43
207
51
43
207
51
43
207
51
43
207
51
43
207
51
43
207
51
43
207
51
43
207
51
43
207
51
43
207
51
43
207
51
43
207
51
43
207
51
43
207
51
43
207
51
43
207
51
43
207
51
43
207
51
43
207
51
43
207
51
43
207
51
43
207
51
43
207
51
43
207
51
43
207
51
43
207
51
43
207
51
43
207
51
43
207
51
43
207
51
43
207
51
43
207
51
43
207
51
43
207
51
43
207
51
43
207
51
43
207
51
43
207
51
43
207
51
43
207
51
43
207
51
43
207
51
43
207
51
43
207
51
43
207
51
43
207
51
43
207
51
43
207
51
43
207
51
43
207
51
43
207
51
43
207
51
43
207
51
43
207
51
43
207
51
43
207
51
43
207
51
43
207
51
43
207
51
43
207
51
43
207
51
43
207
51
43
207
51
43
207
51
43
207
51
43
207
51
43
207
51
43
207
51
43
207
51
43
207
51
43
207
51
43
207
51
43
207
51
43
207
51
43
207
51
43
207
51
43
207
51
43
207
51
43
207
51
43
207
51
43
207
51
43
207
51
43
207
51
43
207
51
43
207
51
43
207
51
43
207
51
43
207
51
43
207
51
43
207
51
43
207
51
43
207
51
43
207
51
43
207
51
43
207
51
43
207
51
43
207
51
43
207
51
43
207
51
43
207
51
43
207
51
43
207
51
43
207
51
43
207
51
43
207
51
43
207
51
43
207
51
43
207
51
43
207
51
43
207
51
43
207
51
43
207
51
43
207
51
43
207
51
43
207
51
43
207
51
43
207
51
43
207
51
43
207
51
43
207
51
43
207
51
43
207
51
43
207
51
43
207
51
43
207
51
43
207
51
43
207
51
43
207
51
43
207
51
43
207
51
43
207
51
43
207
51
43
207
51
43
207
51
43
207
51
43
207
51
43
207
51
43
207
51
43
207
51
43
207
51
43
207
51
43
207
51
43
207
51
43
207
51
43
207
51
43
207
51
43
207
51
43
207
51
43
207
51
43
207
51
43
207
51
43
207
51
43
207
51
43
207
51
43
207
51
43
207
51
43
207
51
43
207
51
43
207
51
43
207
51
43
207
51
43
207
51
43
207
51
43
207
51
43
207
51
43
207
51
43
207
51
43
207
51
43
207
51
43
207
51
43
207
51
43
207
51
43
207
51
43
207
51
43
207
51
43
207
51
43
207
51
43
207
51
43
207
51
43
207
51
43
207
51
43
207
51
43
207
51
43
207
51
43
207
51
43
207
51
43
207
51
43
207
51
43
207
51
43
207
51
43
207
51
43
207
51
43
207
51
43
207
51
43
207
51
43
207
51
43
207
51
43
207
51
43
207
51
43
207
51
43
207
51
43
207
51
43
207
51
43
207
51
43
207
51
43
207
51
43
207
51
43
207
51
43
207
51
43
207
51
43
207
51
43
207
51
43
207
51
43
207
51
43
207
51
43
207
51
43
207
51
43
207
51
43
207
51
43
207
51
43
207
51
43
207
51
43
207
51
43
207
51
43
207
51
43
207
51
43
207
51
43
207
51
43
207
51
43
207
51
43
207
51
43
207
51
43
207
51
43
207
51
43
207
51
43
207
51
43
207
51
43
207
51
43
207
51
43
207
51
43
207
51
43
207
51
43
207
51
43
207
51
43
207
51
43
207
51
43
207
51
43
207
51
43
207
51
43
207
51
43
207
51
43
207
51
43
207
51
43
207
51
43
207
51
43
207
51
43
207
51
43
207
51
43
207
51
43
207
51
43
207
51
43
207
51
43
207
51
43
207
51
43
207
51
43
207
51
43
207
51
43
207
51
43
207
51
43
207
51
43
207
51
43
207
51
43
207
51
43
207
51
43
207
51
43
207
51
43
207
51
43
207
51
43
207
51
43
207
51
43
207
51
43
207
51
43
207
51
43
207
51
43
207
51
43
207
51
43
207
51
43
207
51
43
207
51
43
207
51
43
207
51
43
207
51
43
207
51
43
207
51
43
207
51
43
207
51
43
207
51
43
207
51
43
207
51
43
207
51
43
207
51
43
207
51
43
207
51
43
207
51
43
207
51
43
207
51
43
207
51
43
207
51
43
207
51
43
207
51
43
207
51
43
207
51
43
207
51
43
207
51
43
207
51
43
207
51
43
207
51
43
207
51
43
207
51
43
207
51
43
207
51
43
207
51
43
207
51
43
207
51
43
207
51
43
207
51
43
207
51
43
207
51
43
207
51
43
207
51
43
207
51
43
207
51
43
207
51
43
207
51
43
207
51
43
207
51
43
207
51
43
207
51
43
207
51
43
207
51
43
207
51
43
207
51
43
207
51
43
207
51
43
207
51
43
207
51
43
207
51
43
207
51
43
207
51
43
207
51
43
207
51
43
207
51
43
207
51
43
207
51
43
207
51
43
207
51
43
207
51
43
207
51
43
207
51
43
207
51
43
207
51
43
207
51
43
207
51
43
207
51
43
207
51
43
207
51
43
207
51
43
207
51
43
207
51
43
207
51
43
207
51
43
207
51
43
207
51
43
207
51
43
207
51
43
207
51
43
207
51
43
207
51
43
207
51
43
207
51
43
207
51
43
207
51
43
207
51
43
207
51
43
207
51
43
207
51
43
207
51
43
207
51
43
207
51
43
207
51
43
207
51
43
207
51
43
207
51
43
207
51
43
207
51
43
207
51
43
207
51
43
207
51
43
207
51
43
207
51
43
207
51
43
207
51
43
207
51
43
207
51
43
207
51
43
207
51
43
207
51
43
207
51
43
207
51
43
207
51
43
207
51
43
207
51
43
207
51
43
207
51
43
207
51
43
207
51
43
207
51
43
207
51
43
207
51
43
207
51
43
207
51
43
207
51
43
207
51
43
207
51
43
207
51
43
207
51
43
207
51
43
207
51
43
207
51
43
207
51
43
207
51
43
207
51
43
207
51
43
207
51
43
207
51
43
207
51
43
207
51
43
207
51
43
207
51
43
207
51
43
207
51
43
207
51
43
207
51
43
207
51
43
207
51
43
207
51
43
207
51
43
207
51
43
207
51
43
207
51
43
207
51
43
207
51
43
207
51
43
207
51
43
207
51
43
207
51
43
207
51
43
207
51
43
207
51
43
207
51
43
207
51
43
207
51
43
207
51
43
207
51
43
207
51
43
207
51
43
207
51
43
207
51
43
207
51
43
207
51
43
207
51
43
207
51
43
207
51
43
207
51
43
207
51
43
207
51
43
207
51
43
207
51
43
207
51
43
207
51
43
207
51
43
207
51
43
207
51
43
207
51
43
207
51
43
207
51
43
207
51
43
207
51
43
207
51
43
207
51
43
207
51
43
207
51
43
207
51
43
207
51
43
207
51
43
207
51
43
207
51
43
207
51
43
207
51
43
207
51
43
207
51
43
207
51
43
207
51
43
207
51
43
207
51
43
207
51
43
207
51
43
207
51
43
207
51
43
207
51
43
207
51
43
207
51
43
207
51
43
207
51
43
207
51
43
207
51
43
207
51
43
207
51
43
207
51
43
207
51
43
207
51
43
207
51
43
207
51
43
207
51
43
207
51
43
207
51
43
207
51
43
207
51
43
207
51
43
207
51
43
207
51
43
207
51
43
207
51
43
207
51
43
207
51
43
207
51
43
207
51
43
207
51
43
207
51
43
207
51
43
207
51
43
207
51
43
207
51
43
207
51
43
207
51
43
207
51
43
207
51
43
207
51
43
207
51
43
207
51
43
207
51
43
207
51
43
207
51
43
207
51
43
207
51
43
207
51
43
207
51
43
207
51
43
207
51
43
207
51
43
207
51
43
207
51
43
207
51
43
207
51
43
207
51
43
207
51
43
207
51
43
207
51
43
207
51
43
207
51
43
207
51
43
207
51
43
207
51
43
207
51
43
207
51
43
207
51
43
207
51
43
207
51
43
207
51
43
207
51
43
207
51
43
207
51
43
207
51
43
207
51
43
207
51
43
207
51
43
207
51
43
207
51
43
207
51
43
207
51
43
207
51
43
207
51
43
207
51
43
207
51
43
207
51
43
207
51
43
207
51
43
207
51
43
207
51
43
207
51
43
207
51
43
207
51
43
207
51
43
207
51
43
207
51
43
207
51
43
207
51
43
207
51
43
207
51
43
207
51
43
207
51
43
207
51
43
207
51
43
207
51
43
207
51
43
207
51
43
207
51
43
207
51
43
207
51
43
207
51
43
207
51
43
207
51
43
207
51
43
207
51
43
207
51
43
207
51
43
207
51
43
207
51
43
207
51
43
207
51
43
207
51
43
207
51
43
207
51
43
207
51
43
207
51
43
207
51
43
207
51
43
207
51
43
207
51
43
207
51
43
207
51
43
207
51
43
207
51
43
207
51
43
207
51
43
207
51
43
207
51
43
207
51
43
207
51
43
207
51
43
207
51
43
207
51
43
207
51
43
207
51
43
207
51
43
207
51
43
207
51
43
207
51
43
207
51
43
207
51
43
207
51
43
207
51
43
207
51
43
207
51
43
207
51
43
207
51
43
207
51
43
207
51
43
207
51
43
207
51
43
207
51
43
207
51
43
207
51
43
207
51
43
207
51
43
207
51
43
207
51
43
207
51
43
207
51
43
207
51
43
207
51
43
207
51
43
207
51
43
207
51
43
207
51
43
207
51
43
207
51
43
207
51
43
207
51
43
207
51
43
207
51
43
207
51
43
207
51
43
207
51
43
207
51
43
207
51
43
207
51
43
207
51
43
207
51
43
207
51
43
207
51
43
207
51
43
207
51
43
207
51
43
207
51
43
207
51
43
207
51
43
207
51
43
207
51
43
207
51
43
207
51
43
207
51
43
207
51
43
207
51
43
207
51
43
207
51
43
207
51
43
207
51
43
207
51
43
207
51
43
207
51
43
207
51
43
207
51
43
207
51
43
207
51
43
207
51
43
207
51
43
207
51
43
207
51
43
207
51
43
207
51
43
207
51
43
207
51
43
207
51
43
207
51
43
207
51
43
207
51
43
207
51
43
207
51
43
207
51
43
207
51
43
207
51
43
207
51
43
207
51
43
207
51
43
207
51
43
207
51
43
207
51
43
207
51
43
207
51
43
207
51
43
207
51
43
207
51
43
207
51
43
207
51
43
207
51
43
207
51
43
207
51
43
207
51
43
207
51
43
207
51
43
207
51
43
207
51
43
207
51
43
207
51
43
207
51
43
207
51
43
207
51
43
207
51
43
207
51
43
207
51
43
207
51
43
207
51
43
207
51
43
207
51
43
207
51
43
207
51
43
207
51
43
207
51
43
207
51
43
207
51
43
207
51
43
207
51
43
207
51
43
207
51
43
207
51
43
207
51
43
207
51
43
207
51
43
207
51
43
207
51
43
207
51
43
207
51
43
207
51
43
207
51
43
207
51
43
207
51
43
207
51
43
207
51
43
207
51
43
207
51
43
207
51
43
207
51
43
207
51
43
207
51
43
207
51
43
207
51
43
207
51
43
207
51
43
207
51
43
207
51
43
207
51
43
207
51
43
207
51
43
207
51
43
207
51
43
207
51
43
207
51
43
207
51
43
207
51
43
207
51
43
207
51
43
207
51
43
207
51
43
207
51
43
207
51
43
207
51
43
207
51
43
207
51
43
207
51
43
207
51
43
207
51
43
207
51
43
207
51
43
207
51
43
207
51
43
207
51
43
207
51
43
207
51
43
207
51
43
207
51
43
207
51
43
207
51
43
207
51
43
207
51
43
207
51
43
207
51
43
207
51
43
207
51
43
207
51
43
207
51
43
207
51
43
207
51
43
207
51
43
207
51
43
207
51
43
207
51
43
207
51
43
207
51
43
207
51
43
207
51
43
207
51
43
207
51
43
207
51
43
207
51
43
207
51
43
207
51
43
207
51
43
207
51
43
207
51
43
207
51
43
207
51
43
207
51
43
207
51
43
207
51
43
207
51
43
207
51
43
207
51
43
207
51
43
207
51
43
207
51
43
207
51
43
207
51
43
207
51
43
207
51
43
207
51
43
207
51
43
207
51
43
207
51
43
207
51
43
207
51
43
207
51
43
207
51
43
207
51
43
207
51
43
207
51
43
207
51
43
207
51
43
207
51
43
207
51
43
207
51
43
207
51
43
207
51
43
207
51
43
207
51
43
207
51
43
207
51
43
207
51
43
207
51
43
207
51
43
207
51
43
207
51
43
207
51
43
207
51
43
207
51
43
207
51
43
207
51
43
207
51
43
207
51
43
207
51
43
207
51
43
207
51
43
207
51
43
207
51
43
207
51
43
207
51
43
207
51
43
207
51
43
207
51
43
207
51
43
207
51
43
207
51
43
207
51
43
207
51
43
207
51
43
207
51
43
207
51
43
207
51
43
207
51
43
207
51
43
207
51
43
207
51
43
207
51
43
207
51
43
207
51
43
207
51
43
207
51
43
207
51
43
207
51
43
207
51
43
207
51
43
207
51
43
207
51
43
207
51
43
207
51
43
207
51
43
207
51
43
207
51
43
207
51
43
207
51
43
207
51
43
207
51
43
207
51
43
207
51
43
207
51
43
207
51
43
207
51
43
207
51
43
207
51
43
207
51
43
207
51
43
207
51
43
207
51
43
207
51
43
207
51
43
207
51
43
207
51
43
207
51
43
207
51
43
207
51
43
207
51
43
207
51
43
207
51
43
207
51
43
207
51
43
207
51
43
207
51
43
207
51
43
207
51
43
207
51
43
207
51
43
207
51
43
207
51
43
207
51
43
207
51
43
207
51
43
207
51
43
207
51
43
207
51
43
207
51
43
207
51
43
207
51
43
207
51
43
207
51
43
207
51
43
207
51
43
207
51
43
207
51
43
207
51
43
207
51
43
207
51
43
207
51
43
207
51
43
207
51
43
207
51
43
207
51
43
207
51
43
207
51
43
207
51
43
207
51
43
207
51
43
207
51
43
207
51
43
207
51
43
207
51
43
207
51
43
207
51
43
207
51
43
207
51
43
207
51
43
207
51
43
207
51
43
207
51
43
207
51
43
207
51
43
207
51
43
207
51
43
207
51
43
207
51
43
207
51
43
207
51
43
207
51
43
207
51
43
207
51
43
207
51
43
207
51
43
207
51
43
207
51
43
207
51
43
207
51
43
207
51
43
207
51
43
207
51
43
207
51
43
207
51
43
207
51
43
207
51
43
207
51
43
207
51
43
207
51
43
207
51
43
207
51
43
207
51
43
207
51
43
207
51
43
207
51
43
207
51
43
207
51
43
207
51
43
207
51
43
207
51
43
207
51
43
207
51
43
207
51
43
207
51
43
207
51
43
207
51
43
207
51
43
207
51
43
207
51
43
207
51
43
207
51
43
207
51
43
207
51
43
207
51
43
207
51
43
207
51
43
207
51
43
207
51
43
207
51
43
207
51
43
207
51
43
207
51
43
207
51
43
207
51
43
207
51
43
207
51
43
207
51
43
207
51
43
207
51
43
207
51
43
207
51
43
207
51
43
207
51
43
207
51
43
207
51
43
207
51
43
207
51
43
207
51
43
207
51
43
207
51
43
207
51
43
207
51
43
207
51
43
207
51
43
207
51
43
207
51
43
207
51
43
207
51
43
207
51
43
207
51
43
207
51
43
207
51
43
207
51
43
207
51
43
207
51
43
207
51
43
207
51
43
207
51
43
207
51
43
207
51
43
207
51
43
207
51
43
207
51
43
207
51
43
207
51
43
207
51
43
207
51
43
207
51
43
207
51
43
207
51
43
207
51
43
207
51
43
207
51
43
207
51
43
207
51
43
207
51
43
207
51
43
207
51
43
207
51
43
207
51
43
207
51
43
207
51
43
207
51
43
207
51
43
207
51
43
207
51
43
207
51
43
207
51
43
207
51
43
207
51
43
207
51
43
207
51
43
207
51
43
207
51
43
207
51
43
207
51
43
207
51
43
207
51
43
207
51
43
207
51
43
207
51
43
207
51
43
207
51
43
207
51
43
207
51
43
207
51
43
207
51
43
207
51
43
207
51
43
207
51
43
207
51
43
207
51
43
207
51
43
207
51
43
207
51
43
207
51
43
207
51
43
207
51
43
207
51
43
207
51
43
207
51
43
207
51
43
207
51
43
207
51
43
207
51
43
207
51
43
207
51
43
207
51
43
207
51
43
207
51
43
207
51
43
207
51
43
207
51
43
207
51
43
207
51
43
207
51
43
207
51
43
207
51
43
207
51
43
207
51
43
207
51
43
207
51
43
207
51
43
207
51
43
207
51
43
207
51
43
207
51
43
207
51
43
207
51
43
207
51
43
207
51
43
207
51
43
207
51
43
207
51
43
207
51
43
207
51
43
207
51
43
207
51
43
207
51
43
207
51
43
207
51
43
207
51
43
207
51
43
207
51
43
207
51
43
207
51
43
207
51
43
207
51
43
207
51
43
207
51
43
207
51
43
207
51
43
207
51
43
207
51
43
207
51
43
207
51
43
207
51
43
207
51
43
207
51
43
207
51
43
207
51
43
207
51
43
207
51
43
207
51
43
207
51
43
207
51
43
207
51
43
207
51
43
207
51
43
207
51
43
207
51
43
207
51
43
207
51
43
207
51
43
207
51
43
207
51
43
207
51
43
207
51
43
207
51
43
207
51
43
207
51
43
207
51
43
207
51
43
207
51
43
207
51
43
207
51
43
207
51
43
207
51
43
207
51
43
207
51
43
207
51
43
207
51
43
207
51
43
207
51
43
207
51
43
207
51
43
207
51
43
207
51
43
207
51
43
207
51
43
207
51
43
207
51
43
207
51
43
207
51
43
207
51
43
207
51
43
207
51
43
207
51
43
207
51
43
207
51
43
207
51
43
207
51
43
207
51
43
207
51
43
207
51
43
207
51
43
207
51
43
207
51
43
207
51
43
207
51
43
207
51
43
207
51
43
207
51
43
207
51
43
207
51
43
207
51
43
207
51
43
207
51
43
207
51
43
207
51
43
207
51
43
207
51
43
207
51
43
207
51
43
207
51
43
207
51
43
207
51
43
207
51
43
207
51
43
207
51
43
207
51
43
207
51
43
207
51
43
207
51
43
207
51
43
207
51
43
207
51
43
207
51
43
207
51
43
207
51
43
207
51
43
207
51
43
207
51
43
207
51
43
207
51
43
207
51
43
207
51
43
207
51
43
207
51
43
207
51
43
207
51
43
207
51
43
207
51
43
207
51
43
207
51
43
207
51
43
207
51
43
207
51
43
207
51
43
207
51
43
207
51
43
207
51
43
207
51
43
207
51
43
207
51
43
207
51
43
207
51
43
207
51
43
207
51
43
207
51
43
207
51
43
207
51
43
207
51
43
207
51
43
207
51
43
207
51
43
207
51
43
207
51
43
207
51
43
207
51
43
207
51
43
207
51
43
207
51
43
207
51
43
207
51
43
207
51
43
207
51
43
207
51
43
207
51
43
207
51
43
207
51
43
207
51
43
207
51
43
207
51
43
207
51
43
207
51
43
207
51
43
207
51
43
207
51
43
207
51
43
207
51
43
207
51
43
207
51
43
207
51
43
207
51
43
207
51
43
207
51
43
207
51
43
207
51
43
207
51
43
207
51
43
207
51
43
207
51
43
207
51
43
207
51
43
207
51
43
207
51
43
207
51
43
207
51
43
207
51
43
207
51
43
207
51
43
207
51
43
207
51
43
207
51
43
207
51
43
207
51
43
207
51
43
207
51
43
207
51
43
207
51
43
207
51
43
207
51
43
207
51
43
207
51
43
207
51
43
207
51
43
207
51
43
207
51
43
207
51
43
207
51
43
207
51
43
207
51
43
207
51
43
207
51
43
207
51
43
207
51
43
207
51
43
207
51
43
207
51
43
207
51
43
207
51
43
207
51
43
207
51
43
207
51
43
207
51
43
207
51
43
207
51
43
207
51
43
207
51
43
207
51
43
207
51
43
207
51
43
207
51
43
207
51
43
207
51
43
207
51
43
207
51
43
207
51
43
207
51
43
207
51
43
207
51
43
207
51
43
207
51
43
207
51
43
207
51
43
207
51
43
207
51
43
207
51
43
207
51
43
207
51
43
207
51
43
207
51
43
207
51
43
207
51
43
207
51
43
207
51
43
207
51
43
207
51
43
207
51
43
207
51
43
207
51
43
207
51
43
207
51
43
207
51
43
207
51
43
207
51
43
207
51
43
207
51
43
207
51
43
207
51
43
207
51
43
207
51
43
207
51
43
207
51
43
207
51
43
207
51
43
207
51
43
207
51
43
207
51
43
207
51
43
207
51
43
207
51
43
207
51
43
207
51
43
207
51
43
207
51
43
207
51
43
207
51
43
207
51
43
207
51
43
207
51
43
207
51
43
207
51
43
207
51
43
207
51
43
207
51
43
207
51
43
207
51
43
207
51
43
207
51
43
207
51
43
207
51
43
207
51
43
207
51
43
207
51
43
207
51
43
207
51
43
207
51
43
207
51
43
207
51
43
207
51
43
207
51
43
207
51
43
207
51
43
207
51
43
207
51
43
207
51
43
207
51
43
207
51
43
207
51
43
207
51
43
207
51
43
207
51
43
207
51
43
207
51
43
207
51
43
207
51
43
207
51
43
207
51
43
207
51
43
207
51
43
207
51
43
207
51
43
207
51
43
207
51
43
207
51
43
207
51
43
207
51
43
207
51
43
207
51
43
207
51
43
207
51
43
207
51
43
207
51
43
207
51
43
207
51
43
207
51
43
207
51
43
207
51
43
207
51
43
207
51
43
207
51
43
207
51
43
207
51
43
207
51
43
207
51
43
207
51
43
207
51
43
207
51
43
207
51
43
207
51
43
207
51
43
207
51
43
207
51
43
207
51
43
207
51
43
207
51
43
207
51
43
207
51
43
207
51
43
207
51
43
207
51
43
207
51
43
207
51
43
207
51
43
207
51
43
207
51
43
207
51
43
207
51
43
207
51
43
207
51
43
207
51
43
207
51
43
207
51
43
207
51
43
207
51
43
207
51
43
207
51
43
207
51
43
207
51
43
207
51
43
207
51
43
207
51
43
207
51
43
207
51
43
207
51
43
207
51
43
207
51
43
207
51
43
207
51
43
207
51
43
207
51
43
207
51
43
207
51
43
207
51
43
207
51
43
207
51
43
207
51
43
207
51
43
207
51
43
207
51
43
207
51
43
207
51
43
207
51
43
207
51
43
207
51
43
207
51
43
207
51
43
207
51
43
207
51
43
207
51
43
207
51
43
207
51
43
207
51
43
207
51
43
207
51
43
207
51
43
207
51
43
207
51
43
207
51
43
207
51
43
207
51
43
207
51
43
207
51
43
207
51
43
207
51
43
207
51
43
207
51
43
207
51
43
207
51
43
207
51
43
207
51
43
207
51
43
207
51
43
207
51
43
207
51
43
207
51
43
207
51
43
207
51
43
207
51
43
207
51
43
207
51
43
207
51
43
207
51
43
207
51
43
207
51
43
207
51
43
207
51
43
207
51
43
207
51
43
207
51
43
207
51
43
207
51
43
207
51
43
207
51
43
207
51
43
207
51
43
207
51
43
207
51
43
207
51
43
207
51
43
207
51
43
207
51
43
207
51
43
207
51
43
207
51
43
207
51
43
207
51
43
207
51
43
207
51
43
207
51
43
207
51
43
207
51
43
207
51
43
207
51
43
207
51
43
207
51
43
207
51
43
207
51
43
207
51
43
207
51
43
207
51
43
207
51
43
207
51
43
207
51
43
207
51
43
207
51
43
207
51
43
207
51
43
207
51
43
207
51
43
207
51
43
207
51
43
207
51
43
207
51
43
207
51
43
207
51
43
207
51
43
207
51
43
207
51
43
207
51
43
207
51
43
207
51
43
207
51
43
207
51
43
207
51
43
207
51
43
207
51
43
207
51
43
207
51
43
207
51
43
207
51
43
207
51
43
207
51
43
207
51
43
207
51
43
207
51
43
207
51
43
207
51
43
207
51
43
207
51
43
207
51
43
207
51
43
207
51
43
207
51
43
207
51
43
207
51
43
207
51
43
207
51
43
207
51
43
207
51
43
207
51
43
207
51
43
207
51
43
207
51
43
207
51
43
207
51
43
207
51
43
207
51
43
207
51
43
207
51
43
207
51
43
207
51
43
207
51
43
207
51
43
207
51
43
207
51
43
207
51
43
207
51
43
207
51
43
207
51
43
207
51
43
207
51
43
207
51
43
207
51
43
207
51
43
207
51
43
207
51
43
207
51
43
207
51
43
207
51
43
207
51
43
207
51
43
207
51
43
207
51
43
207
51
43
207
51
43
207
51
43
207
51
43
207
51
43
207
51
43
207
51
43
207
51
43
207
51
43
207
51
43
207
51
43
207
51
43
207
51
43
207
51
43
207
51
43
207
51
43
207
51
43
207
51
43
207
51
43
207
51
43
207
51
43
207
51
43
207
51
43
207
51
43
207
51
43
207
51
43
207
51
43
207
51
43
207
51
43
207
51
43
207
51
43
207
51
43
207
51
43
207
51
43
207
51
43
207
51
43
207
51
43
207
51
43
207
51
43
207
51
43
207
51
43
207
51
43
207
51
43
207
51
43
207
51
43
207
51
43
207
51
43
207
51
43
207
51
43
207
51
43
207
51
43
207
51
43
207
51
43
207
51
43
207
51
43
207
51
43
207
51
43
207
51
43
207
51
43
207
51
43
207
51
43
207
51
43
207
51
43
207
51
43
207
51
43
207
51
43
207
51
43
207
51
43
207
51
43
207
51
43
207
51
43
207
51
43
207
51
43
207
51
43
207
51
43
207
51
43
207
51
43
207
51
43
207
51
43
207
51
43
207
51
43
207
51
43
207
51
43
207
51
43
207
51
43
207
51
43
207
51
43
207
51
43
207
51
43
207
51
43
207
51
43
207
51
43
207
51
43
207
51
43
207
51
43
207
51
43
207
51
43
207
51
43
207
51
43
207
51
43
207
51
43
207
51
43
207
51
43
207
51
43
207
51
43
207
51
43
207
51
43
207
51
43
207
51
43
207
51
43
207
51
43
207
51
43
207
51
43
207
51
43
207
51
43
207
51
43
207
51
43
207
51
43
207
51
43
207
51
43
207
51
43
207
51
43
207
51
43
207
51
43
207
51
43
207
51
43
207
51
43
207
51
43
207
51
43
207
51
43
207
51
43
207
51
43
207
51
43
207
51
43
207
51
43
207
51
43
207
51
43
207
51
43
207
51
43
207
51
43
207
51
43
207
51
43
207
51
43
207
51
43
207
51
43
207
51
43
207
51
43
207
51
43
207
51
43
207
51
43
207
51
43
207
51
43
207
51
43
207
51
43
207
51
43
207
51
43
207
51
43
207
51
43
207
51
43
207
51
43
207
51
43
207
51
43
207
51
43
207
51
43
207
51
43
207
51
43
207
51
43
207
51
43
207
51
43
207
51
43
207
51
43
207
51
43
207
51
43
207
51
43
207
51
43
207
51
43
207
51
43
207
51
43
207
51
43
207
51
43
207
51
43
207
51
43
207
51
43
207
51
43
207
51
43
207
51
43
207
51
43
207
51
43
207
51
43
207
51
43
207
51
43
207
51
43
207
51
43
207
51
43
207
51
43
207
51
43
207
51
43
207
51
43
207
51
43
207
51
43
207
51
43
207
51
43
207
51
43
207
51
43
207
51
43
207
51
43
207
51
43
207
51
43
207
51
43
207
51
43
207
51
43
207
51
43
207
51
43
207
51
43
207
51
43
207
51
43
207
51
43
207
51
43
207
51
43
207
51
43
207
51
43
207
51
43
207
51
43
207
51
43
207
51
43
207
51
43
207
51
43
207
51
43
207
51
43
207
51
43
207
51
43
207
51
43
207
51
43
207
51
43
207
51
43
207
51
43
207
51
43
207
51
43
207
51
43
207
51
43
207
51
43
207
51
43
207
51
43
207
51
43
207
51
43
207
51
43
207
51
43
207
51
43
207
51
43
207
51
43
207
51
43
207
51
43
207
51
43
207
51
43
207
51
43
207
51
43
207
51
43
207
51
43
207
51
43
207
51
43
207
51
43
207
51
43
207
51
43
207
51
43
207
51
43
207
51
43
207
51
43
207
51
43
207
51
43
207
51
43
207
51
43
207
51
43
207
51
43
207
51
43
207
51
43
207
51
43
207
51
43
207
51
43
207
51
43
207
51
43
207
51
43
207
51
43
207
51
43
207
51
43
207
51
43
207
51
43
207
51
43
207
51
43
207
51
43
207
51
43
207
51
43
207
51
43
207
51
43
207
51
43
207
51
43
207
51
43
207
51
43
207
51
43
207
51
43
207
51
43
207
51
43
207
51
43
207
51
43
207
51
43
207
51
43
207
51
43
207
51
43
207
51
43
207
51
43
207
51
43
207
51
43
207
51
43
207
51
43
207
51
43
207
51
43
207
51
43
207
51
43
207
51
43
207
51
43
207
51
43
207
51
43
207
51
43
207
51
43
207
51
43
207
51
43
207
51
43
207
51
43
207
51
43
207
51
43
207
51
43
207
51
43
207
51
43
207
51
43
207
51
43
207
51
43
207
51
43
207
51
43
207
51
43
207
51
43
207
51
43
207
51
43
207
51
43
207
51
43
207
51
43
207
51
43
207
51
43
207
51
43
207
51
43
207
51
43
207
51
43
207
51
43
207
51
43
207
51
43
207
51
43
207
51
43
207
51
43
207
51
43
207
51
43
207
51
43
207
51
43
207
51
43
207
51
43
207
51
43
207
51
43
207
51
43
207
51
43
207
51
43
207
51
43
207
51
43
207
51
43
207
51
43
207
51
43
207
51
43
207
51
43
207
51
43
207
51
43
207
51
43
207
51
43
207
51
43
207
51
43
207
51
43
207
51
43
207
51
43
207
51
43
207
51
43
207
51
43
207
51
43
207
51
43
207
51
43
207
51
43
207
51
43
207
51
43
207
51
43
207
51
43
207
51
43
207
51
43
207
51
43
207
51
43
207
51
43
207
51
43
207
51
43
207
51
43
207
51
43
207
51
43
207
51
43
207
51
43
207
51
43
207
51
43
207
51
43
207
51
43
207
51
43
207
51
43
207
51
43
207
51
43
207
51
43
207
51
43
207
51
43
207
51
43
207
51
43
207
51
43
207
51
43
207
51
43
207
51
43
207
51
43
207
51
43
207
51
43
207
51
43
207
51
43
207
51
43
207
51
43
207
51
43
207
51
43
207
51
43
207
51
43
207
51
43
207
51
43
207
51
43
207
51
43
207
51
43
207
51
43
207
51
43
207
51
43
207
51
43
207
51
43
207
51
43
207
51
43
207
51
43
207
51
43
207
51
43
207
51
43
207
51
43
207
51
43
207
51
43
207
51
43
207
51
43
207
51
43
207
51
43
207
51
43
207
51
43
207
51
43
207
51
43
207
51
43
207
51
43
207
51
43
207
51
43
207
51
43
207
51
43
207
51
43
207
51
43
207
51
43
207
51
43
207
51
43
207
51
43
207
51
43
207
51
43
207
51
43
207
51
43
207
51
43
207
51
43
207
51
43
207
51
43
207
51
43
207
51
43
207
51
43
207
51
43
207
51
43
207
51
43
207
51
43
207
51
43
207
51
43
207
51
43
207
51
43
207
51
43
207
51
43
207
51
43
207
51
43
207
51
43
207
51
43
207
51
43
207
51
43
207
51
43
207
51
43
207
51
43
207
51
43
207
51
43
207
51
43
207
51
43
207
51
43
207
51
43
207
51
43
207
51
43
207
51
43
207
51
43
207
51
43
207
51
43
207
51
43
207
51
43
207
51
43
207
51
43
207
51
43
207
51
43
207
51
43
207
51
43
207
51
43
207
51
43
207
51
43
207
51
43
207
51
43
207
51
43
207
51
43
207
51
43
207
51
43
207
51
43
207
51
43
207
51
43
207
51
43
207
51
43
207
51
43
207
51
43
207
51
43
207
51
43
207
51
43
207
51
43
207
51
43
207
51
43
207
51
43
207
51
43
207
51
43
207
51
43
207
51
43
207
51
43
207
51
43
207
51
43
207
51
43
207
51
43
207
51
43
207
51
43
207
51
43
207
51
43
207
51
43
207
51
43
207
51
43
207
51
43
207
51
43
207
51
43
207
51
43
207
51
43
207
51
43
207
51
43
207
51
43
207
51
43
207
51
43
207
51
43
207
51
43
207
51
43
207
51
43
207
51
43
207
51
43
207
51
43
207
51
43
207
51
43
207
51
43
207
51
43
207
51
43
207
51
43
207
51
43
207
51
43
207
51
43
207
51
43
207
51
43
207
51
43
207
51
43
207
51
43
207
51
43
207
51
43
207
51
43
207
51
43
207
51
43
207
51
43
207
51
43
207
51
43
207
51
43
207
51
43
207
51
43
207
51
43
207
51
43
207
51
43
207
51
43
207
51
43
207
51
43
207
51
43
207
51
43
207
51
43
207
51
43
207
51
43
207
51
43
207
51
43
207
51
43
207
51
43
207
51
43
207
51
43
207
51
43
207
51
43
207
51
43
207
51
43
207
51
43
207
51
43
207
51
43
207
51
43
207
51
43
207
51
43
207
51
43
207
51
43
207
51
43
207
51
43
207
51
43
207
51
43
207
51
43
207
51
43
207
51
43
207
51
43
207
51
43
207
51
43
207
51
43
207
51
43
207
51
43
207
51
43
207
51
43
207
51
43
207
51
43
207
51
43
207
51
43
207
51
43
207
51
43
207
51
43
207
51
43
207
51
43
207
51
43
207
51
43
207
51
43
207
51
43
207
51
43
207
51
43
207
51
43
207
51
43
207
51
43
207
51
43
207
51
43
207
51
43
207
51
43
207
51
43
207
51
43
207
51
43
207
51
43
207
51
43
207
51
43
207
51
43
207
51
43
207
51
43
207
51
43
207
51
43
207
51
43
207
51
43
207
51
43
207
51
43
207
51
43
207
51
43
207
51
43
207
51
43
207
51
43
207
51
43
207
51
43
207
51
43
207
51
43
207
51
43
207
51
43
207
51
43
207
51
43
207
51
43
207
51
43
207
51
43
207
51
43
207
51
43
207
51
43
207
51
43
207
51
43
207
51
43
207
51
43
207
51
43
207
51
43
207
51
43
207
51
43
207
51
43
207
51
43
207
51
43
207
51
43
207
51
43
207
51
43
207
51
43
207
51
43
207
51
43
207
51
43
207
51
43
207
51
43
207
51
43
207
51
43
207
51
43
207
51
43
207
51
43
207
51
43
207
51
43
207
51
43
207
51
43
207
51
43
207
51
43
207
51
43
207
51
43
207
51
43
207
51
43
207
51
43
207
51
43
207
51
43
207
51
43
207
51
43
207
51
43
207
51
43
207
51
43
207
51
43
207
51
43
207
51
43
207
51
43
207
51
43
207
51
43
207
51
43
207
51
43
207
51
43
207
51
43
207
51
43
207
51
43
207
51
43
207
51
43
207
51
43
207
51
43
207
51
43
207
51
43
207
51
43
207
51
43
207
51
43
207
51
43
207
51
43
207
51
43
207
51
43
207
51
43
207
51
43
207
51
43
207
51
43
207
51
43
207
51
43
207
51
43
207
51
43
207
51
43
207
51
43
207
51
43
207
51
43
207
51
43
207
51
43
207
51
43
207
51
43
207
51
43
207
51
43
207
51
43
207
51
43
207
51
43
207
51
43
207
51
43
207
51
43
207
51
43
207
51
43
207
51
43
207
51
43
207
51
43
207
51
43
207
51
43
207
51
43
207
51
43
207
51
43
207
51
43
207
51
43
207
51
43
207
51
43
207
51
43
207
51
43
207
51
43
207
51
43
207
51
43
207
51
43
207
51
43
207
51
43
207
51
43
207
51
43
207
51
43
207
51
43
207
51
43
207
51
43
207
51
43
207
51
43
207
51
43
207
51
43
207
51
43
207
51
43
207
51
43
207
51
43
207
51
43
207
51
43
207
51
43
207
51
43
207
51
43
207
51
43
207
51
43
207
51
43
207
51
43
207
51
43
207
51
43
207
51
43
207
51
43
207
51
43
207
51
43
207
51
43
207
51
43
207
51
43
207
51
43
207
51
43
207
51
43
207
51
43
207
51
43
207
51
43
207
51
43
207
51
43
207
51
43
207
51
43
207
51
43
207
51
43
207
51
43
207
51
43
207
51
43
207
51
43
207
51
43
207
51
43
207
51
43
207
51
43
207
51
43
207
51
43
207
51
43
207
51
43
207
51
43
207
51
43
207
51
43
207
51
43
207
51
43
207
51
43
207
51
43
207
51
43
207
51
43
207
51
43
207
51
43
207
51
43
207
51
43
207
51
43
207
51
43
207
51
43
207
51
43
207
51
43
207
51
43
207
51
43
207
51
43
207
51
43
207
51
43
207
51
43
207
51
43
207
51
43
207
51
43
207
51
43
207
51
43
207
51
43
207
51
43
207
51
43
207
51
43
207
51
43
207
51
43
207
51
43
207
51
43
207
51
43
207
51
43
207
51
43
207
51
43
207
51
43
207
51
43
207
51
43
207
51
43
207
51
43
207
51
43
207
51
43
207
51
43
207
51
43
207
51
43
207
51
43
207
51
43
207
51
43
207
51
43
207
51
43
207
51
43
207
51
43
207
51
43
207
51
43
207
51
43
207
51
43
207
51
43
207
51
43
207
51
43
207
51
43
207
51
43
207
51
43
207
51
43
207
51
43
207
51
43
207
51
43
207
51
43
207
51
43
207
51
43
207
51
43
207
51
43
207
51
43
207
51
43
207
51
43
207
51
43
207
51
43
207
51
43
207
51
43
207
51
43
207
51
43
207
51
43
207
51
43
207
51
43
207
51
43
207
51
43
207
51
43
207
51
43
207
51
43
207
51
43
207
51
43
207
51
43
207
51
43
207
51
43
207
51
43
207
51
43
207
51
43
207
51
43
207
51
43
207
51
43
207
51
43
207
51
43
207
51
43
207
51
43
207
51
43
207
51
43
207
51
43
207
51
43
207
51
43
207
51
43
207
51
43
207
51
43
207
51
43
207
51
43
207
51
43
207
51
43
207
51
43
207
51
43
207
51
43
207
51
43
207
51
43
207
51
43
207
51
43
207
51
43
207
51
43
207
51
43
207
51
43
207
51
43
207
51
43
207
51
43
207
51
43
207
51
43
207
51
43
207
51
43
207
51
43
207
51
43
207
51
43
207
51
43
207
51
43
207
51
43
207
51
43
207
51
43
207
51
43
207
51
43
207
51
43
207
51
43
207
51
43
207
51
43
207
51
43
207
51
43
207
51
43
207
51
43
207
51
43
207
51
43
207
51
43
207
51
43
207
51
43
207
51
43
207
51
43
207
51
43
207
51
43
207
51
43
207
51
43
207
51
43
207
51
43
207
51
43
207
51
43
207
51
43
207
51
43
207
51
43
207
51
43
207
51
43
207
51
43
207
51
43
207
51
43
207
51
43
207
51
43
207
51
43
207
51
43
207
51
43
207
51
43
207
51
43
207
51
43
207
51
43
207
51
43
207
51
43
207
51
43
207
51
43
207
51
43
207
51
43
207
51
43
207
51
43
207
51
43
207
51
43
207
51
43
207
51
43
207
51
43
207
51
43
207
51
43
207
51
43
207
51
43
207
51
43
207
51
43
207
51
43
207
51
43
207
51
43
207
51
43
207
51
43
207
51
43
207
51
43
207
51
43
207
51
43
207
51
43
207
51
43
207
51
43
207
51
43
207
51
43
207
51
43
207
51
43
207
51
43
207
51
43
207
51
43
207
51
43
207
51
43
207
51
43
207
51
43
207
51
43
207
51
43
207
51
43
207
51
43
207
51
43
207
51
43
207
51
43
207
51
43
207
51
43
207
51
43
207
51
43
207
51
43
207
51
43
207
51
43
207
51
43
207
51
43
207
51
43
207
51
43
207
51
43
207
51
43
207
51
43
207
51
43
207
51
43
207
51
43
207
51
43
207
51
43
207
51
43
207
51
43
207
51
43
207
51
43
207
51
43
207
51
43
207
51
43
207
51
43
207
51
43
207
51
43
207
51
43
207
51
43
207
51
43
207
51
43
207
51
43
207
51
43
207
51
43
207
51
43
207
51
43
207
51
43
207
51
43
207
51
43
207
51
43
207
51
43
207
51
43
207
51
43
207
51
43
207
51
43
207
51
43
207
51
43
207
51
43
207
51
43
207
51
43
207
51
43
207
51
43
207
51
43
207
51
43
207
51
43
207
51
43
207
51
43
207
51
43
207
51
43
207
51
43
207
51
43
207
51
43
207
51
43
207
51
43
207
51
43
207
51
43
207
51
43
207
51
43
207
51
43
207
51
43
207
51
43
207
51
43
207
51
43
207
51
43
207
51
43
207
51
43
207
51
43
207
51
43
207
51
43
207
51
43
207
51
43
207
51
43
207
51
43
207
51
43
207
51
43
207
51
43
207
51
43
207
51
43
207
51
43
207
51
43
207
51
43
207
51
43
207
51
43
207
51
43
207
51
43
207
51
43
207
51
43
207
51
43
207
51
43
207
51
43
207
51
43
207
51
43
207
51
43
207
51
43
207
51
43
207
51
43
207
51
43
207
51
43
207
51
43
207
51
43
207
51
43
207
51
43
207
51
43
207
51
43
207
51
43
207
51
43
207
51
43
207
51
43
207
51
43
207
51
43
207
51
43
207
51
43
207
51
43
207
51
43
207
51
43
207
51
43
207
51
43
207
51
43
207
51
43
207
51
43
207
51
43
207
51
43
207
51
43
207
51
43
207
51
43
207
51
43
207
51
43
207
51
43
207
51
43
207
51
43
207
51
43
207
51
43
207
51
43
207
51
43
207
51
43
207
51
43
207
51
43
207
51
43
207
51
43
207
51
43
207
51
43
207
51
43
207
51
43
207
51
43
207
51
43
207
51
43
207
51
43
207
51
43
207
51
43
207
51
43
207
51
43
207
51
43
207
51
43
207
51
43
207
51
43
207
51
43
207
51
43
207
51
43
207
51
43
207
51
43
207
51
43
207
51
43
207
51
43
207
51
43
207
51
43
207
51
43
207
51
43
207
51
43
207
51
43
207
51
43
207
51
43
207
51
43
207
51
43
207
51
43
207
51
43
207
51
43
207
51
43
207
51
43
207
51
43
207
51
43
207
51
43
207
51
43
207
51
43
207
51
43
207
51
43
207
51
43
207
51
43
207
51
43
207
51
43
207
51
43
207
51
43
207
51
43
207
51
43
207
51
43
207
51
43
207
51
43
207
51
43
207
51
43
207
51
43
207
51
43
207
51
43
207
51
43
207
51
43
207
51
43
207
51
43
207
51
43
207
51
43
207
51
43
207
51
43
207
51
43
207
51
43
207
51
43
207
51
43
207
51
43
207
51
43
207
51
43
207
51
43
207
51
43
207
51
43
207
51
43
207
51
43
207
51
43
207
51
43
207
51
43
207
51
43
207
51
43
207
51
43
207
51
43
207
51
43
207
51
43
207
51
43
207
51
43
207
51
43
207
51
43
207
51
43
207
51
43
207
51
43
207
51
43
207
51
43
207
51
43
207
51
43
207
51
43
207
51
43
207
51
43
207
51
43
207
51
43
207
51
43
207
51
43
207
51
43
207
51
43
207
51
43
207
51
43
207
51
43
207
51
43
207
51
43
207
51
43
207
51
43
207
51
43
207
51
43
207
51
43
207
51
43
207
51
43
207
51
43
207
51
43
207
51
43
207
51
43
207
51
43
207
51
43
207
51
43
207
51
43
207
51
43
207
51
43
207
51
43
207
51
43
207
51
43
207
51
43
207
51
43
207
51
43
207
51
43
207
51
43
207
51
43
207
51
43
207
51
43
207
51
43
207
51
43
207
51
43
207
51
43
207
51
43
207
51
43
207
51
43
207
51
43
207
51
43
207
51
43
207
51
43
207
51
43
207
51
43
207
51
43
207
51
43
207
51
43
207
51
43
207
51
43
207
51
43
207
51
43
207
51
43
207
51
43
207
51
43
207
51
43
207
51
43
207
51
43
207
51
43
207
51
43
207
51
43
207
51
43
207
51
43
207
51
43
207
51
43
207
51
43
207
51
43
207
51
43
207
51
43
207
51
43
207
51
43
207
51
43
207
51
43
207
51
43
207
51
43
207
51
43
207
51
43
207
51
43
207
51
43
207
51
43
207
51
43
207
51
43
207
51
43
207
51
43
207
51
43
207
51
43
207
51
43
207
51
43
207
51
43
207
51
43
207
51
43
207
51
43
207
51
43
207
51
43
207
51
43
207
51
43
207
51
43
207
51
43
207
51
43
207
51
43
207
51
43
207
51
43
207
51
43
207
51
43
207
51
43
207
51
43
207
51
43
207
51
43
207
51
43
207
51
43
207
51
43
207
51
43
207
51
43
207
51
43
207
51
43
207
51
43
207
51
43
207
51
43
207
51
43
207
51
43
207
51
43
207
51
43
207
51
43
207
51
43
207
51
43
207
51
43
207
51
43
207
51
43
207
51
43
207
51
43
207
51
43
207
51
43
207
51
43
207
51
43
207
51
43
207
51
43
207
51
43
207
51
43
207
51
43
207
51
43
207
51
43
207
51
43
207
51
43
207
51
43
207
51
43
207
51
43
207
51
43
207
51
43
207
51
43
207
51
43
207
51
43
207
51
43
207
51
43
207
51
43
207
51
43
207
51
43
207
51
43
207
51
43
207
51
43
207
51
43
207
51
43
207
51
43
207
51
43
207
51
43
207
51
43
207
51
43
207
51
43
207
51
43
207
51
43
207
51
43
207
51
43
207
51
43
207
51
43
207
51
43
207
51
43
207
51
43
207
51
43
207
51
43
207
51
43
207
51
43
207
51
43
207
51
43
207
51
43
207
51
43
207
51
43
207
51
43
207
51
43
207
51
43
207
51
43
207
51
43
207
51
43
207
51
43
207
51
43
207
51
43
207
51
43
207
51
43
207
51
43
207
51
43
207
51
43
207
51
43
207
51
43
207
51
43
207
51
43
207
51
43
207
51
43
207
51
43
207
51
43
207
51
43
207
51
43
207
51
43
207
51
43
207
51
43
207
51
43
207
51
43
207
51
43
207
51
43
207
51
43
207
51
43
207
51
43
207
51
43
207
51
43
207
51
43
207
51
43
207
51
43
207
51
43
207
51
43
207
51
43
207
51
43
207
51
43
207
51
43
207
51
43
207
51
43
207
51
43
207
51
43
207
51
43
207
51
43
207
51
43
207
51
43
207
51
43
207
51
43
207
51
43
207
51
43
207
51
43
207
51
43
207
51
43
207
51
43
207
51
43
207
51
43
207
51
43
207
51
43
207
51
43
207
51
43
207
51
43
207
51
43
207
51
43
207
51
43
207
51
43
207
51
43
207
51
43
207
51
43
207
51
43
207
51
43
207
51
43
207
51
43
207
51
43
207
51
43
207
51
43
207
51
43
207
51
43
207
51
43
207
51
43
207
51
43
207
51
43
207
51
43
207
51
43
207
51
43
207
51
43
207
51
43
207
51
43
207
51
43
207
51
43
207
51
43
207
51
43
207
51
43
207
51
43
207
51
43
207
51
43
207
51
43
207
51
43
207
51
43
207
51
43
207
51
43
207
51
43
207
51
43
207
51
43
207
51
43
207
51
43
207
51
43
207
51
43
207
51
43
207
51
43
207
51
43
207
51
43
207
51
43
207
51
43
207
51
43
207
51
43
207
51
43
207
51
43
207
51
43
207
51
43
207
51
43
207
51
43
207
51
43
207
51
43
207
51
43
207
51
43
207
51
43
207
51
43
207
51
43
207
51
43
207
51
43
207
51
43
207
51
43
207
51
43
207
51
43
207
51
43
207
51
43
207
51
43
207
51
43
207
51
43
207
51
43
207
51
43
207
51
43
207
51
43
207
51
43
207
51
43
207
51
43
207
51
43
207
51
43
207
51
43
207
51
43
207
51
43
207
51
43
207
51
43
207
51
43
207
51
43
207
51
43
207
51
43
207
51
43
207
51
43
207
51
43
207
51
43
207
51
43
207
51
43
207
51
43
207
51
43
207
51
43
207
51
43
207
51
43
207
51
43
207
51
43
207
51
43
207
51
43
207
51
43
207
51
43
207
51
43
207
51
43
207
51
43
207
51
43
207
51
43
207
51
43
207
51
43
207
51
43
207
51
43
207
51
43
207
51
43
207
51
43
207
51
43
207
51
43
207
51
43
207
51
43
207
51
43
207
51
43
207
51
43
207
51
43
207
51
43
207
51
43
207
51
43
207
51
43
207
51
43
207
51
43
207
51
43
207
51
43
207
51
43
207
51
43
207
51
43
207
51
43
207
51
43
207
51
43
207
51
43
207
51
43
207
51
43
207
51
43
207
51
43
207
51
43
207
51
43
207
51
43
207
51
43
207
51
43
207
51
43
207
51
43
207
51
43
207
51
43
207
51
43
207
51
43
207
51
43
207
51
43
207
51
43
207
51
43
207
51
43
207
51
43
207
51
43
207
51
43
207
51
43
207
51
43
207
51
43
207
51
43
207
51
43
207
51
43
207
51
43
207
51
43
207
51
43
207
51
43
207
51
43
207
51
43
207
51
43
207
51
43
207
51
43
207
51
43
207
51
43
207
51
43
207
51
43
207
51
43
207
51
43
207
51
43
207
51
43
207
51
43
207
51
43
207
51
43
207
51
43
207
51
43
207
51
43
207
51
43
207
51
43
207
51
43
207
51
43
207
51
43
207
51
43
207
51
43
207
51
43
207
51
43
207
51
43
207
51
43
207
51
43
207
51
43
207
51
43
207
51
43
207
51
43
207
51
43
207
51
43
207
51
43
207
51
43
207
51
43
207
51
43
207
51
43
207
51
43
207
51
43
207
51
43
207
51
43
207
51
43
207
51
43
207
51
43
207
51
43
207
51
43
207
51
43
207
51
43
207
51
43
207
51
43
207
51
43
207
51
43
207
51
43
207
51
43
207
51
43
207
51
43
207
51
43
207
51
43
207
51
43
207
51
43
207
51
43
207
51
43
207
51
43
207
51
43
207
51
43
207
51
43
207
51
43
207
51
43
207
51
43
207
51
43
207
51
43
207
51
43
207
51
43
207
51
43
207
51
43
207
51
43
207
51
43
207
51
43
207
51
43
207
51
43
207
51
43
207
51
43
207
51
43
207
51
43
207
51
43
207
51
43
207
51
43
207
51
43
207
51
43
207
51
43
207
51
43
207
51
43
207
51
43
207
51
43
207
51
43
207
51
43
207
51
43
207
51
43
207
51
43
207
51
43
207
51
43
207
51
43
207
51
43
207
51
43
207
51
43
207
51
43
207
51
43
207
51
43
207
51
43
207
51
43
207
51
43
207
51
43
207
51
43
207
51
43
207
51
43
207
51
43
207
51
43
207
51
43
207
51
43
207
51
43
207
51
43
207
51
43
207
51
43
207
51
43
207
51
43
207
51
43
207
51
43
207
51
43
207
51
43
207
51
43
207
51
43
207
51
43
207
51
43
207
51
43
207
51
43
207
51
43
207
51
43
207
51
43
207
51
43
207
51
43
207
51
43
207
51
43
207
51
43
207
51
43
207
51
43
207
51
43
207
51
43
207
51
43
207
51
43
207
51
43
207
51
43
207
51
43
207
51
43
207
51
43
207
51
43
207
51
43
207
51
43
207
51
43
207
51
43
207
51
43
207
51
43
207
51
43
207
51
43
207
51
43
207
51
43
207
51
43
207
51
43
207
51
43
207
51
43
207
51
43
207
51
43
207
51
43
207
51
43
207
51
43
207
51
43
207
51
43
207
51
43
207
51
43
207
51
43
207
51
43
207
51
43
207
51
43
207
51
43
207
51
43
207
51
43
207
51
43
207
51
43
207
51
43
207
51
43
207
51
43
207
51
43
207
51
43
207
51
43
207
51
43
207
51
43
207
51
43
207
51
43
207
51
43
207
51
43
207
51
43
207
51
43
207
51
43
207
51
43
207
51
43
207
51
43
207
51
43
207
51
43
207
51
43
207
51
43
207
51
43
207
51
43
207
51
43
207
51
43
207
51
43
207
51
43
207
51
43
207
51
43
207
51
43
207
51
43
207
51
43
207
51
43
207
51
43
207
51
43
207
51
43
207
51
43
207
51
43
207
51
43
207
51
43
207
51
43
207
51
43
207
51
43
207
51
43
207
51
43
207
51
43
207
51
43
207
51
43
207
51
43
207
51
43
207
51
43
207
51
43
207
51
43
207
51
43
207
51
43
207
51
43
207
51
43
207
51
43
207
51
43
207
51
43
207
51
43
207
51
43
207
51
43
207
51
43
207
51
43
207
51
43
207
51
43
207
51
43
207
51
43
207
51
43
207
51
43
207
51
43
207
51
43
207
51
43
207
51
43
207
51
43
207
51
43
207
51
43
207
51
43
207
51
43
207
51
43
207
51
43
207
51
43
207
51
43
207
51
43
207
51
43
207
51
43
207
51
43
207
51
43
207
51
43
207
51
43
207
51
43
207
51
43
207
51
43
207
51
43
207
51
43
207
51
43
207
51
43
207
51
43
207
51
43
207
51
43
207
51
43
207
51
43
207
51
43
207
51
43
207
51
43
207
51
43
207
51
43
207
51
43
207
51
43
207
51
43
207
51
43
207
51
43
207
51
43
207
51
43
207
51
43
207
51
43
207
51
43
207
51
43
207
51
43
207
51
43
207
51
43
207
51
43
207
51
43
207
51
43
207
51
43
207
51
43
207
51
43
207
51
43
207
51
43
207
51
43
207
51
43
207
51
43
207
51
43
207
51
43
207
51
43
207
51
43
207
51
43
207
51
43
207
51
43
207
51
43
207
51
43
207
51
43
207
51
43
207
51
43
207
51
43
207
51
43
207
51
43
207
51
43
207
51
43
207
51
43
207
51
43
207
51
43
207
51
43
207
51
43
207
51
43
207
51
43
207
51
43
207
51
43
207
51
43
207
51
43
207
51
43
207
51
43
207
51
43
207
51
43
207
51
43
207
51
43
207
51
43
207
51
43
207
51
43
207
51
43
207
51
43
207
51
43
207
51
43
207
51
43
207
51
43
207
51
43
207
51
43
207
51
43
207
51
43
207
51
43
207
51
43
207
51
43
207
51
43
207
51
43
207
51
43
207
51
43
207
51
43
207
51
43
207
51
43
207
51
43
207
51
43
207
51
43
207
51
43
207
51
43
207
51
43
207
51
43
207
51
43
207
51
43
207
51
43
207
51
43
207
51
43
207
51
43
207
51
43
207
51
43
207
51
43
207
51
43
207
51
43
207
51
43
207
51
43
207
51
43
207
51
43
207
51
43
207
51
43
207
51
43
207
51
43
207
51
43
207
51
43
207
51
43
207
51
43
207
51
43
207
51
43
207
51
43
207
51
43
207
51
43
207
51
43
207
51
43
207
51
43
207
51
43
207
51
43
207
51
43
207
51
43
207
51
43
207
51
43
207
51
43
207
51
43
207
51
43
207
51
43
207
51
43
207
51
43
207
51
43
207
51
43
207
51
43
207
51
43
207
51
43
207
51
43
207
51
43
207
51
43
207
51
43
207
51
43
207
51
43
207
51
43
207
51
43
207
51
43
207
51
43
207
51
43
207
51
43
207
51
43
207
51
43
207
51
43
207
51
43
207
51
43
207
51
43
207
51
43
207
51
43
207
51
43
207
51
43
207
51
43
207
51
43
207
51
43
207
51
43
207
51
43
207
51
43
207
51
43
207
51
43
207
51
43
207
51
43
207
51
43
207
51
43
207
51
43
207
51
43
207
51
43
207
51
43
207
51
43
207
51
43
207
51
43
207
51
43
207
51
43
207
51
43
207
51
43
207
51
43
207
51
43
207
51
43
207
51
43
207
51
43
207
51
43
207
51
43
207
51
43
207
51
43
207
51
43
207
51
43
207
51
43
207
51
43
207
51
43
207
51
43
207
51
43
207
51
43
207
51
43
207
51
43
207
51
43
207
51
43
207
51
43
207
51
43
207
51
43
207
51
43
207
51
43
207
51
43
207
51
43
207
51
43
207
51
43
207
51
43
207
51
43
207
51
43
207
51
43
207
51
43
207
51
43
207
51
43
207
51
43
207
51
43
207
51
43
207
51
43
207
51
43
207
51
43
207
51
43
207
51
43
207
51
43
207
51
43
207
51
43
207
51
43
207
51
43
207
51
43
207
51
43
207
51
43
207
51
43
207
51
43
207
51
43
207
51
43
207
51
43
207
51
43
207
51
43
207
51
43
207
51
43
207
51
43
207
51
43
207
51
43
207
51
43
207
51
43
207
51
43
207
51
43
207
51
43
207
51
43
207
51
43
207
51
43
207
51
43
207
51
43
207
51
43
207
51
43
207
51
43
207
51
43
207
51
43
207
51
43
207
51
43
207
51
43
207
51
43
207
51
43
207
51
43
207
51
43
207
51
43
207
51
43
207
51
43
207
51
43
207
51
43
207
51
43
207
51
43
207
51
43
207
51
43
207
51
43
207
51
43
207
51
43
207
51
43
207
51
43
207
51
43
207
51
43
207
51
43
207
51
43
207
51
43
207
51
43
207
51
43
207
51
43
207
51
43
207
51
43
207
51
43
207
51
43
207
51
43
207
51
43
207
51
43
207
51
43
207
51
43
207
51
43
207
51
43
207
51
43
207
51
43
207
51
43
207
51
43
207
51
43
207
51
43
207
51
43
207
51
43
207
51
43
207
51
43
207
51
43
207
51
43
207
51
43
207
51
43
207
51
43
207
51
43
207
51
43
207
51
43
207
51
43
207
51
43
207
51
43
207
51
43
207
51
43
207
51
43
207
51
43
207
51
43
207
51
43
207
51
43
207
51
43
207
51
43
207
51
43
207
51
43
207
51
43
207
51
43
207
51
43
207
51
43
207
51
43
207
51
43
207
51
43
207
51
43
207
51
43
207
51
43
207
51
43
207
51
43
207
51
43
207
51
43
207
51
43
207
51
43
207
51
43
207
51
43
207
51
43
207
51
43
207
51
43
207
51
43
207
51
43
207
51
43
207
51
43
207
51
43
207
51
43
207
51
43
207
51
43
207
51
43
207
51
43
207
51
43
207
51
43
207
51
43
207
51
43
207
51
43
207
51
43
207
51
43
207
51
43
207
51
43
207
51
43
207
51
43
207
51
43
207
51
43
207
51
43
207
51
43
207
51
43
207
51
43
207
51
43
207
51
43
207
51
43
207
51
43
207
51
43
207
51
43
207
51
43
207
51
43
207
51
43
207
51
43
207
51
43
207
51
43
207
51
43
207
51
43
207
51
43
207
51
43
207
51
43
207
51
43
207
51
43
207
51
43
207
51
43
207
51
43
207
51
43
207
51
43
207
51
43
207
51
43
207
51
43
207
51
43
207
51
43
207
51
43
207
51
43
207
51
43
207
51
43
207
51
43
207
51
43
207
51
43
207
51
43
207
51
43
207
51
43
207
51
43
207
51
43
207
51
43
207
51
43
207
51
43
207
51
43
207
51
43
207
51
43
207
51
43
207
51
43
207
51
43
207
51
43
207
51
43
207
51
43
207
51
43
207
51
43
207
51
43
207
51
43
207
51
43
207
51
43
207
51
43
207
51
43
207
51
43
207
51
43
207
51
43
207
51
43
207
51
43
207
51
43
207
51
43
207
51
43
207
51
43
207
51
43
207
51
43
207
51
43
207
51
43
207
51
43
207
51
43
207
51
43
207
51
43
207
51
43
207
51
43
207
51
43
207
51
43
207
51
43
207
51
43
207
51
43
207
51
43
207
51
43
207
51
43
207
51
43
207
51
43
207
51
43
207
51
43
207
51
43
207
51
43
207
51
43
207
51
43
207
51
43
207
51
43
207
51
43
207
51
43
207
51
43
207
51
43
207
51
43
207
51
43
207
51
43
207
51
43
207
51
43
207
51
43
207
51
43
207
51
43
207
51
43
207
51
43
207
51
43
207
51
43
207
51
43
207
51
43
207
51
43
207
51
43
207
51
43
207
51
43
207
51
43
207
51
43
207
51
43
207
51
43
207
51
43
207
51
43
207
51
43
207
51
43
207
51
43
207
51
43
207
51
43
207
51
43
207
51
43
207
51
43
207
51
43
207
51
43
207
51
43
207
51
43
207
51
43
207
51
43
207
51
43
207
51
43
207
51
43
207
51
43
207
51
43
207
51
43
207
51
43
207
51
43
207
51
43
207
51
43
207
51
43
207
51
43
207
51
43
207
51
43
207
51
43
207
51
43
207
51
43
207
51
43
207
51
43
207
51
43
207
51
43
207
51
43
207
51
43
207
51
43
207
51
43
207
51
43
207
51
43
207
51
43
207
51
43
207
51
43
207
51
43
207
51
43
207
51
43
207
51
43
207
51
43
207
51
43
207
51
43
207
51
43
207
51
43
207
51
43
207
51
43
207
51
43
207
51
43
207
51
43
207
51
43
207
51
43
207
51
43
207
51
43
207
51
43
207
51
43
207
51
43
207
51
43
207
51
43
207
51
43
207
51
43
207
51
43
207
51
43
207
51
43
207
51
43
207
51
43
207
51
43
207
51
43
207
51
43
207
51
43
207
51
43
207
51
43
207
51
43
207
51
43
207
51
43
207
51
43
207
51
43
207
51
43
207
51
43
207
51
43
207
51
43
207
51
43
207
51
43
207
51
43
207
51
43
207
51
43
207
51
43
207
51
43
207
51
43
207
51
43
207
51
43
207
51
43
207
51
43
207
51
43
207
51
43
207
51
43
207
51
43
207
51
43
207
51
43
207
51
43
207
51
43
207
51
43
207
51
43
207
51
43
207
51
43
207
51
43
207
51
43
207
51
43
207
51
43
207
51
43
207
51
43
207
51
43
207
51
43
207
51
43
207
51
43
207
51
43
207
51
43
207
51
43
207
51
43
207
51
43
207
51
43
207
51
43
207
51
43
207
51
43
207
51
43
207
51
43
207
51
43
207
51
43
207
51
43
207
51
43
207
51
43
207
51
43
207
51
43
207
51
43
207
51
43
207
51
43
207
51
43
207
51
43
207
51
43
207
51
43
207
51
43
207
51
43
207
51
43
207
51
43
207
51
43
207
51
43
207
51
43
207
51
43
207
51
43
207
51
43
207
51
43
207
51
43
207
51
43
207
51
43
207
51
43
207
51
43
207
51
43
207
51
43
207
51
43
207
51
43
207
51
43
207
51
43
207
51
43
207
51
43
207
51
43
207
51
43
207
51
43
207
51
43
207
51
43
207
51
43
207
51
43
207
51
43
207
51
43
207
51
43
207
51
43
207
51
43
207
51
43
207
51
43
207
51
43
207
51
43
207
51
43
207
51
43
207
51
43
207
51
43
207
51
43
207
51
43
207
51
43
207
51
43
207
51
43
207
51
43
207
51
43
207
51
43
207
51
43
207
51
43
207
51
43
207
51
43
207
51
43
207
51
43
207
51
43
207
51
43
207
51
43
207
51
43
207
51
43
207
51
43
207
51
43
207
51
43
207
51
43
207
51
43
207
51
43
207
51
43
207
51
43
207
51
43
207
51
43
207
51
43
207
51
43
207
51
43
207
51
43
207
51
43
207
51
43
207
51
43
207
51
43
207
51
43
207
51
43
207
51
43
207
51
43
207
51
43
207
51
43
207
51
43
207
51
43
207
51
43
207
51
43
207
51
43
207
51
43
207
51
43
207
51
43
207
51
43
207
51
43
207
51
43
207
51
43
207
51
43
207
51
43
207
51
43
207
51
43
207
51
43
207
51
43
207
51
43
207
51
43
207
51
43
207
51
43
207
51
43
207
51
43
207
51
43
207
51
43
207
51
43
207
51
43
207
51
43
207
51
43
207
51
43
207
51
43
207
51
43
207
51
43
207
51
43
207
51
43
207
51
43
207
51
43
207
51
43
207
51
43
207
51
43
207
51
43
207
51
43
207
51
43
207
51
43
207
51
43
207
51
43
207
51
43
207
51
43
207
51
43
207
51
43
207
51
43
207
51
43
207
51
43
207
51
43
207
51
43
207
51
43
207
51
43
207
51
43
207
51
43
207
51
43
207
51
43
207
51
43
207
51
43
207
51
43
207
51
43
207
51
43
207
51
43
207
51
43
207
51
43
207
51
43
207
51
43
207
51
43
207
51
43
207
51
43
207
51
43
207
51
43
207
51
43
207
51
43
207
51
43
207
51
43
207
51
43
207
51
43
207
51
43
207
51
43
207
51
43
207
51
43
207
51
43
207
51
43
207
51
43
207
51
43
207
51
43
207
51
43
207
51
43
207
51
43
207
51
43
207
51
43
207
51
43
207
51
43
207
51
43
207
51
43
207
51
43
207
51
43
207
51
43
207
51
43
207
51
43
207
51
43
207
51
43
207
51
43
207
51
43
207
51
43
207
51
43
207
51
43
207
51
43
207
51
43
207
51
43
207
51
43
207
51
43
207
51
43
207
51
43
207
51
43
207
51
43
207
51
43
207
51
43
207
51
43
207
51
43
207
51
43
207
51
43
207
51
43
207
51
43
207
51
43
207
51
43
207
51
43
207
51
43
207
51
43
207
51
43
207
51
43
207
51
43
207
51
43
207
51
43
207
51
43
207
51
43
207
51
43
207
51
43
207
51
43
207
51
43
207
51
43
207
51
43
207
51
43
207
51
43
207
51
43
207
51
43
207
51
43
207
51
43
207
51
43
207
51
43
207
51
43
207
51
43
207
51
43
207
51
43
207
51
43
207
51
43
207
51
43
207
51
43
207
51
43
207
51
43
207
51
43
207
51
43
207
51
43
207
51
43
207
51
43
207
51
43
207
51
43
207
51
43
207
51
43
207
51
43
207
51
43
207
51
43
207
51
43
207
51
43
207
51
43
207
51
43
207
51
43
207
51
43
207
51
43
207
51
43
207
51
43
207
51
43
207
51
43
207
51
43
207
51
43
207
51
43
207
51
43
207
51
43
207
51
43
207
51
43
207
51
43
207
51
43
207
51
43
207
51
43
207
51
43
207
51
43
207
51
43
207
51
43
207
51
43
207
51
43
207
51
43
207
51
43
207
51
43
207
51
43
207
51
43
207
51
43
207
51
43
207
51
43
207
51
43
207
51
43
207
51
43
207
51
43
207
51
43
207
51
43
207
51
43
207
51
43
207
51
43
207
51
43
207
51
43
207
51
43
207
51
43
207
51
43
207
51
43
207
51
43
207
51
43
207
51
43
207
51
43
207
51
43
207
51
43
207
51
43
207
51
43
207
51
43
207
51
43
207
51
43
207
51
43
207
51
43
207
51
43
207
51
43
207
51
43
207
51
43
207
51
43
207
51
43
207
51
43
207
51
43
207
51
43
207
51
43
207
51
43
207
51
43
207
51
43
207
51
43
207
51
43
207
51
43
207
51
43
207
51
43
207
51
43
207
51
43
207
51
43
207
51
43
207
51
43
207
51
43
207
51
43
207
51
43
207
51
43
207
51
43
207
51
43
207
51
43
207
51
43
207
51
43
207
51
43
207
51
43
207
51
43
207
51
43
207
51
43
207
51
43
207
51
43
207
51
43
207
51
43
207
51
43
207
51
43
207
51
43
207
51
43
207
51
43
207
51
43
207
51
43
207
51
43
207
51
43
207
51
43
207
51
43
207
51
43
207
51
43
207
51
43
207
51
43
207
51
43
207
51
43
207
51
43
207
51
43
207
51
43
207
51
43
207
51
43
207
51
43
207
51
43
207
51
43
207
51
43
207
51
43
207
51
43
207
51
43
207
51
43
207
51
43
207
51
43
207
51
43
207
51
43
207
51
43
207
51
43
207
51
43
207
51
43
207
51
43
207
51
43
207
51
43
207
51
43
207
51
43
207
51
43
207
51
43
207
51
43
207
51
43
207
51
43
207
51
43
207
51
43
207
51
43
207
51
43
207
51
43
207
51
43
207
51
43
207
51
43
207
51
43
207
51
43
207
51
43
207
51
43
207
51
43
207
51
43
207
51
43
207
51
43
207
51
43
207
51
43
207
51
43
207
51
43
207
51
43
207
51
43
207
51
43
207
51
43
207
51
43
207
51
43
207
51
43
207
51
43
207
51
43
207
51
43
207
51
43
207
51
43
207
51
43
207
51
43
207
51
43
207
51
43
207
51
43
207
51
43
207
51
43
207
51
43
207
51
43
207
51
43
207
51
43
207
51
43
207
51
43
207
51
43
207
51
43
207
51
43
207
51
43
207
51
43
207
51
43
207
51
43
207
51
43
207
51
43
207
51
43
207
51
43
207
51
43
207
51
43
207
51
43
207
51
43
207
51
43
207
51
43
207
51
43
207
51
43
207
51
43
207
51
43
207
51
43
207
51
43
207
51
43
207
51
43
207
51
43
207
51
43
207
51
43
207
51
43
207
51
43
207
51
43
207
51
43
207
51
43
207
51
43
207
51
43
207
51
43
207
51
43
207
51
43
207
51
43
207
51
43
207
51
43
207
51
43
207
51
43
207
51
43
207
51
43
207
51
43
207
51
43
207
51
43
207
51
43
207
51
43
207
51
43
207
51
43
207
51
43
207
51
43
207
51
43
207
51
43
207
51
43
207
51
43
207
51
43
207
51
43
207
51
43
207
51
43
207
51
43
207
51
43
207
51
43
207
51
43
207
51
43
207
51
43
207
51
43
207
51
43
207
51
43
207
51
43
207
51
43
207
51
43
207
51
43
207
51
43
207
51
43
207
51
43
207
51
43
207
51
43
207
51
43
207
51
43
207
51
43
207
51
43
207
51
43
207
51
43
207
51
43
207
51
43
207
51
43
207
51
43
207
51
43
207
51
43
207
51
43
207
51
43
207
51
43
207
51
43
207
51
43
207
51
43
207
51
43
207
51
43
207
51
43
207
51
43
207
51
43
207
51
43
207
51
43
207
51
43
207
51
43
207
51
43
207
51
43
207
51
43
207
51
43
207
51
43
207
51
43
207
51
43
207
51
43
207
51
43
207
51
43
207
51
43
207
51
43
207
51
43
207
51
43
207
51
43
207
51
43
207
51
43
207
51
43
207
51
43
207
51
43
207
51
43
207
51
43
207
51
43
207
51
43
207
51
43
207
51
43
207
51
43
207
51
43
207
51
43
207
51
43
207
51
43
207
51
43
207
51
43
207
51
43
207
51
43
207
51
43
207
51
43
207
51
43
207
51
43
207
51
43
207
51
43
207
51
43
207
51
43
207
51
43
207
51
43
207
51
43
207
51
43
207
51
43
207
51
43
207
51
43
207
51
43
207
51
43
207
51
43
207
51
43
207
51
43
207
51
43
207
51
43
207
51
43
207
51
43
207
51
43
207
51
43
207
51
43
207
51
43
207
51
43
207
51
43
207
51
43
207
51
43
207
51
43
207
51
43
207
51
43
207
51
43
207
51
43
207
51
43
207
51
43
207
51
43
207
51
43
207
51
43
207
51
43
207
51
43
207
51
43
207
51
43
207
51
43
207
51
43
207
51
43
207
51
43
207
51
43
207
51
43
207
51
43
207
51
43
207
51
43
207
51
43
207
51
43
207
51
43
207
51
43
207
51
43
207
51
43
207
51
43
207
51
43
207
51
43
207
51
43
207
51
43
207
51
43
207
51
43
207
51
43
207
51
43
207
51
43
207
51
43
207
51
43
207
51
43
207
51
43
207
51
43
207
51
43
207
51
43
207
51
43
207
51
43
207
51
43
207
51
43
207
51
43
207
51
43
207
51
43
207
51
43
207
51
43
207
51
43
207
51
43
207
51
43
207
51
43
207
51
43
207
51
43
207
51
43
207
51
43
207
51
43
207
51
43
207
51
43
207
51
43
207
51
43
207
51
43
207
51
43
207
51
43
207
51
43
207
51
43
207
51
43
207
51
43
207
51
43
207
51
43
207
51
43
207
51
43
207
51
43
207
51
43
207
51
43
207
51
43
207
51
43
207
51
43
207
51
43
207
51
43
207
51
43
207
51
43
207
51
43
207
51
43
207
51
43
207
51
43
207
51
43
207
51
43
207
51
43
207
51
43
207
51
43
207
51
43
207
51
43
207
51
43
207
51
43
207
51
43
207
51
43
207
51
43
207
51
43
207
51
43
207
51
43
207
51
43
207
51
43
207
51
43
207
51
43
207
51
43
207
51
43
207
51
43
207
51
43
207
51
43
207
51
43
207
51
43
207
51
43
207
51
43
207
51
43
207
51
43
207
51
43
207
51
43
207
51
43
207
51
43
207
51
43
207
51
43
207
51
43
207
51
43
207
51
43
207
51
43
207
51
43
207
51
43
207
51
43
207
51
43
207
51
43
207
51
43
207
51
43
207
51
43
207
51
43
207
51
43
207
51
43
207
51
43
207
51
43
207
51
43
207
51
43
207
51
43
207
51
43
207
51
43
207
51
43
207
51
43
207
51
43
207
51
43
207
51
43
207
51
43
207
51
43
207
51
43
207
51
43
207
51
43
207
51
43
207
51
43
207
51
43
207
51
43
207
51
43
207
51
43
207
51
43
207
51
43
207
51
43
207
51
43
207
51
43
207
51
43
207
51
43
207
51
43
207
51
43
207
51
43
207
51
43
207
51
43
207
51
43
207
51
43
207
51
43
207
51
43
207
51
43
207
51
43
207
51
43
207
51
43
207
51
43
207
51
43
207
51
43
207
51
43
207
51
43
207
51
43
207
51
43
207
51
43
207
51
43
207
51
43
207
51
43
207
51
43
207
51
43
207
51
43
207
51
43
207
51
43
207
51
43
207
51
43
207
51
43
207
51
43
207
51
43
207
51
43
207
51
43
207
51
43
207
51
43
207
51
43
207
51
43
207
51
43
207
51
43
207
51
43
207
51
43
207
51
43
207
51
43
207
51
43
207
51
43
207
51
43
207
51
43
207
51
43
207
51
43
207
51
43
207
51
43
207
51
43
207
51
43
207
51
43
207
51
43
207
51
43
207
51
43
207
51
43
207
51
43
207
51
43
207
51
43
207
51
43
207
51
43
207
51
43
207
51
43
207
51
43
207
51
43
207
51
43
207
51
43
207
51
43
207
51
43
207
51
43
207
51
43
207
51
43
207
51
43
207
51
43
207
51
43
207
51
43
207
51
43
207
51
43
207
51
43
207
51
43
207
51
43
207
51
43
207
51
43
207
51
43
207
51
43
207
51
43
207
51
43
207
51
43
207
51
43
207
51
43
207
51
43
207
51
43
207
51
43
207
51
43
207
51
43
207
51
43
207
51
43
207
51
43
207
51
43
207
51
43
207
51
43
207
51
43
207
51
43
207
51
43
207
51
43
207
51
43
207
51
43
207
51
43
207
51
43
207
51
43
207
51
43
207
51
43
207
51
43
207
51
43
207
51
43
207
51
43
207
51
43
207
51
43
207
51
43
207
51
43
207
51
43
207
51
43
207
51
43
207
51
43
207
51
43
207
51
43
207
51
43
207
51
43
207
51
43
207
51
43
207
51
43
207
51
43
207
51
43
207
51
43
207
51
43
207
51
43
207
51
43
207
51
43
207
51
43
207
51
43
207
51
43
207
51
43
207
51
43
207
51
43
207
51
43
207
51
43
207
51
43
207
51
43
207
51
43
207
51
43
207
51
43
207
51
43
207
51
43
207
51
43
207
51
43
207
51
43
207
51
43
207
51
43
207
51
43
207
51
43
207
51
43
207
51
43
207
51
43
207
51
43
207
51
43
207
51
43
207
51
43
207
51
43
207
51
43
207
51
43
207
51
43
207
51
43
207
51
43
207
51
43
207
51
43
207
51
43
207
51
43
207
51
43
207
51
43
207
51
43
207
51
43
207
51
43
207
51
43
207
51
43
207
51
43
207
51
43
207
51
43
207
51
43
207
51
43
207
51
43
207
51
43
207
51
43
207
51
43
207
51
43
207
51
43
207
51
43
207
51
43
207
51
43
207
51
43
207
51
43
207
51
43
207
51
43
207
51
43
207
51
43
207
51
43
207
51
43
207
51
43
207
51
43
207
51
43
207
51
43
207
51
43
207
51
43
207
51
43
207
51
43
207
51
43
207
51
43
207
51
43
207
51
43
207
51
43
207
51
43
207
51
43
207
51
43
207
51
43
207
51
43
207
51
43
207
51
43
207
51
43
207
51
43
207
51
43
207
51
43
207
51
43
207
51
43
207
51
43
207
51
43
207
51
43
207
51
43
207
51
43
207
51
43
207
51
43
207
51
43
207
51
43
207
51
43
207
51
43
207
51
43
207
51
43
207
51
43
207
51
43
207
51
43
207
51
43
207
51
43
207
51
43
207
51
43
207
51
43
207
51
43
207
51
43
207
51
43
207
51
43
207
51
43
207
51
43
207
51
43
207
51
43
207
51
43
207
51
43
207
51
43
207
51
43
207
51
43
207
51
43
207
51
43
207
51
43
207
51
43
207
51
43
207
51
43
207
51
43
207
51
43
207
51
43
207
51
43
207
51
43
207
51
43
207
51
43
207
51
43
207
51
43
207
51
43
207
51
43
207
51
43
207
51
43
207
51
43
207
51
43
207
51
43
207
51
43
207
51
43
207
51
43
207
51
43
207
51
43
207
51
43
207
51
43
207
51
43
207
51
43
207
51
43
207
51
43
207
51
43
207
51
43
207
51
43
207
51
43
207
51
43
207
51
43
207
51
43
207
51
43
207
51
43
207
51
43
207
51
43
207
51
43
207
51
43
207
51
43
207
51
43
207
51
43
207
51
43
207
51
43
207
51
43
207
51
43
207
51
43
207
51
43
207
51
43
207
51
43
207
51
43
207
51
43
207
51
43
207
51
43
207
51
43
207
51
43
207
51
43
207
51
43
207
51
43
207
51
43
207
51
43
207
51
43
207
51
43
207
51
43
207
51
43
207
51
43
207
51
43
207
51
43
207
51
43
207
51
43
207
51
43
207
51
43
207
51
43
207
51
43
207
51
43
207
51
43
207
51
43
207
51
43
207
51
43
207
51
43
207
51
43
207
51
43
207
51
43
207
51
43
207
51
43
207
51
43
207
51
43
207
51
43
207
51
43
207
51
43
207
51
43
207
51
43
207
51
43
207
51
43
207
51
43
207
51
43
207
51
43
207
51
43
207
51
43
207
51
43
207
51
43
207
51
43
207
51
43
207
51
43
207
51
43
207
51
43
207
51
43
207
51
43
207
51
43
207
51
43
207
51
43
207
51
43
207
51
43
207
51
43
207
51
43
207
51
43
207
51
43
207
51
43
207
51
43
207
51
43
207
51
43
207
51
43
207
51
43
207
51
43
207
51
43
207
51
43
207
51
43
207
51
43
207
51
43
207
51
43
207
51
43
207
51
43
207
51
43
207
51
43
207
51
43
207
51
43
207
51
43
207
51
43
207
51
43
207
51
43
207
51
43
207
51
43
207
51
43
207
51
43
207
51
43
207
51
43
207
51
43
207
51
43
207
51
43
207
51
43
207
51
43
207
51
43
207
51
43
207
51
43
207
51
43
207
51
43
207
51
43
207
51
43
207
51
43
207
51
43
207
51
43
207
51
43
207
51
43
207
51
43
207
51
43
207
51
43
207
51
43
207
51
43
207
51
43
207
51
43
207
51
43
207
51
43
207
51
43
207
51
43
207
51
43
207
51
43
207
51
43
207
51
43
207
51
43
207
51
43
207
51
43
207
51
43
207
51
43
207
51
43
207
51
43
207
51
43
207
51
43
207
51
43
207
51
43
207
51
43
207
51
43
207
51
43
207
51
43
207
51
43
207
51
43
207
51
43
207
51
43
207
51
43
207
51
43
207
51
43
207
51
43
207
51
43
207
51
43
207
51
43
207
51
43
207
51
43
207
51
43
207
51
43
207
51
43
207
51
43
207
51
43
207
51
43
207
51
43
207
51
43
207
51
43
207
51
43
207
51
43
207
51
43
207
51
43
207
51
43
207
51
43
207
51
43
207
51
43
207
51
43
207
51
43
207
51
43
207
51
43
207
51
43
207
51
43
207
51
43
207
51
43
207
51
43
207
51
43
207
51
43
207
51
43
207
51
43
207
51
43
207
51
43
207
51
43
207
51
43
207
51
43
207
51
43
207
51
43
207
51
43
207
51
43
207
51
43
207
51
43
207
51
43
207
51
43
207
51
43
207
51
43
207
51
43
207
51
43
207
51
43
207
51
43
207
51
43
207
51
43
207
51
43
207
51
43
207
51
43
207
51
43
207
51
43
207
51
43
207
51
43
207
51
43
207
51
43
207
51
43
207
51
43
207
51
43
207
51
43
207
51
43
207
51
43
207
51
43
207
51
43
207
51
43
207
51
43
207
51
43
207
51
43
207
51
43
207
51
43
207
51
43
207
51
43
207
51
43
207
51
43
207
51
43
207
51
43
207
51
43
207
51
43
207
51
43
207
51
43
207
51
43
207
51
43
207
51
43
207
51
43
207
51
43
207
51
43
207
51
43
207
51
43
207
51
43
207
51
43
207
51
43
207
51
43
207
51
43
207
51
43
207
51
43
207
51
43
207
51
43
207
51
43
207
51
43
207
51
43
207
51
43
207
51
43
207
51
43
207
51
43
207
51
43
207
51
43
207
51
43
207
51
43
207
51
43
207
51
43
207
51
43
207
51
43
207
51
43
207
51
43
207
51
43
207
51
43
207
51
43
207
51
43
207
51
43
207
51
43
207
51
43
207
51
43
207
51
43
207
51
43
207
51
43
207
51
43
207
51
43
207
51
43
207
51
43
207
51
43
207
51
43
207
51
43
207
51
43
207
51
43
207
51
43
207
51
43
207
51
43
207
51
43
207
51
43
207
51
43
207
51
43
207
51
43
207
51
43
207
51
43
207
51
43
207
51
43
207
51
43
207
51
43
207
51
43
207
51
43
207
51
43
207
51
43
207
51
43
207
51
43
207
51
43
207
51
43
207
51
43
207
51
43
207
51
43
207
51
43
207
51
43
207
51
43
207
51
43
207
51
43
207
51
43
207
51
43
207
51
43
207
51
43
207
51
43
207
51
43
207
51
43
207
51
43
207
51
43
207
51
43
207
51
43
207
51
43
207
51
43
207
51
43
207
51
43
207
51
43
207
51
43
207
51
43
207
51
43
207
51
43
207
51
43
207
51
43
207
51
43
207
51
43
207
51
43
207
51
43
207
51
43
207
51
43
207
51
43
207
51
43
207
51
43
207
51
43
207
51
43
207
51
43
207
51
43
207
51
43
207
51
43
207
51
43
207
51
43
207
51
43
207
51
43
207
51
43
207
51
43
207
51
43
207
51
43
207
51
43
207
51
43
207
51
43
207
51
43
207
51
43
207
51
43
207
51
43
207
51
43
207
51
43
207
51
43
207
51
43
207
51
43
207
51
43
207
51
43
207
51
43
207
51
43
207
51
43
207
51
43
207
51
43
207
51
43
207
51
43
207
51
43
207
51
43
207
51
43
207
51
43
207
51
43
207
51
43
207
51
43
207
51
43
207
51
43
207
51
43
207
51
43
207
51
43
207
51
43
207
51
43
207
51
43
207
51
43
207
51
43
207
51
43
207
51
43
207
51
43
207
51
43
207
51
43
207
51
43
207
51
43
207
51
43
207
51
43
207
51
43
207
51
43
207
51
43
207
51
43
207
51
43
207
51
43
207
51
43
207
51
43
207
51
43
207
51
43
207
51
43
207
51
43
207
51
43
207
51
43
207
51
43
207
51
43
207
51
43
207
51
43
207
51
43
207
51
43
207
51
43
207
51
43
207
51
43
207
51
43
207
51
43
207
51
43
207
51
43
207
51
43
207
51
43
207
51
43
207
51
43
207
51
43
207
51
43
207
51
43
207
51
43
207
51
43
207
51
43
207
51
43
207
51
43
207
51
43
207
51
43
207
51
43
207
51
43
207
51
43
207
51
43
207
51
43
207
51
43
207
51
43
207
51
43
207
51
43
207
51
43
207
51
43
207
51
43
207
51
43
207
51
43
207
51
43
207
51
43
207
51
43
207
51
43
207
51
43
207
51
43
207
51
43
207
51
43
207
51
43
207
51
43
207
51
43
207
51
43
207
51
43
207
51
43
207
51
43
207
51
43
207
51
43
207
51
43
207
51
43
207
51
43
207
51
43
207
51
43
207
51
43
207
51
43
207
51
43
207
51
43
207
51
43
207
51
43
207
51
43
207
51
43
207
51
43
207
51
43
207
51
43
207
51
43
207
51
43
207
51
43
207
51
43
207
51
43
207
51
43
207
51
43
207
51
43
207
51
43
207
51
43
207
51
43
207
51
43
207
51
43
207
51
43
207
51
43
207
51
43
207
51
43
207
51
43
207
51
43
207
51
43
207
51
43
207
51
43
207
51
43
207
51
43
207
51
43
207
51
43
207
51
43
207
51
43
207
51
43
207
51
43
207
51
43
207
51
43
207
51
43
207
51
43
207
51
43
207
51
43
207
51
43
207
51
43
207
51
43
207
51
43
207
51
43
207
51
43
207
51
43
207
51
43
207
51
43
207
51
43
207
51
43
207
51
43
207
51
43
207
51
43
207
51
43
207
51
43
207
51
43
207
51
43
207
51
43
207
51
43
207
51
43
207
51
43
207
51
43
207
51
43
207
51
43
207
51
43
207
51
43
207
51
43
207
51
43
207
51
43
207
51
43
207
51
43
207
51
43
207
51
43
207
51
43
207
51
43
207
51
43
207
51
43
207
51
43
207
51
43
207
51
43
207
51
43
207
51
43
207
51
43
207
51
43
207
51
43
207
51
43
207
51
43
207
51
43
207
51
43
207
51
43
207
51
43
207
51
43
207
51
43
207
51
43
207
51
43
207
51
43
207
51
43
207
51
43
207
51
43
207
51
43
207
51
43
207
51
43
207
51
43
207
51
43
207
51
43
207
51
43
207
51
43
207
51
43
207
51
43
207
51
43
207
51
43
207
51
43
207
51
43
207
51
43
207
51
43
207
51
43
207
51
43
207
51
43
207
51
43
207
51
43
207
51
43
207
51
43
207
51
43
207
51
43
207
51
43
207
51
43
207
51
43
207
51
43
207
51
43
207
51
43
207
51
43
207
51
43
207
51
43
207
51
43
207
51
43
207
51
43
207
51
43
207
51
43
207
51
43
207
51
43
207
51
43
207
51
43
207
51
43
207
51
43
207
51
43
207
51
43
207
51
43
207
51
43
207
51
43
207
51
43
207
51
43
207
51
43
207
51
43
207
51
43
207
51
43
207
51
43
207
51
43
207
51
43
207
51
43
207
51
43
207
51
43
207
51
43
207
51
43
207
51
43
207
51
43
207
51
43
207
51
43
207
51
43
207
51
43
207
51
43
207
51
43
207
51
43
207
51
43
207
51
43
207
51
43
207
51
43
207
51
43
207
51
43
207
51
43
207
51
43
207
51
43
207
51
43
207
51
43
207
51
43
207
51
43
207
51
43
207
51
43
207
51
43
207
51
43
207
51
43
207
51
43
207
51
43
207
51
43
207
51
43
207
51
43
207
51
43
207
51
43
207
51
43
207
51
43
207
51
43
207
51
43
207
51
43
207
51
43
207
51
43
207
51
43
207
51
43
207
51
43
207
51
43
207
51
43
207
51
43
207
51
43
207
51
43
207
51
43
207
51
43
207
51
43
207
51
43
207
51
43
207
51
43
207
51
43
207
51
43
207
51
43
207
51
43
207
51
43
207
51
43
207
51
43
207
51
43
207
51
43
207
51
43
207
51
43
207
51
43
207
51
43
207
51
43
207
51
43
207
51
43
207
51
43
207
51
43
207
51
43
207
51
43
207
51
43
207
51
43
207
51
43
207
51
43
207
51
43
207
51
43
207
51
43
207
51
43
207
51
43
207
51
43
207
51
43
207
51
43
207
51
43
207
51
43
207
51
43
207
51
43
207
51
43
207
51
43
207
51
43
207
51
43
207
51
43
207
51
43
207
51
43
207
51
43
207
51
43
207
51
43
207
51
43
207
51
43
207
51
43
207
51
43
207
51
43
207
51
43
207
51
43
207
51
43
207
51
43
207
51
43
207
51
43
207
51
43
207
51
43
207
51
43
207
51
43
207
51
43
207
51
43
207
51
43
207
51
43
207
51
43
207
51
43
207
51
43
207
51
43
207
51
43
207
51
43
207
51
43
207
51
43
207
51
43
207
51
43
207
51
43
207
51
43
207
51
43
207
51
43
207
51
43
207
51
43
207
51
43
207
51
43
207
51
43
207
51
43
207
51
43
207
51
43
207
51
43
207
51
43
207
51
43
207
51
43
207
51
43
207
51
43
207
51
43
207
51
43
207
51
43
207
51
43
207
51
43
207
51
43
207
51
43
207
51
43
207
51
43
207
51
43
207
51
43
207
51
43
207
51
43
207
51
43
207
51
43
207
51
43
207
51
43
207
51
43
207
51
43
207
51
43
207
51
43
207
51
43
207
51
43
207
51
43
207
51
43
207
51
43
207
51
43
207
51
43
207
51
43
207
51
43
207
51
43
207
51
43
207
51
43
207
51
43
207
51
43
207
51
43
207
51
43
207
51
43
207
51
43
207
51
43
207
51
43
207
51
43
207
51
43
207
51
43
207
51
43
207
51
43
207
51
43
207
51
43
207
51
43
207
51
43
207
51
43
207
51
43
207
51
43
207
51
43
207
51
43
207
51
43
207
51
43
207
51
43
207
51
43
207
51
43
207
51
43
207
51
43
207
51
43
207
51
43
207
51
43
207
51
43
207
51
43
207
51
43
207
51
43
207
51
43
207
51
43
207
51
43
207
51
43
207
51
43
207
51
43
207
51
43
207
51
43
207
51
43
207
51
43
207
51
43
207
51
43
207
51
43
207
51
43
207
51
43
207
51
43
207
51
43
207
51
43
207
51
43
207
51
43
207
51
43
207
51
43
207
51
43
207
51
43
207
51
43
207
51
43
207
51
43
207
51
43
207
51
43
207
51
43
207
51
43
207
51
43
207
51
43
207
51
43
207
51
43
207
51
43
207
51
43
207
51
43
207
51
43
207
51
43
207
51
43
207
51
43
207
51
43
207
51
43
207
51
43
207
51
43
207
51
43
207
51
43
207
51
43
207
51
43
207
51
43
207
51
43
207
51
43
207
51
43
207
51
43
207
51
43
207
51
43
207
51
43
207
51
43
207
51
43
207
51
43
207
51
43
207
51
43
207
51
43
207
51
43
207
51
43
207
51
43
207
51
43
207
51
43
207
51
43
207
51
43
207
51
43
207
51
43
207
51
43
207
51
43
207
51
43
207
51
43
207
51
43
207
51
43
207
51
43
207
51
43
207
51
43
207
51
43
207
51
43
207
51
43
207
51
43
207
51
43
207
51
43
207
51
43
207
51
43
207
51
43
207
51
43
207
51
43
207
51
43
207
51
43
207
51
43
207
51
43
207
51
43
207
51
43
207
51
43
207
51
43
207
51
43
207
51
43
207
51
43
207
51
43
207
51
43
207
51
43
207
51
43
207
51
43
207
51
43
207
51
43
207
51
43
207
51
43
207
51
43
207
51
43
207
51
43
207
51
43
207
51
43
207
51
43
207
51
43
207
51
43
207
51
43
207
51
43
207
51
43
207
51
43
207
51
43
207
51
43
207
51
43
207
51
43
207
51
43
207
51
43
207
51
43
207
51
43
207
51
43
207
51
43
207
51
43
207
51
43
207
51
43
207
51
43
207
51
43
207
51
43
207
51
43
207
51
43
207
51
43
207
51
43
207
51
43
207
51
43
207
51
43
207
51
43
207
51
43
207
51
43
207
51
43
207
51
43
207
51
43
207
51
43
207
51
43
207
51
43
207
51
43
207
51
43
207
51
43
207
51
43
207
51
43
207
51
43
207
51
43
207
51
43
207
51
43
207
51
43
207
51
43
207
51
43
207
51
43
207
51
43
207
51
43
207
51
43
207
51
43
207
51
43
207
51
43
207
51
43
207
51
43
207
51
43
207
51
43
207
51
43
207
51
43
207
51
43
207
51
43
207
51
43
207
51
43
207
51
43
207
51
43
207
51
43
207
51
43
207
51
43
207
51
43
207
51
43
207
51
43
207
51
43
207
51
43
207
51
43
207
51
43
207
51
43
207
51
43
207
51
43
207
51
43
207
51
43
207
51
43
207
51
43
207
51
43
207
51
43
207
51
43
207
51
43
207
51
43
207
51
43
207
51
43
207
51
43
207
51
43
207
51
43
207
51
43
207
51
43
207
51
43
207
51
43
207
51
43
207
51
43
207
51
43
207
51
43
207
51
43
207
51
43
207
51
43
207
51
43
207
51
43
207
51
43
207
51
43
207
51
43
207
51
43
207
51
43
207
51
43
207
51
43
207
51
43
207
51
43
207
51
43
207
51
43
207
51
43
207
51
43
207
51
43
207
51
43
207
51
43
207
51
43
207
51
43
207
51
43
207
51
43
207
51
43
207
51
43
207
51
43
207
51
43
207
51
43
207
51
43
207
51
43
207
51
43
207
51
43
207
51
43
207
51
43
207
51
43
207
51
43
207
51
43
207
51
43
207
51
43
207
51
43
207
51
43
207
51
43
207
51
43
207
51
43
207
51
43
207
51
43
207
51
43
207
51
43
207
51
43
207
51
43
207
51
43
207
51
43
207
51
43
207
51
43
207
51
43
207
51
43
207
51
43
207
51
43
207
51
43
207
51
43
207
51
43
207
51
43
207
51
43
207
51
43
207
51
43
207
51
43
207
51
43
207
51
43
207
51
43
207
51
43
207
51
43
207
51
43
207
51
43
207
51
43
207
51
43
207
51
43
207
51
43
207
51
43
207
51
43
207
51
43
207
51
43
207
51
43
207
51
43
207
51
43
207
51
43
207
51
43
207
51
43
207
51
43
207
51
43
207
51
43
207
51
43
207
51
43
207
51
43
207
51
43
207
51
43
207
51
43
207
51
43
207
51
43
207
51
43
207
51
43
207
51
43
207
51
43
207
51
43
207
51
43
207
51
43
207
51
43
207
51
43
207
51
43
207
51
43
207
51
43
207
51
43
207
51
43
207
51
43
207
51
43
207
51
43
207
51
43
207
51
43
207
51
43
207
51
43
207
51
43
207
51
43
207
51
43
207
51
43
207
51
43
207
51
43
207
51
43
207
51
43
207
51
43
207
51
43
207
51
43
207
51
43
207
51
43
207
51
43
207
51
43
207
51
43
207
51
43
207
51
43
207
51
43
207
51
43
207
51
43
207
51
43
207
51
43
207
51
43
207
51
43
207
51
43
207
51
43
207
51
43
207
51
43
207
51
43
207
51
43
207
51
43
207
51
43
207
51
43
207
51
43
207
51
43
207
51
43
207
51
43
207
51
43
207
51
43
207
51
43
207
51
43
207
51
43
207
51
43
207
51
43
207
51
43
207
51
43
207
51
43
207
51
43
207
51
43
207
51
43
207
51
43
207
51
43
207
51
43
207
51
43
207
51
43
207
51
43
207
51
43
207
51
43
207
51
43
207
51
43
207
51
43
207
51
43
207
51
43
207
51
43
207
51
43
207
51
43
207
51
43
207
51
43
207
51
43
207
51
43
207
51
43
207
51
43
207
51
43
207
51
43
207
51
43
207
51
43
207
51
43
207
51
43
207
51
43
207
51
43
207
51
43
207
51
43
207
51
43
207
51
43
207
51
43
207
51
43
207
51
43
207
51
43
207
51
43
207
51
43
207
51
43
207
51
43
207
51
43
207
51
43
207
51
43
207
51
43
207
51
43
207
51
43
207
51
43
207
51
43
207
51
43
207
51
43
207
51
43
207
51
43
207
51
43
207
51
43
207
51
43
207
51
43
207
51
43
207
51
43
207
51
43
207
51
43
207
51
43
207
51
43
207
51
43
207
51
43
207
51
43
207
51
43
207
51
43
207
51
43
207
51
43
207
51
43
207
51
43
207
51
43
207
51
43
207
51
43
207
51
43
207
51
43
207
51
43
207
51
43
207
51
43
207
51
43
207
51
43
207
51
43
207
51
43
207
51
43
207
51
43
207
51
43
207
51
43
207
51
43
207
51
43
207
51
43
207
51
43
207
51
43
207
51
43
207
51
43
207
51
43
207
51
43
207
51
43
207
51
43
207
51
43
207
51
43
207
51
43
207
51
43
207
51
43
207
51
43
207
51
43
207
51
43
207
51
43
207
51
43
207
51
43
207
51
43
207
51
43
207
51
43
207
51
43
207
51
43
207
51
43
207
51
43
207
51
43
207
51
43
207
51
43
207
51
43
207
51
43
207
51
43
207
51
43
207
51
43
207
51
43
207
51
43
207
51
43
207
51
43
207
51
43
207
51
43
207
51
43
207
51
43
207
51
43
207
51
43
207
51
43
207
51
43
207
51
43
207
51
43
207
51
43
207
51
43
207
51
43
207
51
43
207
51
43
207
51
43
207
51
43
207
51
43
207
51
43
207
51
43
207
51
43
207
51
43
207
51
43
207
51
43
207
51
43
207
51
43
207
51
43
207
51
43
207
51
43
207
51
43
207
51
43
207
51
43
207
51
43
207
51
43
207
51
43
207
51
43
207
51
43
207
51
43
207
51
43
207
51
43
207
51
43
207
51
43
207
51
43
207
51
43
207
51
43
207
51
43
207
51
43
207
51
43
207
51
43
207
51
43
207
51
43
207
51
43
207
51
43
207
51
43
207
51
43
207
51
43
207
51
43
207
51
43
207
51
43
207
51
43
207
51
43
207
51
43
207
51
43
207
51
43
207
51
43
207
51
43
207
51
43
207
51
43
207
51
43
207
51
43
207
51
43
207
51
43
207
51
43
207
51
43
207
51
43
207
51
43
207
51
43
207
51
43
207
51
43
207
51
43
207
51
43
207
51
43
207
51
43
207
51
43
207
51
43
207
51
43
207
51
43
207
51
43
207
51
43
207
51
43
207
51
43
207
51
43
207
51
43
207
51
43
207
51
43
207
51
43
207
51
43
207
51
43
207
51
43
207
51
43
207
51
43
207
51
43
207
51
43
207
51
43
207
51
43
207
51
43
207
51
43
207
51
43
207
51
43
207
51
43
207
51
43
207
51
43
207
51
43
207
51
43
207
51
43
207
51
43
207
51
43
207
51
43
207
51
43
207
51
43
207
51
43
207
51
43
207
51
43
207
51
43
207
51
43
207
51
43
207
51
43
207
51
43
207
51
43
207
51
43
207
51
43
207
51
43
207
51
43
207
51
43
207
51
43
207
51
43
207
51
43
207
51
43
207
51
43
207
51
43
207
51
43
207
51
43
207
51
43
207
51
43
207
51
43
207
51
43
207
51
43
207
51
43
207
51
43
207
51
43
207
51
43
207
51
43
207
51
43
207
51
43
207
51
43
207
51
43
207
51
43
207
51
43
207
51
43
207
51
43
207
51
43
207
51
43
207
51
43
207
51
43
207
51
43
207
51
43
207
51
43
207
51
43
207
51
43
207
51
43
207
51
43
207
51
43
207
51
43
207
51
43
207
51
43
207
51
43
207
51
43
207
51
43
207
51
43
207
51
43
207
51
43
207
51
43
207
51
43
207
51
43
207
51
43
207
51
43
207
51
43
207
51
43
207
51
43
207
51
43
207
51
43
207
51
43
207
51
43
207
51
43
207
51
43
207
51
43
207
51
43
207
51
43
207
51
43
207
51
43
207
51
43
207
51
43
207
51
43
207
51
43
207
51
43
207
51
43
207
51
43
207
51
43
207
51
43
207
51
43
207
51
43
207
51
43
207
51
43
207
51
43
207
51
43
207
51
43
207
51
43
207
51
43
207
51
43
207
51
43
207
51
43
207
51
43
207
51
43
207
51
43
207
51
43
207
51
43
207
51
43
207
51
43
207
51
43
207
51
43
207
51
43
207
51
43
207
51
43
207
51
43
207
51
43
207
51
43
207
51
43
207
51
43
207
51
43
207
51
43
207
51
43
207
51
43
207
51
43
207
51
43
207
51
43
207
51
43
207
51
43
207
51
43
207
51
43
207
51
43
207
51
43
207
51
43
207
51
43
207
51
43
207
51
43
207
51
43
207
51
43
207
51
43
207
51
43
207
51
43
207
51
43
207
51
43
207
51
43
207
51
43
207
51
43
207
51
43
207
51
43
207
51
43
207
51
43
207
51
43
207
51
43
207
51
43
207
51
43
207
51
43
207
51
43
207
51
43
207
51
43
207
51
43
207
51
43
207
51
43
207
51
43
207
51
43
207
51
43
207
51
43
207
51
43
207
51
43
207
51
43
207
51
43
207
51
43
207
51
43
207
51
43
207
51
43
207
51
43
207
51
43
207
51
43
207
51
43
207
51
43
207
51
43
207
51
43
207
51
43
207
51
43
207
51
43
207
51
43
207
51
43
207
51
43
207
51
43
207
51
43
207
51
43
207
51
43
207
51
43
207
51
43
207
51
43
207
51
43
207
51
43
207
51
43
207
51
43
207
51
43
207
51
43
207
51
43
207
51
43
207
51
43
207
51
43
207
51
43
207
51
43
207
51
43
207
51
43
207
51
43
207
51
43
207
51
43
207
51
43
207
51
43
207
51
43
207
51
43
207
51
43
207
51
43
207
51
43
207
51
43
207
51
43
207
51
43
207
51
43
207
51
43
207
51
43
207
51
43
207
51
43
207
51
43
207
51
43
207
51
43
207
51
43
207
51
43
207
51
43
207
51
43
207
51
43
207
51
43
207
51
43
207
51
43
207
51
43
207
51
43
207
51
43
207
51
43
207
51
43
207
51
43
207
51
43
207
51
43
207
51
43
207
51
43
207
51
43
207
51
43
207
51
43
207
51
43
207
51
43
207
51
43
207
51
43
207
51
43
207
51
43
207
51
43
207
51
43
207
51
43
207
51
43
207
51
43
207
51
43
207
51
43
207
51
43
207
51
43
207
51
43
207
51
43
207
51
43
207
51
43
207
51
43
207
51
43
207
51
43
207
51
43
207
51
43
207
51
43
207
51
43
207
51
43
207
51
43
207
51
43
207
51
43
207
51
43
207
51
43
207
51
43
207
51
43
207
51
43
207
51
43
207
51
43
207
51
43
207
51
43
207
51
43
207
51
43
207
51
43
207
51
43
207
51
43
207
51
43
207
51
43
207
51
43
207
51
43
207
51
43
207
51
43
207
51
43
207
51
43
207
51
43
207
51
43
207
51
43
207
51
43
207
51
43
207
51
43
207
51
43
207
51
43
207
51
43
207
51
43
207
51
43
207
51
43
207
51
43
207
51
43
207
51
43
207
51
43
207
51
43
207
51
43
207
51
43
207
51
43
207
51
43
207
51
43
207
51
43
207
51
43
207
51
43
207
51
43
207
51
43
207
51
43
207
51
43
207
51
43
207
51
43
207
51
43
207
51
43
207
51
43
207
51
43
207
51
43
207
51
43
207
51
43
207
51
43
207
51
43
207
51
43
207
51
43
207
51
43
207
51
43
207
51
43
207
51
43
207
51
43
207
51
43
207
51
43
207
51
43
207
51
43
207
51
43
207
51
43
207
51
43
207
51
43
207
51
43
207
51
43
207
51
43
207
51
43
207
51
43
207
51
43
207
51
43
207
51
43
207
51
43
207
51
43
207
51
43
207
51
43
207
51
43
207
51
43
207
51
43
207
51
43
207
51
43
207
51
43
207
51
43
207
51
43
207
51
43
207
51
43
207
51
43
207
51
43
207
51
43
207
51
43
207
51
43
207
51
43
207
51
43
207
51
43
207
51
43
207
51
43
207
51
43
207
51
43
207
51
43
207
51
43
207
51
43
207
51
43
207
51
43
207
51
43
207
51
43
207
51
43
207
51
43
207
51
43
207
51
43
207
51
43
207
51
43
207
51
43
207
51
43
207
51
43
207
51
43
207
51
43
207
51
43
207
51
43
207
51
43
207
51
43
207
51
43
207
51
43
207
51
43
207
51
43
207
51
43
207
51
43
207
51
43
207
51
43
207
51
43
207
51
43
207
51
43
207
51
43
207
51
43
207
51
43
207
51
43
207
51
43
207
51
43
207
51
43
207
51
43
207
51
43
207
51
43
207
51
43
207
51
43
207
51
43
207
51
43
207
51
43
207
51
43
207
51
43
207
51
43
207
51
43
207
51
43
207
51
43
207
51
43
207
51
43
207
51
43
207
51
43
207
51
43
207
51
43
207
51
43
207
51
43
207
51
43
207
51
43
207
51
43
207
51
43
207
51
43
207
51
43
207
51
43
207
51
43
207
51
43
207
51
43
207
51
43
207
51
43
207
51
43
207
51
43
207
51
43
207
51
43
207
51
43
207
51
43
207
51
43
207
51
43
207
51
43
207
51
43
207
51
43
207
51
43
207
51
43
207
51
43
207
51
43
207
51
43
207
51
43
207
51
43
207
51
43
207
51
43
207
51
43
207
51
43
207
51
43
207
51
43
207
51
43
207
51
43
207
51
43
207
51
43
207
51
43
207
51
43
207
51
43
207
51
43
207
51
43
207
51
43
207
51
43
207
51
43
207
51
43
207
51
43
207
51
43
207
51
43
207
51
43
207
51
43
207
51
43
207
51
43
207
51
43
207
51
43
207
51
43
207
51
43
207
51
43
207
51
43
207
51
43
207
51
43
207
51
43
207
51
43
207
51
43
207
51
43
207
51
43
207
51
43
207
51
43
207
51
43
207
51
43
207
51
43
207
51
43
207
51
43
207
51
43
207
51
43
207
51
43
207
51
43
207
51
43
207
51
43
207
51
43
207
51
43
207
51
43
207
51
43
207
51
43
207
51
43
207
51
43
207
51
43
207
51
43
207
51
43
207
51
43
207
51
43
207
51
43
207
51
43
207
51
43
207
51
43
207
51
43
207
51
43
207
51
43
207
51
43
207
51
43
207
51
43
207
51
43
207
51
43
207
51
43
207
51
43
207
51
43
207
51
43
207
51
43
207
51
43
207
51
43
207
51
43
207
51
43
207
51
43
207
51
43
207
51
43
207
51
43
207
51
43
207
51
43
207
51
43
207
51
43
207
51
43
207
51
43
207
51
43
207
51
43
207
51
43
207
51
43
207
51
43
207
51
43
207
51
43
207
51
43
207
51
43
207
51
43
207
51
43
207
51
43
207
51
43
207
51
43
207
51
43
207
51
43
207
51
43
207
51
43
207
51
43
207
51
43
207
51
43
207
51
43
207
51
43
207
51
43
207
51
43
207
51
43
207
51
43
207
51
43
207
51
43
207
51
43
207
51
43
207
51
43
207
51
43
207
51
43
207
51
43
207
51
43
207
51
43
207
51
43
207
51
43
207
51
43
207
51
43
207
51
43
207
51
43
207
51
43
207
51
43
207
51
43
207
51
43
207
51
43
207
51
43
207
51
43
207
51
43
207
51
43
207
51
43
207
51
43
207
51
43
207
51
43
207
51
43
207
51
43
207
51
43
207
51
43
207
51
43
207
51
43
207
51
43
207
51
43
207
51
43
207
51
43
207
51
43
207
51
43
207
51
43
207
51
43
207
51
43
207
51
43
207
51
43
207
51
43
207
51
43
207
51
43
207
51
43
207
51
43
207
51
43
207
51
43
207
51
43
207
51
43
207
51
43
207
51
43
207
51
43
207
51
43
207
51
43
207
51
43
207
51
43
207
51
43
207
51
43
207
51
43
207
51
43
207
51
43
207
51
43
207
51
43
207
51
43
207
51
43
207
51
43
207
51
43
207
51
43
207
51
43
207
51
43
207
51
43
207
51
43
207
51
43
207
51
43
207
51
43
207
51
43
207
51
43
207
51
43
207
51
43
207
51
43
207
51
43
207
51
43
207
51
43
207
51
43
207
51
43
207
51
43
207
51
43
207
51
43
207
51
43
207
51
43
207
51
43
207
51
43
207
51
43
207
51
43
207
51
43
207
51
43
207
51
43
207
51
43
207
51
43
207
51
43
207
51
43
207
51
43
207
51
43
207
51
43
207
51
43
207
51
43
207
51
43
207
51
43
207
51
43
207
51
43
207
51
43
207
51
43
207
51
43
207
51
43
207
51
43
207
51
43
207
51
43
207
51
43
207
51
43
207
51
43
207
51
43
207
51
43
207
51
43
207
51
43
207
51
43
207
51
43
207
51
43
207
51
43
207
51
43
207
51
43
207
51
43
207
51
43
207
51
43
207
51
43
207
51
43
207
51
43
207
51
43
207
51
43
207
51
43
207
51
43
207
51
43
207
51
43
207
51
43
207
51
43
207
51
43
207
51
43
207
51
43
207
51
43
207
51
43
207
51
43
207
51
43
207
51
43
207
51
43
207
51
43
207
51
43
207
51
43
207
51
43
207
51
43
207
51
43
207
51
43
207
51
43
207
51
43
207
51
43
207
51
43
207
51
43
207
51
43
207
51
43
207
51
43
207
51
43
207
51
43
207
51
43
207
51
43
207
51
43
207
51
43
207
51
43
207
51
43
207
51
43
207
51
43
207
51
43
207
51
43
207
51
43
207
51
43
207
51
43
207
51
43
207
51
43
207
51
43
207
51
43
207
51
43
207
51
43
207
51
43
207
51
43
207
51
43
207
51
43
207
51
43
207
51
43
207
51
43
207
51
43
207
51
43
207
51
43
207
51
43
207
51
43
207
51
43
207
51
43
207
51
43
207
51
43
207
51
43
207
51
43
207
51
43
207
51
43
207
51
43
207
51
43
207
51
43
207
51
43
207
51
43
207
51
43
207
51
43
207
51
43
207
51
43
207
51
43
207
51
43
207
51
43
207
51
43
207
51
43
207
51
43
207
51
43
207
51
43
207
51
43
207
51
43
207
51
43
207
51
43
207
51
43
207
51
43
207
51
43
207
51
43
207
51
43
207
51
43
207
51
43
207
51
43
207
51
43
207
51
43
207
51
43
207
51
43
207
51
43
207
51
43
207
51
43
207
51
43
207
51
43
207
51
43
207
51
43
207
51
43
207
51
43
207
51
43
207
51
43
207
51
43
207
51
43
207
51
43
207
51
43
207
51
43
207
51
43
207
51
43
207
51
43
207
51
43
207
51
43
207
51
43
207
51
43
207
51
43
207
51
43
207
51
43
207
51
43
207
51
43
207
51
43
207
51
43
207
51
43
207
51
43
207
51
43
207
51
43
207
51
43
207
51
43
207
51
43
207
51
43
207
51
43
207
51
43
207
51
43
207
51
43
207
51
43
207
51
43
207
51
43
207
51
43
207
51
43
207
51
43
207
51
43
207
51
43
207
51
43
207
51
43
207
51
43
207
51
43
207
51
43
207
51
43
207
51
43
207
51
43
207
51
43
207
51
43
207
51
43
207
51
43
207
51
43
207
51
43
207
51
43
207
51
43
207
51
43
207
51
43
207
51
43
207
51
43
207
51
43
207
51
43
207
51
43
207
51
43
207
51
43
207
51
43
207
51
43
207
51
43
207
51
43
207
51
43
207
51
43
207
51
43
207
51
43
207
51
43
207
51
43
207
51
43
207
51
43
207
51
43
207
51
43
207
51
43
207
51
43
207
51
43
207
51
43
207
51
43
207
51
43
207
51
43
207
51
43
207
51
43
207
51
43
207
51
43
207
51
43
207
51
43
207
51
43
207
51
43
207
51
43
207
51
43
207
51
43
207
51
43
207
51
43
207
51
43
207
51
43
207
51
43
207
51
43
207
51
43
207
51
43
207
51
43
207
51
43
207
51
43
207
51
43
207
51
43
207
51
43
207
51
43
207
51
43
207
51
43
207
51
43
207
51
43
207
51
43
207
51
43
207
51
43
207
51
43
207
51
43
207
51
43
207
51
43
207
51
43
207
51
43
207
51
43
207
51
43
207
51
43
207
51
43
207
51
43
207
51
43
207
51
43
207
51
43
207
51
43
207
51
43
207
51
43
207
51
43
207
51
43
207
51
43
207
51
43
207
51
43
207
51
43
207
51
43
207
51
43
207
51
43
207
51
43
207
51
43
207
51
43
207
51
43
207
51
43
207
51
43
207
51
43
207
51
43
207
51
43
207
51
43
207
51
43
207
51
43
207
51
43
207
51
43
207
51
43
207
51
43
207
51
43
207
51
43
207
51
43
207
51
43
207
51
43
207
51
43
207
51
43
207
51
43
207
51
43
207
51
43
207
51
43
207
51
43
207
51
43
207
51
43
207
51
43
207
51
43
207
51
43
207
51
43
207
51
43
207
51
43
207
51
43
207
51
43
207
51
43
207
51
43
207
51
43
207
51
43
207
51
43
207
51
43
207
51
43
207
51
43
207
51
43
207
51
43
207
51
43
207
51
43
207
51
43
207
51
43
207
51
43
207
51
43
207
51
43
207
51
43
207
51
43
207
51
43
207
51
43
207
51
43
207
51
43
207
51
43
207
51
43
207
51
43
207
51
43
207
51
43
207
51
43
207
51
43
207
51
43
207
51
43
207
51
43
207
51
43
207
51
43
207
51
43
207
51
43
207
51
43
207
51
43
207
51
43
207
51
43
207
51
43
207
51
43
207
51
43
207
51
43
207
51
43
207
51
43
207
51
43
207
51
43
207
51
43
207
51
43
207
51
43
207
51
43
207
51
43
207
51
43
207
51
43
207
51
43
207
51
43
207
51
43
207
51
43
207
51
43
207
51
43
207
51
43
207
51
43
207
51
43
207
51
43
207
51
43
207
51
43
207
51
43
207
51
43
207
51
43
207
51
43
207
51
43
207
51
43
207
51
43
207
51
43
207
51
43
207
51
43
207
51
43
207
51
43
207
51
43
207
51
43
207
51
43
207
51
43
207
51
43
207
51
43
207
51
43
207
51
43
207
51
43
207
51
43
207
51
43
207
51
43
207
51
43
207
51
43
207
51
43
207
51
43
207
51
43
207
51
43
207
51
43
207
51
43
207
51
43
207
51
43
207
51
43
207
51
43
207
51
43
207
51
43
207
51
43
207
51
43
207
51
43
207
51
43
207
51
43
207
51
43
207
51
43
207
51
43
207
51
43
207
51
43
207
51
43
207
51
43
207
51
43
207
51
43
207
51
43
207
51
43
207
51
43
207
51
43
207
51
43
207
51
43
207
51
43
207
51
43
207
51
43
207
51
43
207
51
43
207
51
43
207
51
43
207
51
43
207
51
43
207
51
43
207
51
43
207
51
43
207
51
43
207
51
43
207
51
43
207
51
43
207
51
43
207
51
43
207
51
43
207
51
43
207
51
43
207
51
43
207
51
43
207
51
43
207
51
43
207
51
43
207
51
43
207
51
43
207
51
43
207
51
43
207
51
43
207
51
43
207
51
43
207
51
43
207
51
43
207
51
43
207
51
43
207
51
43
207
51
43
207
51
43
207
51
43
207
51
43
207
51
43
207
51
43
207
51
43
207
51
43
207
51
43
207
51
43
207
51
43
207
51
43
207
51
43
207
51
43
207
51
43
207
51
43
207
51
43
207
51
43
207
51
43
207
51
43
207
51
43
207
51
43
207
51
43
207
51
43
207
51
43
207
51
43
207
51
43
207
51
43
207
51
43
207
51
43
207
51
43
207
51
43
207
51
43
207
51
43
207
51
43
207
51
43
207
51
43
207
51
43
207
51
43
207
51
43
207
51
43
207
51
43
207
51
43
207
51
43
207
51
43
207
51
43
207
51
43
207
51
43
207
51
43
207
51
43
207
51
43
207
51
43
207
51
43
207
51
43
207
51
43
207
51
43
207
51
43
207
51
43
207
51
43
207
51
43
207
51
43
207
51
43
207
51
43
207
51
43
207
51
43
207
51
43
207
51
43
207
51
43
207
51
43
207
51
43
207
51
43
207
51
43
207
51
43
207
51
43
207
51
43
207
51
43
207
51
43
207
51
43
207
51
43
207
51
43
207
51
43
207
51
43
207
51
43
207
51
43
207
51
43
207
51
43
207
51
43
207
51
43
207
51
43
207
51
43
207
51
43
207
51
43
207
51
43
207
51
43
207
51
43
207
51
43
207
51
43
207
51
43
207
51
43
207
51
43
207
51
43
207
51
43
207
51
43
207
51
43
207
51
43
207
51
43
207
51
43
207
51
43
207
51
43
207
51
43
207
51
43
207
51
43
207
51
43
207
51
43
207
51
43
207
51
43
207
51
43
207
51
43
207
51
43
207
51
43
207
51
43
207
51
43
207
51
43
207
51
43
207
51
43
207
51
43
207
51
43
207
51
43
207
51
43
207
51
43
207
51
43
207
51
43
207
51
43
207
51
43
207
51
43
207
51
43
207
51
43
207
51
43
207
51
43
207
51
43
207
51
43
207
51
43
207
51
43
207
51
43
207
51
43
207
51
43
207
51
43
207
51
43
207
51
43
207
51
43
207
51
43
207
51
43
207
51
43
207
51
43
207
51
43
207
51
43
207
51
43
207
51
43
207
51
43
207
51
43
207
51
43
207
51
43
207
51
43
207
51
43
207
51
43
207
51
43
207
51
43
207
51
43
207
51
43
207
51
43
207
51
43
207
51
43
207
51
43
207
51
43
207
51
43
207
51
43
207
51
43
207
51
43
207
51
43
207
51
43
207
51
43
207
51
43
207
51
43
207
51
43
207
51
43
207
51
43
207
51
43
207
51
43
207
51
43
207
51
43
207
51
43
207
51
43
207
51
43
207
51
43
207
51
43
207
51
43
207
51
43
207
51
43
207
51
43
207
51
43
207
51
43
207
51
43
207
51
43
207
51
43
207
51
43
207
51
43
207
51
43
207
51
43
207
51
43
207
51
43
207
51
43
207
51
43
207
51
43
207
51
43
207
51
43
207
51
43
207
51
43
207
51
43
207
51
43
207
51
43
207
51
43
207
51
43
207
51
43
207
51
43
207
51
43
207
51
43
207
51
43
207
51
43
207
51
43
207
51
43
207
51
43
207
51
43
207
51
43
207
51
43
207
51
43
207
51
43
207
51
43
207
51
43
207
51
43
207
51
43
207
51
43
207
51
43
207
51
43
207
51
43
207
51
43
207
51
43
207
51
43
207
51
43
207
51
43
207
51
43
207
51
43
207
51
43
207
51
43
207
51
43
207
51
43
207
51
43
207
51
43
207
51
43
207
51
43
207
51
43
207
51
43
207
51
43
207
51
43
207
51
43
207
51
43
207
51
43
207
51
43
207
51
43
207
51
43
207
51
43
207
51
43
207
51
43
207
51
43
207
51
43
207
51
43
207
51
43
207
51
43
207
51
43
207
51
43
207
51
43
207
51
43
207
51
43
207
51
43
207
51
43
207
51
43
207
51
43
207
51
43
207
51
43
207
51
43
207
51
43
207
51
43
207
51
43
207
51
43
207
51
43
207
51
43
207
51
43
207
51
43
207
51
43
207
51
43
207
51
43
207
51
43
207
51
43
207
51
43
207
51
43
207
51
43
207
51
43
207
51
43
207
51
43
207
51
43
207
51
43
207
51
43
207
51
43
207
51
43
207
51
43
207
51
43
207
51
43
207
51
43
207
51
43
207
51
43
207
51
43
207
51
43
207
51
43
207
51
43
207
51
43
207
51
43
207
51
43
207
51
43
207
51
43
207
51
43
207
51
43
207
51
43
207
51
43
207
51
43
207
51
43
207
51
43
207
51
43
207
51
43
207
51
43
207
51
43
207
51
43
207
51
43
207
51
43
207
51
43
207
51
43
207
51
43
207
51
43
207
51
43
207
51
43
207
51
43
207
51
43
207
51
43
207
51
43
207
51
43
207
51
43
207
51
43
207
51
43
207
51
43
207
51
43
207
51
43
207
51
43
207
51
43
207
51
43
207
51
43
207
51
43
207
51
43
207
51
43
207
51
43
207
51
43
207
51
43
207
51
43
207
51
43
207
51
43
207
51
43
207
51
43
207
51
43
207
51
43
207
51
43
207
51
43
207
51
43
207
51
43
207
51
43
207
51
43
207
51
43
207
51
43
207
51
43
207
51
43
207
51
43
207
51
43
207
51
43
207
51
43
207
51
43
207
51
43
207
51
43
207
51
43
207
51
43
207
51
43
207
51
43
207
51
43
207
51
43
207
51
43
207
51
43
207
51
43
207
51
43
207
51
43
207
51
43
207
51
43
207
51
43
207
51
43
207
51
43
207
51
43
207
51
43
207
51
43
207
51
43
207
51
43
207
51
43
207
51
43
207
51
43
207
51
43
207
51
43
207
51
43
207
51
43
207
51
43
207
51
43
207
51
43
207
51
43
207
51
43
207
51
43
207
51
43
207
51
43
207
51
43
207
51
43
207
51
43
207
51
43
207
51
43
207
51
43
207
51
43
207
51
43
207
51
43
207
51
43
207
51
43
207
51
43
207
51
43
207
51
43
207
51
43
207
51
43
207
51
43
207
51
43
207
51
43
207
51
43
207
51
43
207
51
43
207
51
43
207
51
43
207
51
43
207
51
43
207
51
43
207
51
43
207
51
43
207
51
43
207
51
43
207
51
43
207
51
43
207
51
43
207
51
43
207
51
43
207
51
43
207
51
43
207
51
43
207
51
43
207
51
43
207
51
43
207
51
43
207
51
43
207
51
43
207
51
43
207
51
43
207
51
43
207
51
43
207
51
43
207
51
43
207
51
43
207
51
43
207
51
43
207
51
43
207
51
43
207
51
43
207
51
43
207
51
43
207
51
43
207
51
43
207
51
43
207
51
43
207
51
43
207
51
43
207
51
43
207
51
43
207
51
43
207
51
43
207
51
43
207
51
43
207
51
43
207
51
43
207
51
43
207
51
43
207
51
43
207
51
43
207
51
43
207
51
43
207
51
43
207
51
43
207
51
43
207
51
43
207
51
43
207
51
43
207
51
43
207
51
43
207
51
43
207
51
43
207
51
43
207
51
43
207
51
43
207
51
43
207
51
43
207
51
43
207
51
43
207
51
43
207
51
43
207
51
43
207
51
43
207
51
43
207
51
43
207
51
43
207
51
43
207
51
43
207
51
43
207
51
43
207
51
43
207
51
43
207
51
43
207
51
43
207
51
43
207
51
43
207
51
43
207
51
43
207
51
43
207
51
43
207
51
43
207
51
43
207
51
43
207
51
43
207
51
43
207
51
43
207
51
43
207
51
43
207
51
43
207
51
43
207
51
43
207
51
43
207
51
43
207
51
43
207
51
43
207
51
43
207
51
43
207
51
43
207
51
43
207
51
43
207
51
43
207
51
43
207
51
43
207
51
43
207
51
43
207
51
43
207
51
43
207
51
43
207
51
43
207
51
43
207
51
43
207
51
43
207
51
43
207
51
43
207
51
43
207
51
43
207
51
43
207
51
43
207
51
43
207
51
43
207
51
43
207
51
43
207
51
43
207
51
43
207
51
43
207
51
43
207
51
43
207
51
43
207
51
43
207
51
43
207
51
43
207
51
43
207
51
43
207
51
43
207
51
43
207
51
43
207
51
43
207
51
43
207
51
43
207
51
43
207
51
43
207
51
43
207
51
43
207
51
43
207
51
43
207
51
43
207
51
43
207
51
43
207
51
43
207
51
43
207
51
43
207
51
43
207
51
43
207
51
43
207
51
43
207
51
43
207
51
43
207
51
43
207
51
43
207
51
43
207
51
43
207
51
43
207
51
43
207
51
43
207
51
43
207
51
43
207
51
43
207
51
43
207
51
43
207
51
43
207
51
43
207
51
43
207
51
43
207
51
43
207
51
43
207
51
43
207
51
43
207
51
43
207
51
43
207
51
43
207
51
43
207
51
43
207
51
43
207
51
43
207
51
43
207
51
43
207
51
43
207
51
43
207
51
43
207
51
43
207
51
43
207
51
43
207
51
43
207
51
43
207
51
43
207
51
43
207
51
43
207
51
43
207
51
43
207
51
43
207
51
43
207
51
43
207
51
43
207
51
43
207
51
43
207
51
43
207
51
43
207
51
43
207
51
43
207
51
43
207
51
43
207
51
43
207
51
43
207
51
43
207
51
43
207
51
43
207
51
43
207
51
43
207
51
43
207
51
43
207
51
43
207
51
43
207
51
43
207
51
43
207
51
43
207
51
43
207
51
43
207
51
43
207
51
43
207
51
43
207
51
43
207
51
43
207
51
43
207
51
43
207
51
43
207
51
43
207
51
43
207
51
43
207
51
43
207
51
43
207
51
43
207
51
43
207
51
43
207
51
43
207
51
43
207
51
43
207
51
43
207
51
43
207
51
43
207
51
43
207
51
43
207
51
43
207
51
43
207
51
43
207
51
43
207
51
43
207
51
43
207
51
43
207
51
43
207
51
43
207
51
43
207
51
43
207
51
43
207
51
43
207
51
43
207
51
43
207
51
43
207
51
43
207
51
43
207
51
43
207
51
43
207
51
43
207
51
43
207
51
43
207
51
43
207
51
43
207
51
43
207
51
43
207
51
43
207
51
43
207
51
43
207
51
43
207
51
43
207
51
43
207
51
43
207
51
43
207
51
43
207
51
43
207
51
43
207
51
43
207
51
43
207
51
43
207
51
43
207
51
43
207
51
43
207
51
43
207
51
43
207
51
43
207
51
43
207
51
43
207
51
43
207
51
43
207
51
43
207
51
43
207
51
43
207
51
43
207
51
43
207
51
43
207
51
43
207
51
43
207
51
43
207
51
43
207
51
43
207
51
43
207
51
43
207
51
43
207
51
43
207
51
43
207
51
43
207
51
43
207
51
43
207
51
43
207
51
43
207
51
43
207
51
43
207
51
43
207
51
43
207
51
43
207
51
43
207
51
43
207
51
43
207
51
43
207
51
43
207
51
43
207
51
43
207
51
43
207
51
43
207
51
43
207
51
43
207
51
43
207
51
43
207
51
43
207
51
43
207
51
43
207
51
43
207
51
43
207
51
43
207
51
43
207
51
43
207
51
43
207
51
43
207
51
43
207
51
43
207
51
43
207
51
43
207
51
43
207
51
43
207
51
43
207
51
43
207
51
43
207
51
43
207
51
43
207
51
43
207
51
43
207
51
43
207
51
43
207
51
43
207
51
43
207
51
43
207
51
43
207
51
43
207
51
43
207
51
43
207
51
43
207
51
43
207
51
43
207
51
43
207
51
43
207
51
43
207
51
43
207
51
43
207
51
43
207
51
43
207
51
43
207
51
43
207
51
43
207
51
43
207
51
43
207
51
43
207
51
43
207
51
43
207
51
43
207
51
43
207
51
43
207
51
43
207
51
43
207
51
43
207
51
43
207
51
43
207
51
43
207
51
43
207
51
43
207
51
43
207
51
43
207
51
43
207
51
43
207
51
43
207
51
43
207
51
43
207
51
43
207
51
43
207
51
43
207
51
43
207
51
43
207
51
43
207
51
43
207
51
43
207
51
43
207
51
43
207
51
43
207
51
43
207
51
43
207
51
43
207
51
43
207
51
43
207
51
43
207
51
43
207
51
43
207
51
43
207
51
43
207
51
43
207
51
43
207
51
43
207
51
43
207
51
43
207
51
43
207
51
43
207
51
43
207
51
43
207
51
43
207
51
43
207
51
43
207
51
43
207
51
43
207
51
43
207
51
43
207
51
43
207
51
43
207
51
43
207
51
43
207
51
43
207
51
43
207
51
43
207
51
43
207
51
43
207
51
43
207
51
43
207
51
43
207
51
43
207
51
43
207
51
43
207
51
43
207
51
43
207
51
43
207
51
43
207
51
43
207
51
43
207
51
43
207
51
43
207
51
43
207
51
43
207
51
43
207
51
43
207
51
43
207
51
43
207
51
43
207
51
43
207
51
43
207
51
43
207
51
43
207
51
43
207
51
43
207
51
43
207
51
43
207
51
43
207
51
43
207
51
43
207
51
43
207
51
43
207
51
43
207
51
43
207
51
43
207
51
43
207
51
43
207
51
43
207
51
43
207
51
43
207
51
43
207
51
43
207
51
43
207
51
43
207
51
43
207
51
43
207
51
43
207
51
43
207
51
43
207
51
43
207
51
43
207
51
43
207
51
43
207
51
43
207
51
43
207
51
43
207
51
43
207
51
43
207
51
43
207
51
43
207
51
43
207
51
43
207
51
43
207
51
43
207
51
43
207
51
43
207
51
43
207
51
43
207
51
43
207
51
43
207
51
43
207
51
43
207
51
43
207
51
43
207
51
43
207
51
43
207
51
43
207
51
43
207
51
43
207
51
43
207
51
43
207
51
43
207
51
43
207
51
43
207
51
43
207
51
43
207
51
43
207
51
43
207
51
43
207
51
43
207
51
43
207
51
43
207
51
43
207
51
43
207
51
43
207
51
43
207
51
43
207
51
43
207
51
43
207
51
43
207
51
43
207
51
43
207
51
43
207
51
43
207
51
43
207
51
43
207
51
43
207
51
43
207
51
43
207
51
43
207
51
43
207
51
43
207
51
43
207
51
43
207
51
43
207
51
43
207
51
43
207
51
43
207
51
43
207
51
43
207
51
43
207
51
43
207
51
43
207
51
43
207
51
43
207
51
43
207
51
43
207
51
43
207
51
43
207
51
43
207
51
43
207
51
43
207
51
43
207
51
43
207
51
43
207
51
43
207
51
43
207
51
43
207
51
43
207
51
43
207
51
43
207
51
43
207
51
43
207
51
43
207
51
43
207
51
43
207
51
43
207
51
43
207
51
43
207
51
43
207
51
43
207
51
43
207
51
43
207
51
43
207
51
43
207
51
43
207
51
43
207
51
43
207
51
43
207
51
43
207
51
43
207
51
43
207
51
43
207
51
43
207
51
43
207
51
43
207
51
43
207
51
43
207
51
43
207
51
43
207
51
43
207
51
43
207
51
43
207
51
43
207
51
43
207
51
43
207
51
43
207
51
43
207
51
43
207
51
43
207
51
43
207
51
43
207
51
43
207
51
43
207
51
43
207
51
43
207
51
43
207
51
43
207
51
43
207
51
43
207
51
43
207
51
43
207
51
43
207
51
43
207
51
43
207
51
43
207
51
43
207
51
43
207
51
43
207
51
43
207
51
43
207
51
43
207
51
43
207
51
43
207
51
43
207
51
43
207
51
43
207
51
43
207
51
43
207
51
43
207
51
43
207
51
43
207
51
43
207
51
43
207
51
43
207
51
43
207
51
43
207
51
43
207
51
43
207
51
43
207
51
43
207
51
43
207
51
43
207
51
43
207
51
43
207
51
43
207
51
43
207
51
43
207
51
43
207
51
43
207
51
43
207
51
43
207
51
43
207
51
43
207
51
43
207
51
43
207
51
43
207
51
43
207
51
43
207
51
43
207
51
43
207
51
43
207
51
43
207
51
43
207
51
43
207
51
43
207
51
43
207
51
43
207
51
43
207
51
43
207
51
43
207
51
43
207
51
43
207
51
43
207
51
43
207
51
43
207
51
43
207
51
43
207
51
43
207
51
43
207
51
43
207
51
43
207
51
43
207
51
43
207
51
43
207
51
43
207
51
43
207
51
43
207
51
43
207
51
43
207
51
43
207
51
43
207
51
43
207
51
43
207
51
43
207
51
43
207
51
43
207
51
43
207
51
43
207
51
43
207
51
43
207
51
43
207
51
43
207
51
43
207
51
43
207
51
43
207
51
43
207
51
43
207
51
43
207
51
43
207
51
43
207
51
43
207
51
43
207
51
43
207
51
43
207
51
43
207
51
43
207
51
43
207
51
43
207
51
43
207
51
43
207
51
43
207
51
43
207
51
43
207
51
43
207
51
43
207
51
43
207
51
43
207
51
43
207
51
43
207
51
43
207
51
43
207
51
43
207
51
43
207
51
43
207
51
43
207
51
43
207
51
43
207
51
43
207
51
43
207
51
43
207
51
43
207
51
43
207
51
43
207
51
43
207
51
43
207
51
43
207
51
43
207
51
43
207
51
43
207
51
43
207
51
43
207
51
43
207
51
43
207
51
43
207
51
43
207
51
43
207
51
43
207
51
43
207
51
43
207
51
43
207
51
43
207
51
43
207
51
43
207
51
43
207
51
43
207
51
43
207
51
43
207
51
43
207
51
43
207
51
43
207
51
43
207
51
43
207
51
43
207
51
43
207
51
43
207
51
43
207
51
43
207
51
43
207
51
43
207
51
43
207
51
43
207
51
43
207
51
43
207
51
43
207
51
43
207
51
43
207
51
43
207
51
43
207
51
43
207
51
43
207
51
43
207
51
43
207
51
43
207
51
43
207
51
43
207
51
43
207
51
43
207
51
43
207
51
43
207
51
43
207
51
43
207
51
43
207
51
43
207
51
43
207
51
43
207
51
43
207
51
43
207
51
43
207
51
43
207
51
43
207
51
43
207
51
43
207
51
43
207
51
43
207
51
43
207
51
43
207
51
43
207
51
43
207
51
43
207
51
43
207
51
43
207
51
43
207
51
43
207
51
43
207
51
43
207
51
43
207
51
43
207
51
43
207
51
43
207
51
43
207
51
43
207
51
43
207
51
43
207
51
43
207
51
43
207
51
43
207
51
43
207
51
43
207
51
43
207
51
43
207
51
43
207
51
43
207
51
43
207
51
43
207
51
43
207
51
43
207
51
43
207
51
43
207
51
43
207
51
43
207
51
43
207
51
43
207
51
43
207
51
43
207
51
43
207
51
43
207
51
43
207
51
43
207
51
43
207
51
43
207
51
43
207
51
43
207
51
43
207
51
43
207
51
43
207
51
43
207
51
43
207
51
43
207
51
43
207
51
43
207
51
43
207
51
43
207
51
43
207
51
43
207
51
43
207
51
43
207
51
43
207
51
43
207
51
43
207
51
43
207
51
43
207
51
43
207
51
43
207
51
43
207
51
43
207
51
43
207
51
43
207
51
43
207
51
43
207
51
43
207
51
43
207
51
43
207
51
43
207
51
43
207
51
43
207
51
43
207
51
43
207
51
43
207
51
43
207
51
43
207
51
43
207
51
43
207
51
43
207
51
43
207
51
43
207
51
43
207
51
43
207
51
43
207
51
43
207
51
43
207
51
43
207
51
43
207
51
43
207
51
43
207
51
43
207
51
43
207
51
43
207
51
43
207
51
43
207
51
43
207
51
43
207
51
43
207
51
43
207
51
43
207
51
43
207
51
43
207
51
43
207
51
43
207
51
43
207
51
43
207
51
43
207
51
43
207
51
43
207
51
43
207
51
43
207
51
43
207
51
43
207
51
43
207
51
43
207
51
43
207
51
43
207
51
43
207
51
43
207
51
43
207
51
43
207
51
43
207
51
43
207
51
43
207
51
43
207
51
43
207
51
43
207
51
43
207
51
43
207
51
43
207
51
43
207
51
43
207
51
43
207
51
43
207
51
43
207
51
43
207
51
43
207
51
43
207
51
43
207
51
43
207
51
43
207
51
43
207
51
43
207
51
43
207
51
43
207
51
43
207
51
43
207
51
43
207
51
43
207
51
43
207
51
43
207
51
43
207
51
43
207
51
43
207
51
43
207
51
43
207
51
43
207
51
43
207
51
43
207
51
43
207
51
43
207
51
43
207
51
43
207
51
43
207
51
43
207
51
43
207
51
43
207
51
43
207
51
43
207
51
43
207
51
43
207
51
43
207
51
43
207
51
43
207
51
43
207
51
43
207
51
43
207
51
43
207
51
43
207
51
43
207
51
43
207
51
43
207
51
43
207
51
43
207
51
43
207
51
43
207
51
43
207
51
43
207
51
43
207
51
43
207
51
43
207
51
43
207
51
43
207
51
43
207
51
43
207
51
43
207
51
43
207
51
43
207
51
43
207
51
43
207
51
43
207
51
43
207
51
43
207
51
43
207
51
43
207
51
43
207
51
43
207
51
43
207
51
43
207
51
43
207
51
43
207
51
43
207
51
43
207
51
43
207
51
43
207
51
43
207
51
43
207
51
43
207
51
43
207
51
43
207
51
43
207
51
43
207
51
43
207
51
43
207
51
43
207
51
43
207
51
43
207
51
43
207
51
43
207
51
43
207
51
43
207
51
43
207
51
43
207
51
43
207
51
43
207
51
43
207
51
43
207
51
43
207
51
43
207
51
43
207
51
43
207
51
43
207
51
43
207
51
43
207
51
43
207
51
43
207
51
43
207
51
43
207
51
43
207
51
43
207
51
43
207
51
43
207
51
43
207
51
43
207
51
43
207
51
43
207
51
43
207
51
43
207
51
43
207
51
43
207
51
43
207
51
43
207
51
43
207
51
43
207
51
43
207
51
43
207
51
43
207
51
43
207
51
43
207
51
43
207
51
43
207
51
43
207
51
43
207
51
43
207
51
43
207
51
43
207
51
43
207
51
43
207
51
43
207
51
43
207
51
43
207
51
43
207
51
43
207
51
43
207
51
43
207
51
43
207
51
43
207
51
43
207
51
43
207
51
43
207
51
43
207
51
43
207
51
43
207
51
43
207
51
43
207
51
43
207
51
43
207
51
43
207
51
43
207
51
43
207
51
43
207
51
43
207
51
43
207
51
43
207
51
43
207
51
43
207
51
43
207
51
43
207
51
43
207
51
43
207
51
43
207
51
43
207
51
43
207
51
43
207
51
43
207
51
43
207
51
43
207
51
43
207
51
43
207
51
43
207
51
43
207
51
43
207
51
43
207
51
43
207
51
43
207
51
43
207
51
43
207
51
43
207
51
43
207
51
43
207
51
43
207
51
43
207
51
43
207
51
43
207
51
43
207
51
43
207
51
43
207
51
43
207
51
43
207
51
43
207
51
43
207
51
43
207
51
43
207
51
43
207
51
43
207
51
43
207
51
43
207
51
43
207
51
43
207
51
43
207
51
43
207
51
43
207
51
43
207
51
43
207
51
43
207
51
43
207
51
43
207
51
43
207
51
43
207
51
43
207
51
43
207
51
43
207
51
43
207
51
43
207
51
43
207
51
43
207
51
43
207
51
43
207
51
43
207
51
43
207
51
43
207
51
43
207
51
43
207
51
43
207
51
43
207
51
43
207
51
43
207
51
43
207
51
43
207
51
43
207
51
43
207
51
43
207
51
43
207
51
43
207
51
43
207
51
43
207
51
43
207
51
43
207
51
43
207
51
43
207
51
43
207
51
43
207
51
43
207
51
43
207
51
43
207
51
43
207
51
43
207
51
43
207
51
43
207
51
43
207
51
43
207
51
43
207
51
43
207
51
43
207
51
43
207
51
43
207
51
43
207
51
43
207
51
43
207
51
43
207
51
43
207
51
43
207
51
43
207
51
43
207
51
43
207
51
43
207
51
43
207
51
43
207
51
43
207
51
43
207
51
43
207
51
43
207
51
43
207
51
43
207
51
43
207
51
43
207
51
43
207
51
43
207
51
43
207
51
43
207
51
43
207
51
43
207
51
43
207
51
43
207
51
43
207
51
43
207
51
43
207
51
43
207
51
43
207
51
43
207
51
43
207
51
43
207
51
43
207
51
43
207
51
43
207
51
43
207
51
43
207
51
43
207
51
43
207
51
43
207
51
43
207
51
43
207
51
43
207
51
43
207
51
43
207
51
43
207
51
43
207
51
43
207
51
43
207
51
43
207
51
43
207
51
43
207
51
43
207
51
43
207
51
43
207
51
43
207
51
43
207
51
43
207
51
43
207
51
43
207
51
43
207
51
43
207
51
43
207
51
43
207
51
43
207
51
43
207
51
43
207
51
43
207
51
43
207
51
43
207
51
43
207
51
43
207
51
43
207
51
43
207
51
43
207
51
43
207
51
43
207
51
43
207
51
43
207
51
43
207
51
43
207
51
43
207
51
43
207
51
43
207
51
43
207
51
43
207
51
43
207
51
43
207
51
43
207
51
43
207
51
43
207
51
43
207
51
43
207
51
43
207
51
43
207
51
43
207
51
43
207
51
43
207
51
43
207
51
43
207
51
43
207
51
43
207
51
43
207
51
43
207
51
43
207
51
43
207
51
43
207
51
43
207
51
43
207
51
43
207
51
43
207
51
43
207
51
43
207
51
43
207
51
43
207
51
43
207
51
43
207
51
43
207
51
43
207
51
43
207
51
43
207
51
43
207
51
43
207
51
43
207
51
43
207
51
43
207
51
43
207
51
43
207
51
43
207
51
43
207
51
43
207
51
43
207
51
43
207
51
43
207
51
43
207
51
43
207
51
43
207
51
43
207
51
43
207
51
43
207
51
43
207
51
43
207
51
43
207
51
43
207
51
43
207
51
43
207
51
43
207
51
43
207
51
43
207
51
43
207
51
43
207
51
43
207
51
43
207
51
43
207
51
43
207
51
43
207
51
43
207
51
43
207
51
43
207
51
43
207
51
43
207
51
43
207
51
43
207
51
43
207
51
43
207
51
43
207
51
43
207
51
43
207
51
43
207
51
43
207
51
43
207
51
43
207
51
43
207
51
43
207
51
43
207
51
43
207
51
43
207
51
43
207
51
43
207
51
43
207
51
43
207
51
43
207
51
43
207
51
43
207
51
43
207
51
43
207
51
43
207
51
43
207
51
43
207
51
43
207
51
43
207
51
43
207
51
43
207
51
43
207
51
43
207
51
43
207
51
43
207
51
43
207
51
43
207
51
43
207
51
43
207
51
43
207
51
43
207
51
43
207
51
43
207
51
43
207
51
43
207
51
43
207
51
43
207
51
43
207
51
43
207
51
43
207
51
43
207
51
43
207
51
43
207
51
43
207
51
43
207
51
43
207
51
43
207
51
43
207
51
43
207
51
43
207
51
43
207
51
43
207
51
43
207
51
43
207
51
43
207
51
43
207
51
43
207
51
43
207
51
43
207
51
43
207
51
43
207
51
43
207
51
43
207
51
43
207
51
43
207
51
43
207
51
43
207
51
43
207
51
43
207
51
43
207
51
43
207
51
43
207
51
43
207
51
43
207
51
43
207
51
43
207
51
43
207
51
43
207
51
43
207
51
43
207
51
43
207
51
43
207
51
43
207
51
43
207
51
43
207
51
43
207
51
43
207
51
43
207
51
43
207
51
43
207
51
43
207
51
43
207
51
43
207
51
43
207
51
43
207
51
43
207
51
43
207
51
43
207
51
43
207
51
43
207
51
43
207
51
43
207
51
43
207
51
43
207
51
43
207
51
43
207
51
43
207
51
43
207
51
43
207
51
43
207
51
43
207
51
43
207
51
43
207
51
43
207
51
43
207
51
43
207
51
43
207
51
43
207
51
43
207
51
43
207
51
43
207
51
43
207
51
43
207
51
43
207
51
43
207
51
43
207
51
43
207
51
43
207
51
43
207
51
43
207
51
43
207
51
43
207
51
43
207
51
43
207
51
43
207
51
43
207
51
43
207
51
43
207
51
43
207
51
43
207
51
43
207
51
43
207
51
43
207
51
43
207
51
43
207
51
43
207
51
43
207
51
43
207
51
43
207
51
43
207
51
43
207
51
43
207
51
43
207
51
43
207
51
43
207
51
43
207
51
43
207
51
43
207
51
43
207
51
43
207
51
43
207
51
43
207
51
43
207
51
43
207
51
43
207
51
43
207
51
43
207
51
43
207
51
43
207
51
43
207
51
43
207
51
43
207
51
43
207
51
43
207
51
43
207
51
43
207
51
43
207
51
43
207
51
43
207
51
43
207
51
43
207
51
43
207
51
43
207
51
43
207
51
43
207
51
43
207
51
43
207
51
43
207
51
43
207
51
43
207
51
43
207
51
43
207
51
43
207
51
43
207
51
43
207
51
43
207
51
43
207
51
43
207
51
43
207
51
43
207
51
43
207
51
43
207
51
43
207
51
43
207
51
43
207
51
43
207
51
43
207
51
43
207
51
43
207
51
43
207
51
43
207
51
43
207
51
43
207
51
43
207
51
43
207
51
43
207
51
43
207
51
43
207
51
43
207
51
43
207
51
43
207
51
43
207
51
43
207
51
43
207
51
43
207
51
43
207
51
43
207
51
43
207
51
43
207
51
43
207
51
43
207
51
43
207
51
43
207
51
43
207
51
43
207
51
43
207
51
43
207
51
43
207
51
43
207
51
43
207
51
43
207
51
43
207
51
43
207
51
43
207
51
43
207
51
43
207
51
43
207
51
43
207
51
43
207
51
43
207
51
43
207
51
43
207
51
43
207
51
43
207
51
43
207
51
43
207
51
43
207
51
43
207
51
43
207
51
43
207
51
43
207
51
43
207
51
43
207
51
43
207
51
43
207
51
43
207
51
43
207
51
43
207
51
43
207
51
43
207
51
43
207
51
43
207
51
43
207
51
43
207
51
43
207
51
43
207
51
43
207
51
43
207
51
43
207
51
43
207
51
43
207
51
43
207
51
43
207
51
43
207
51
43
207
51
43
207
51
43
207
51
43
207
51
43
207
51
43
207
51
43
207
51
43
207
51
43
207
51
43
207
51
43
207
51
43
207
51
43
207
51
43
207
51
43
207
51
43
207
51
43
207
51
43
207
51
43
207
51
43
207
51
43
207
51
43
207
51
43
207
51
43
207
51
43
207
51
43
207
51
43
207
51
43
207
51
43
207
51
43
207
51
43
207
51
43
207
51
43
207
51
43
207
51
43
207
51
43
207
51
43
207
51
43
207
51
43
207
51
43
207
51
43
207
51
43
207
51
43
207
51
43
207
51
43
207
51
43
207
51
43
207
51
43
207
51
43
207
51
43
207
51
43
207
51
43
207
51
43
207
51
43
207
51
43
207
51
43
207
51
43
207
51
43
207
51
43
207
51
43
207
51
43
207
51
43
207
51
43
207
51
43
207
51
43
207
51
43
207
51
43
207
51
43
207
51
43
207
51
43
207
51
43
207
51
43
207
51
43
207
51
43
207
51
43
207
51
43
207
51
43
207
51
43
207
51
43
207
51
43
207
51
43
207
51
43
207
51
43
207
51
43
207
51
43
207
51
43
207
51
43
207
51
43
207
51
43
207
51
43
207
51
43
207
51
43
207
51
43
207
51
43
207
51
43
207
51
43
207
51
43
207
51
43
207
51
43
207
51
43
207
51
43
207
51
43
207
51
43
207
51
43
207
51
43
207
51
43
207
51
43
207
51
43
207
51
43
207
51
43
207
51
43
207
51
43
207
51
43
207
51
43
207
51
43
207
51
43
207
51
43
207
51
43
207
51
43
207
51
43
207
51
43
207
51
43
207
51
43
207
51
43
207
51
43
207
51
43
207
51
43
207
51
43
207
51
43
207
51
43
207
51
43
207
51
43
207
51
43
207
51
43
207
51
43
207
51
43
207
51
43
207
51
43
207
51
43
207
51
43
207
51
43
207
51
43
207
51
43
207
51
43
207
51
43
207
51
43
207
51
43
207
51
43
207
51
43
207
51
43
207
51
43
207
51
43
207
51
43
207
51
43
207
51
43
207
51
43
207
51
43
207
51
43
207
51
43
207
51
43
207
51
43
207
51
43
207
51
43
207
51
43
207
51
43
207
51
43
207
51
43
207
51
43
207
51
43
207
51
43
207
51
43
207
51
43
207
51
43
207
51
43
207
51
43
207
51
43
207
51
43
207
51
43
207
51
43
207
51
43
207
51
43
207
51
43
207
51
43
207
51
43
207
51
43
207
51
43
207
51
43
207
51
43
207
51
43
207
51
43
207
51
43
207
51
43
207
51
43
207
51
43
207
51
43
207
51
43
207
51
43
207
51
43
207
51
43
207
51
43
207
51
43
207
51
43
207
51
43
207
51
43
207
51
43
207
51
43
207
51
43
207
51
43
207
51
43
207
51
43
207
51
43
207
51
43
207
51
43
207
51
43
207
51
43
207
51
43
207
51
43
207
51
43
207
51
43
207
51
43
207
51
43
207
51
43
207
51
43
207
51
43
207
51
43
207
51
43
207
51
43
207
51
43
207
51
43
207
51
43
207
51
43
207
51
43
207
51
43
207
51
43
207
51
43
207
51
43
207
51
43
207
51
43
207
51
43
207
51
43
207
51
43
207
51
43
207
51
43
207
51
43
207
51
43
207
51
43
207
51
43
207
51
43
207
51
43
207
51
43
207
51
43
207
51
43
207
51
43
207
51
43
207
51
43
207
51
43
207
51
43
207
51
43
207
51
43
207
51
43
207
51
43
207
51
43
207
51
43
207
51
43
207
51
43
207
51
43
207
51
43
207
51
43
207
51
43
207
51
43
207
51
43
207
51
43
207
51
43
207
51
43
207
51
43
207
51
43
207
51
43
207
51
43
207
51
43
207
51
43
207
51
43
207
51
43
207
51
43
207
51
43
207
51
43
207
51
43
207
51
43
207
51
43
207
51
43
207
51
43
207
51
43
207
51
43
207
51
43
207
51
43
207
51
43
207
51
43
207
51
43
207
51
43
207
51
43
207
51
43
207
51
43
207
51
43
207
51
43
207
51
43
207
51
43
207
51
43
207
51
43
207
51
43
207
51
43
207
51
43
207
51
43
207
51
43
207
51
43
207
51
43
207
51
43
207
51
43
207
51
43
207
51
43
207
51
43
207
51
43
207
51
43
207
51
43
207
51
43
207
51
43
207
51
43
207
51
43
207
51
43
207
51
43
207
51
43
207
51
43
207
51
43
207
51
43
207
51
43
207
51
43
207
51
43
207
51
43
207
51
43
207
51
43
207
51
43
207
51
43
207
51
43
207
51
43
207
51
43
207
51
43
207
51
43
207
51
43
207
51
43
207
51
43
207
51
43
207
51
43
207
51
43
207
51
43
207
51
43
207
51
43
207
51
43
207
51
43
207
51
43
207
51
43
207
51
43
207
51
43
207
51
43
207
51
43
207
51
43
207
51
43
207
51
43
207
51
43
207
51
43
207
51
43
207
51
43
207
51
43
207
51
43
207
51
43
207
51
43
207
51
43
207
51
43
207
51
43
207
51
43
207
51
43
207
51
43
207
51
43
207
51
43
207
51
43
207
51
43
207
51
43
207
51
43
207
51
43
207
51
43
207
51
43
207
51
43
207
51
43
207
51
43
207
51
43
207
51
43
207
51
43
207
51
43
207
51
43
207
51
43
207
51
43
207
51
43
207
51
43
207
51
43
207
51
43
207
51
43
207
51
43
207
51
43
207
51
43
207
51
43
207
51
43
207
51
43
207
51
43
207
51
43
207
51
43
207
51
43
207
51
43
207
51
43
207
51
43
207
51
43
207
51
43
207
51
43
207
51
43
207
51
43
207
51
43
207
51
43
207
51
43
207
51
43
207
51
43
207
51
43
207
51
43
207
51
43
207
51
43
207
51
43
207
51
43
207
51
43
207
51
43
207
51
43
207
51
43
207
51
43
207
51
43
207
51
43
207
51
43
207
51
43
207
51
43
207
51
43
207
51
43
207
51
43
207
51
43
207
51
43
207
51
43
207
51
43
207
51
43
207
51
43
207
51
43
207
51
43
207
51
43
207
51
43
207
51
43
207
51
43
207
51
43
207
51
43
207
51
43
207
51
43
207
51
43
207
51
43
207
51
43
207
51
43
207
51
43
207
51
43
207
51
43
207
51
43
207
51
43
207
51
43
207
51
43
207
51
43
207
51
43
207
51
43
207
51
43
207
51
43
207
51
43
207
51
43
207
51
43
207
51
43
207
51
43
207
51
43
207
51
43
207
51
43
207
51
43
207
51
43
207
51
43
207
51
43
207
51
43
207
51
43
207
51
43
207
51
43
207
51
43
207
51
43
207
51
43
207
51
43
207
51
43
207
51
43
207
51
43
207
51
43
207
51
43
207
51
43
207
51
43
207
51
43
207
51
43
207
51
43
207
51
43
207
51
43
207
51
43
207
51
43
207
51
43
207
51
43
207
51
43
207
51
43
207
51
43
207
51
43
207
51
43
207
51
43
207
51
43
207
51
43
207
51
43
207
51
43
207
51
43
207
51
43
207
51
43
207
51
43
207
51
43
207
51
43
207
51
43
207
51
43
207
51
43
207
51
43
207
51
43
207
51
43
207
51
43
207
51
43
207
51
43
207
51
43
207
51
43
207
51
43
207
51
43
207
51
43
207
51
43
207
51
43
207
51
43
207
51
43
207
51
43
207
51
43
207
51
43
207
51
43
207
51
43
207
51
43
207
51
43
207
51
43
207
51
43
207
51
43
207
51
43
207
51
43
207
51
43
207
51
43
207
51
43
207
51
43
207
51
43
207
51
43
207
51
43
207
51
43
207
51
43
207
51
43
207
51
43
207
51
43
207
51
43
207
51
43
207
51
43
207
51
43
207
51
43
207
51
43
207
51
43
207
51
43
207
51
43
207
51
43
207
51
43
207
51
43
207
51
43
207
51
43
207
51
43
207
51
43
207
51
43
207
51
43
207
51
43
207
51
43
207
51
43
207
51
43
207
51
43
207
51
43
207
51
43
207
51
43
207
51
43
207
51
43
207
51
43
207
51
43
207
51
43
207
51
43
207
51
43
207
51
43
207
51
43
207
51
43
207
51
43
207
51
43
207
51
43
207
51
43
207
51
43
207
51
43
207
51
43
207
51
43
207
51
43
207
51
43
207
51
43
207
51
43
207
51
43
207
51
43
207
51
43
207
51
43
207
51
43
207
51
43
207
51
43
207
51
43
207
51
43
207
51
43
207
51
43
207
51
43
207
51
43
207
51
43
207
51
43
207
51
43
207
51
43
207
51
43
207
51
43
207
51
43
207
51
43
207
51
43
207
51
43
207
51
43
207
51
43
207
51
43
207
51
43
207
51
43
207
51
43
207
51
43
207
51
43
207
51
43
207
51
43
207
51
43
207
51
43
207
51
43
207
51
43
207
51
43
207
51
43
207
51
43
207
51
43
207
51
43
207
51
43
207
51
43
207
51
43
207
51
43
207
51
43
207
51
43
207
51
43
207
51
43
207
51
43
207
51
43
207
51
43
207
51
43
207
51
43
207
51
43
207
51
43
207
51
43
207
51
43
207
51
43
207
51
43
207
51
43
207
51
43
207
51
43
207
51
43
207
51
43
207
51
43
207
51
43
207
51
43
207
51
43
207
51
43
207
51
43
207
51
43
207
51
43
207
51
43
207
51
43
207
51
43
207
51
43
207
51
43
207
51
43
207
51
43
207
51
43
207
51
43
207
51
43
207
51
43
207
51
43
207
51
43
207
51
43
207
51
43
207
51
43
207
51
43
207
51
43
207
51
43
207
51
43
207
51
43
207
51
43
207
51
43
207
51
43
207
51
43
207
51
43
207
51
43
207
51
43
207
51
43
207
51
43
207
51
43
207
51
43
207
51
43
207
51
43
207
51
43
207
51
43
207
51
43
207
51
43
207
51
43
207
51
43
207
51
43
207
51
43
207
51
43
207
51
43
207
51
43
207
51
43
207
51
43
207
51
43
207
51
43
207
51
43
207
51
43
207
51
43
207
51
43
207
51
43
207
51
43
207
51
43
207
51
43
207
51
43
207
51
43
207
51
43
207
51
43
207
51
43
207
51
43
207
51
43
207
51
43
207
51
43
207
51
43
207
51
43
207
51
43
207
51
43
207
51
43
207
51
43
207
51
43
207
51
43
207
51
43
207
51
43
207
51
43
207
51
43
207
51
43
207
51
43
207
51
43
207
51
43
207
51
43
207
51
43
207
51
43
207
51
43
207
51
43
207
51
43
207
51
43
207
51
43
207
51
43
207
51
43
207
51
43
207
51
43
207
51
43
207
51
43
207
51
43
207
51
43
207
51
43
207
51
43
207
51
43
207
51
43
207
51
43
207
51
43
207
51
43
207
51
43
207
51
43
207
51
43
207
51
43
207
51
43
207
51
43
207
51
43
207
51
43
207
51
43
207
51
43
207
51
43
207
51
43
207
51
43
207
51
43
207
51
43
207
51
43
207
51
43
207
51
43
207
51
43
207
51
43
207
51
43
207
51
43
207
51
43
207
51
43
207
51
43
207
51
43
207
51
43
207
51
43
207
51
43
207
51
43
207
51
43
207
51
43
207
51
43
207
51
43
207
51
43
207
51
43
207
51
43
207
51
43
207
51
43
207
51
43
207
51
43
207
51
43
207
51
43
207
51
43
207
51
43
207
51
43
207
51
43
207
51
43
207
51
43
207
51
43
207
51
43
207
51
43
207
51
43
207
51
43
207
51
43
207
51
43
207
51
43
207
51
43
207
51
43
207
51
43
207
51
43
207
51
43
207
51
43
207
51
43
207
51
43
207
51
43
207
51
43
207
51
43
207
51
43
207
51
43
207
51
43
207
51
43
207
51
43
207
51
43
207
51
43
207
51
43
207
51
43
207
51
43
207
51
43
207
51
43
207
51
43
207
51
43
207
51
43
207
51
43
207
51
43
207
51
43
207
51
43
207
51
43
207
51
43
207
51
43
207
51
43
207
51
43
207
51
43
207
51
43
207
51
43
207
51
43
207
51
43
207
51
43
207
51
43
207
51
43
207
51
43
207
51
43
207
51
43
207
51
43
207
51
43
207
51
43
207
51
43
207
51
43
207
51
43
207
51
43
207
51
43
207
51
43
207
51
43
207
51
43
207
51
43
207
51
43
207
51
43
207
51
43
207
51
43
207
51
43
207
51
43
207
51
43
207
51
43
207
51
43
207
51
43
207
51
43
207
51
43
207
51
43
207
51
43
207
51
43
207
51
43
207
51
43
207
51
43
207
51
43
207
51
43
207
51
43
207
51
43
207
51
43
207
51
43
207
51
43
207
51
43
207
51
43
207
51
43
207
51
43
207
51
43
207
51
43
207
51
43
207
51
43
207
51
43
207
51
43
207
51
43
207
51
43
207
51
43
207
51
43
207
51
43
207
51
43
207
51
43
207
51
43
207
51
43
207
51
43
207
51
43
207
51
43
207
51
43
207
51
43
207
51
43
207
51
43
207
51
43
207
51
43
207
51
43
207
51
43
207
51
43
207
51
43
207
51
43
207
51
43
207
51
43
207
51
43
207
51
43
207
51
43
207
51
43
207
51
43
207
51
43
207
51
43
207
51
43
207
51
43
207
51
43
207
51
43
207
51
43
207
51
43
207
51
43
207
51
43
207
51
43
207
51
43
207
51
43
207
51
43
207
51
43
207
51
43
207
51
43
207
51
43
207
51
43
207
51
43
207
51
43
207
51
43
207
51
43
207
51
43
207
51
43
207
51
43
207
51
43
207
51
43
207
51
43
207
51
43
207
51
43
207
51
43
207
51
43
207
51
43
207
51
43
207
51
43
207
51
43
207
51
43
207
51
43
207
51
43
207
51
43
207
51
43
207
51
43
207
51
43
207
51
43
207
51
43
207
51
43
207
51
43
207
51
43
207
51
43
207
51
43
207
51
43
207
51
43
207
51
43
207
51
43
207
51
43
207
51
43
207
51
43
207
51
43
207
51
43
207
51
43
207
51
43
207
51
43
207
51
43
207
51
43
207
51
43
207
51
43
207
51
43
207
51
43
207
51
43
207
51
43
207
51
43
207
51
43
207
51
43
207
51
43
207
51
43
207
51
43
207
51
43
207
51
43
207
51
43
207
51
43
207
51
43
207
51
43
207
51
43
207
51
43
207
51
43
207
51
43
207
51
43
207
51
43
207
51
43
207
51
43
207
51
43
207
51
43
207
51
43
207
51
43
207
51
43
207
51
43
207
51
43
207
51
43
207
51
43
207
51
43
207
51
43
207
51
43
207
51
43
207
51
43
207
51
43
207
51
43
207
51
43
207
51
43
207
51
43
207
51
43
207
51
43
207
51
43
207
51
43
207
51
43
207
51
43
207
51
43
207
51
43
207
51
43
207
51
43
207
51
43
207
51
43
207
51
43
207
51
43
207
51
43
207
51
43
207
51
43
207
51
43
207
51
43
207
51
43
207
51
43
207
51
43
207
51
43
207
51
43
207
51
43
207
51
43
207
51
43
207
51
43
207
51
43
207
51
43
207
51
43
207
51
43
207
51
43
207
51
43
207
51
43
207
51
43
207
51
43
207
51
43
207
51
43
207
51
43
207
51
43
207
51
43
207
51
43
207
51
43
207
51
43
207
51
43
207
51
43
207
51
43
207
51
43
207
51
43
207
51
43
207
51
43
207
51
43
207
51
43
207
51
43
207
51
43
207
51
43
207
51
43
207
51
43
207
51
43
207
51
43
207
51
43
207
51
43
207
51
43
207
51
43
207
51
43
207
51
43
207
51
43
207
51
43
207
51
43
207
51
43
207
51
43
207
51
43
207
51
43
207
51
43
207
51
43
207
51
43
207
51
43
207
51
43
207
51
43
207
51
43
207
51
43
207
51
43
207
51
43
207
51
43
207
51
43
207
51
43
207
51
43
207
51
43
207
51
43
207
51
43
207
51
43
207
51
43
207
51
43
207
51
43
207
51
43
207
51
43
207
51
43
207
51
43
207
51
43
207
51
43
207
51
43
207
51
43
207
51
43
207
51
43
207
51
43
207
51
43
207
51
43
207
51
43
207
51
43
207
51
43
207
51
43
207
51
43
207
51
43
207
51
43
207
51
43
207
51
43
207
51
43
207
51
43
207
51
43
207
51
43
207
51
43
207
51
43
207
51
43
207
51
43
207
51
43
207
51
43
207
51
43
207
51
43
207
51
43
207
51
43
207
51
43
207
51
43
207
51
43
207
51
43
207
51
43
207
51
43
207
51
43
207
51
43
207
51
43
207
51
43
207
51
43
207
51
43
207
51
43
207
51
43
207
51
43
207
51
43
207
51
43
207
51
43
207
51
43
207
51
43
207
51
43
207
51
43
207
51
43
207
51
43
207
51
43
207
51
43
207
51
43
207
51
43
207
51
43
207
51
43
207
51
43
207
51
43
207
51
43
207
51
43
207
51
43
207
51
43
207
51
43
207
51
43
207
51
43
207
51
43
207
51
43
207
51
43
207
51
43
207
51
43
207
51
43
207
51
43
207
51
43
207
51
43
207
51
43
207
51
43
207
51
43
207
51
43
207
51
43
207
51
43
207
51
43
207
51
43
207
51
43
207
51
43
207
51
43
207
51
43
207
51
43
207
51
43
207
51
43
207
51
43
207
51
43
207
51
43
207
51
43
207
51
43
207
51
43
207
51
43
207
51
43
207
51
43
207
51
43
207
51
43
207
51
43
207
51
43
207
51
43
207
51
43
207
51
43
207
51
43
207
51
43
207
51
43
207
51
43
207
51
43
207
51
43
207
51
43
207
51
43
207
51
43
207
51
43
207
51
43
207
51
43
207
51
43
207
51
43
207
51
43
207
51
43
207
51
43
207
51
43
207
51
43
207
51
43
207
51
43
207
51
43
207
51
43
207
51
43
207
51
43
207
51
43
207
51
43
207
51
43
207
51
43
207
51
43
207
51
43
207
51
43
207
51
43
207
51
43
207
51
43
207
51
43
207
51
43
207
51
43
207
51
43
207
51
43
207
51
43
207
51
43
207
51
43
207
51
43
207
51
43
207
51
43
207
51
43
207
51
43
207
51
43
207
51
43
207
51
43
207
51
43
207
51
43
207
51
43
207
51
43
207
51
43
207
51
43
207
51
43
207
51
43
207
51
43
207
51
43
207
51
43
207
51
43
207
51
43
207
51
43
207
51
43
207
51
43
207
51
43
207
51
43
207
51
43
207
51
43
207
51
43
207
51
43
207
51
43
207
51
43
207
51
43
207
51
43
207
51
43
207
51
43
207
51
43
207
51
43
207
51
43
207
51
43
207
51
43
207
51
43
207
51
43
207
51
43
207
51
43
207
51
43
207
51
43
207
51
43
207
51
43
207
51
43
207
51
43
207
51
43
207
51
43
207
51
43
207
51
43
207
51
43
207
51
43
207
51
43
207
51
43
207
51
43
207
51
43
207
51
43
207
51
43
207
51
43
207
51
43
207
51
43
207
51
43
207
51
43
207
51
43
207
51
43
207
51
43
207
51
43
207
51
43
207
51
43
207
51
43
207
51
43
207
51
43
207
51
43
207
51
43
207
51
43
207
51
43
207
51
43
207
51
43
207
51
43
207
51
43
207
51
43
207
51
43
207
51
43
207
51
43
207
51
43
207
51
43
207
51
43
207
51
43
207
51
43
207
51
43
207
51
43
207
51
43
207
51
43
207
51
43
207
51
43
207
51
43
207
51
43
207
51
43
207
51
43
207
51
43
207
51
43
207
51
43
207
51
43
207
51
43
207
51
43
207
51
43
207
51
43
207
51
43
207
51
43
207
51
43
207
51
43
207
51
43
207
51
43
207
51
43
207
51
43
207
51
43
207
51
43
207
51
43
207
51
43
207
51
43
207
51
43
207
51
43
207
51
43
207
51
43
207
51
43
207
51
43
207
51
43
207
51
43
207
51
43
207
51
43
207
51
43
207
51
43
207
51
43
207
51
43
207
51
43
207
51
43
207
51
43
207
51
43
207
51
43
207
51
43
207
51
43
207
51
43
207
51
43
207
51
43
207
51
43
207
51
43
207
51
43
207
51
43
207
51
43
207
51
43
207
51
43
207
51
43
207
51
43
207
51
43
207
51
43
207
51
43
207
51
43
207
51
43
207
51
43
207
51
43
207
51
43
207
51
43
207
51
43
207
51
43
207
51
43
207
51
43
207
51
43
207
51
43
207
51
43
207
51
43
207
51
43
207
51
43
207
51
43
207
51
43
207
51
43
207
51
43
207
51
43
207
51
43
207
51
43
207
51
43
207
51
43
207
51
43
207
51
43
207
51
43
207
51
43
207
51
43
207
51
43
207
51
43
207
51
43
207
51
43
207
51
43
207
51
43
207
51
43
207
51
43
207
51
43
207
51
43
207
51
43
207
51
43
207
51
43
207
51
43
207
51
43
207
51
43
207
51
43
207
51
43
207
51
43
207
51
43
207
51
43
207
51
43
207
51
43
207
51
43
207
51
43
207
51
43
207
51
43
207
51
43
207
51
43
207
51
43
207
51
43
207
51
43
207
51
43
207
51
43
207
51
43
207
51
43
207
51
43
207
51
43
207
51
43
207
51
43
207
51
43
207
51
43
207
51
43
207
51
43
207
51
43
207
51
43
207
51
43
207
51
43
207
51
43
207
51
43
207
51
43
207
51
43
207
51
43
207
51
43
207
51
43
207
51
43
207
51
43
207
51
43
207
51
43
207
51
43
207
51
43
207
51
43
207
51
43
207
51
43
207
51
43
207
51
43
207
51
43
207
51
43
207
51
43
207
51
43
207
51
43
207
51
43
207
51
43
207
51
43
207
51
43
207
51
43
207
51
43
207
51
43
207
51
43
207
51
43
207
51
43
207
51
43
207
51
43
207
51
43
207
51
43
207
51
43
207
51
43
207
51
43
207
51
43
207
51
43
207
51
43
207
51
43
207
51
43
207
51
43
207
51
43
207
51
43
207
51
43
207
51
43
207
51
43
207
51
43
207
51
43
207
51
43
207
51
43
207
51
43
207
51
43
207
51
43
207
51
43
207
51
43
207
51
43
207
51
43
207
51
43
207
51
43
207
51
43
207
51
43
207
51
43
207
51
43
207
51
43
207
51
43
207
51
43
207
51
43
207
51
43
207
51
43
207
51
43
207
51
43
207
51
43
207
51
43
207
51
43
207
51
43
207
51
43
207
51
43
207
51
43
207
51
43
207
51
43
207
51
43
207
51
43
207
51
43
207
51
43
207
51
43
207
51
43
207
51
43
207
51
43
207
51
43
207
51
43
207
51
43
207
51
43
207
51
43
207
51
43
207
51
43
207
51
43
207
51
43
207
51
43
207
51
43
207
51
43
207
51
43
207
51
43
207
51
43
207
51
43
207
51
43
207
51
43
207
51
43
207
51
43
207
51
43
207
51
43
207
51
43
207
51
43
207
51
43
207
51
43
207
51
43
207
51
43
207
51
43
207
51
43
207
51
43
207
51
43
207
51
43
207
51
43
207
51
43
207
51
43
207
51
43
207
51
43
207
51
43
207
51
43
207
51
43
207
51
43
207
51
43
207
51
43
207
51
43
207
51
43
207
51
43
207
51
43
207
51
43
207
51
43
207
51
43
207
51
43
207
51
43
207
51
43
207
51
43
207
51
43
207
51
43
207
51
43
207
51
43
207
51
43
207
51
43
207
51
43
207
51
43
207
51
43
207
51
43
207
51
43
207
51
43
207
51
43
207
51
43
207
51
43
207
51
43
207
51
43
207
51
43
207
51
43
207
51
43
207
51
43
207
51
43
207
51
43
207
51
43
207
51
43
207
51
43
207
51
43
207
51
43
207
51
43
207
51
43
207
51
43
207
51
43
207
51
43
207
51
43
207
51
43
207
51
43
207
51
43
207
51
43
207
51
43
207
51
43
207
51
43
207
51
43
207
51
43
207
51
43
207
51
43
207
51
43
207
51
43
207
51
43
207
51
43
207
51
43
207
51
43
207
51
43
207
51
43
207
51
43
207
51
43
207
51
43
207
51
43
207
51
43
207
51
43
207
51
43
207
51
43
207
51
43
207
51
43
207
51
43
207
51
43
207
51
43
207
51
43
207
51
43
207
51
43
207
51
43
207
51
43
207
51
43
207
51
43
207
51
43
207
51
43
207
51
43
207
51
43
207
51
43
207
51
43
207
51
43
207
51
43
207
51
43
207
51
43
207
51
43
207
51
43
207
51
43
207
51
43
207
51
43
207
51
43
207
51
43
207
51
43
207
51
43
207
51
43
207
51
43
207
51
43
207
51
43
207
51
43
207
51
43
207
51
43
207
51
43
207
51
43
207
51
43
207
51
43
207
51
43
207
51
43
207
51
43
207
51
43
207
51
43
207
51
43
207
51
43
207
51
43
207
51
43
207
51
43
207
51
43
207
51
43
207
51
43
207
51
43
207
51
43
207
51
43
207
51
43
207
51
43
207
51
43
207
51
43
207
51
43
207
51
43
207
51
43
207
51
43
207
51
43
207
51
43
207
51
43
207
51
43
207
51
43
207
51
43
207
51
43
207
51
43
207
51
43
207
51
43
207
51
43
207
51
43
207
51
43
207
51
43
207
51
43
207
51
43
207
51
43
207
51
43
207
51
43
207
51
43
207
51
43
207
51
43
207
51
43
207
51
43
207
51
43
207
51
43
207
51
43
207
51
43
207
51
43
207
51
43
207
51
43
207
51
43
207
51
43
207
51
43
207
51
43
207
51
43
207
51
43
207
51
43
207
51
43
207
51
43
207
51
43
207
51
43
207
51
43
207
51
43
207
51
43
207
51
43
207
51
43
207
51
43
207
51
43
207
51
43
207
51
43
207
51
43
207
51
43
207
51
43
207
51
43
207
51
43
207
51
43
207
51
43
207
51
43
207
51
43
207
51
43
207
51
43
207
51
43
207
51
43
207
51
43
207
51
43
207
51
43
207
51
43
207
51
43
207
51
43
207
51
43
207
51
43
207
51
43
207
51
43
207
51
43
207
51
43
207
51
43
207
51
43
207
51
43
207
51
43
207
51
43
207
51
43
207
51
43
207
51
43
207
51
43
207
51
43
207
51
43
207
51
43
207
51
43
207
51
43
207
51
43
207
51
43
207
51
43
207
51
43
207
51
43
207
51
43
207
51
43
207
51
43
207
51
43
207
51
43
207
51
43
207
51
43
207
51
43
207
51
43
207
51
43
207
51
43
207
51
43
207
51
43
207
51
43
207
51
43
207
51
43
207
51
43
207
51
43
207
51
43
207
51
43
207
51
43
207
51
43
207
51
43
207
51
43
207
51
43
207
51
43
207
51
43
207
51
43
207
51
43
207
51
43
207
51
43
207
51
43
207
51
43
207
51
43
207
51
43
207
51
43
207
51
43
207
51
43
207
51
43
207
51
43
207
51
43
207
51
43
207
51
43
207
51
43
207
51
43
207
51
43
207
51
43
207
51
43
207
51
43
207
51
43
207
51
43
207
51
43
207
51
43
207
51
43
207
51
43
207
51
43
207
51
43
207
51
43
207
51
43
207
51
43
207
51
43
207
51
43
207
51
43
207
51
43
207
51
43
207
51
43
207
51
43
207
51
43
207
51
43
207
51
43
207
51
43
207
51
43
207
51
43
207
51
43
207
51
43
207
51
43
207
51
43
207
51
43
207
51
43
207
51
43
207
51
43
207
51
43
207
51
43
207
51
43
207
51
43
207
51
43
207
51
43
207
51
43
207
51
43
207
51
43
207
51
43
207
51
43
207
51
43
207
51
43
207
51
43
207
51
43
207
51
43
207
51
43
207
51
43
207
51
43
207
51
43
207
51
43
207
51
43
207
51
43
207
51
43
207
51
43
207
51
43
207
51
43
207
51
43
207
51
43
207
51
43
207
51
43
207
51
43
207
51
43
207
51
43
207
51
43
207
51
43
207
51
43
207
51
43
207
51
43
207
51
43
207
51
43
207
51
43
207
51
43
207
51
43
207
51
43
207
51
43
207
51
43
207
51
43
207
51
43
207
51
43
207
51
43
207
51
43
207
51
43
207
51
43
207
51
43
207
51
43
207
51
43
207
51
43
207
51
43
207
51
43
207
51
43
207
51
43
207
51
43
207
51
43
207
51
43
207
51
43
207
51
43
207
51
43
207
51
43
207
51
43
207
51
43
207
51
43
207
51
43
207
51
43
207
51
43
207
51
43
207
51
43
207
51
43
207
51
43
207
51
43
207
51
43
207
51
43
207
51
43
207
51
43
207
51
43
207
51
43
207
51
43
207
51
43
207
51
43
207
51
43
207
51
43
207
51
43
207
51
43
207
51
43
207
51
43
207
51
43
207
51
43
207
51
43
207
51
43
207
51
43
207
51
43
207
51
43
207
51
43
207
51
43
207
51
43
207
51
43
207
51
43
207
51
43
207
51
43
207
51
43
207
51
43
207
51
43
207
51
43
207
51
43
207
51
43
207
51
43
207
51
43
207
51
43
207
51
43
207
51
43
207
51
43
207
51
43
207
51
43
207
51
43
207
51
43
207
51
43
207
51
43
207
51
43
207
51
43
207
51
43
207
51
43
207
51
43
207
51
43
207
51
43
207
51
43
207
51
43
207
51
43
207
51
43
207
51
43
207
51
43
207
51
43
207
51
43
207
51
43
207
51
43
207
51
43
207
51
43
207
51
43
207
51
43
207
51
43
207
51
43
207
51
43
207
51
43
207
51
43
207
51
43
207
51
43
207
51
43
207
51
43
207
51
43
207
51
43
207
51
43
207
51
43
207
51
43
207
51
43
207
51
43
207
51
43
207
51
43
207
51
43
207
51
43
207
51
43
207
51
43
207
51
43
207
51
43
207
51
43
207
51
43
207
51
43
207
51
43
207
51
43
207
51
43
207
51
43
207
51
43
207
51
43
207
51
43
207
51
43
207
51
43
207
51
43
207
51
43
207
51
43
207
51
43
207
51
43
207
51
43
207
51
43
207
51
43
207
51
43
207
51
43
207
51
43
207
51
43
207
51
43
207
51
43
207
51
43
207
51
43
207
51
43
207
51
43
207
51
43
207
255
255
255
51
43
207
255
255
255
255
255
255
255
255
255
255
255
255
255
255
255
255
255
255
255
255
255
255
255
255
255
255
255
255
255
255
255
255
255
255
255
255
255
255
255
255
255
255
255
255
255
51
43
207
255
255
255
51
43
207
51
43
207
51
43
207
51
43
207
51
43
207
51
43
207
51
43
207
51
43
207
51
43
207
51
43
207
51
43
207
51
43
207
51
43
207
51
43
207
51
43
207
51
43
207
51
43
207
51
43
207
51
43
207
51
43
207
51
43
207
51
43
207
51
43
207
51
43
207
51
43
207
51
43
207
51
43
207
51
43
207
51
43
207
51
43
207
51
43
207
51
43
207
51
43
207
51
43
207
51
43
207
51
43
207
51
43
207
51
43
207
51
43
207
51
43
207
51
43
207
51
43
207
51
43
207
51
43
207
51
43
207
51
43
207
51
43
207
51
43
207
51
43
207
51
43
207
51
43
207
51
43
207
51
43
207
51
43
207
51
43
207
51
43
207
51
43
207
51
43
207
51
43
207
51
43
207
51
43
207
51
43
207
51
43
207
51
43
207
51
43
207
51
43
207
51
43
207
51
43
207
51
43
207
51
43
207
51
43
207
51
43
207
51
43
207
51
43
207
51
43
207
51
43
207
51
43
207
51
43
207
51
43
207
51
43
207
51
43
207
51
43
207
51
43
207
51
43
207
51
43
207
51
43
207
51
43
207
51
43
207
51
43
207
51
43
207
51
43
207
51
43
207
51
43
207
51
43
207
51
43
207
51
43
207
51
43
207
51
43
207
51
43
207
51
43
207
51
43
207
51
43
207
51
43
207
51
43
207
51
43
207
51
43
207
51
43
207
51
43
207
51
43
207
51
43
207
51
43
207
51
43
207
51
43
207
51
43
207
51
43
207
51
43
207
51
43
207
51
43
207
51
43
207
51
43
207
51
43
207
51
43
207
51
43
207
51
43
207
51
43
207
51
43
207
51
43
207
51
43
207
51
43
207
51
43
207
51
43
207
51
43
207
51
43
207
51
43
207
51
43
207
51
43
207
51
43
207
51
43
207
51
43
207
51
43
207
51
43
207
51
43
207
51
43
207
51
43
207
51
43
207
51
43
207
51
43
207
51
43
207
51
43
207
51
43
207
51
43
207
51
43
207
51
43
207
51
43
207
51
43
207
51
43
207
51
43
207
51
43
207
51
43
207
51
43
207
51
43
207
51
43
207
51
43
207
51
43
207
51
43
207
51
43
207
51
43
207
51
43
207
51
43
207
51
43
207
51
43
207
51
43
207
51
43
207
51
43
207
51
43
207
51
43
207
51
43
207
51
43
207
51
43
207
51
43
207
51
43
207
51
43
207
51
43
207
51
43
207
51
43
207
51
43
207
51
43
207
51
43
207
51
43
207
51
43
207
51
43
207
51
43
207
51
43
207
51
43
207
51
43
207
51
43
207
51
43
207
51
43
207
51
43
207
51
43
207
51
43
207
51
43
207
51
43
207
51
43
207
51
43
207
51
43
207
51
43
207
51
43
207
51
43
207
51
43
207
51
43
207
51
43
207
51
43
207
51
43
207
51
43
207
51
43
207
51
43
207
51
43
207
51
43
207
51
43
207
51
43
207
51
43
207
51
43
207
255
255
255
255
255
255
255
255
255
255
255
255
255
255
255
255
255
255
255
255
255
255
255
255
255
255
255
255
255
255
255
255
255
255
255
255
255
255
255
255
255
255
255
255
255
255
255
255
255
255
255
255
255
255
255
255
255
255
255
255
255
255
255
255
255
255
255
255
255
255
255
255
255
255
255
255
255
255
255
255
255
255
255
255
255
255
255
255
255
255
255
255
255
255
255
255
255
255
255
255
255
255
255
255
255
255
255
255
255
255
255
255
255
255
255
255
255
255
255
255
255
255
255
255
255
255
255
255
255
255
255
255
255
255
255
255
255
255
255
255
255
255
255
255
51
43
207
51
43
207
51
43
207
51
43
207
51
43
207
51
43
207
51
43
207
51
43
207
51
43
207
51
43
207
51
43
207
51
43
207
51
43
207
51
43
207
51
43
207
51
43
207
51
43
207
51
43
207
51
43
207
51
43
207
51
43
207
51
43
207
51
43
207
51
43
207
51
43
207
51
43
207
51
43
207
51
43
207
51
43
207
51
43
207
51
43
207
51
43
207
51
43
207
51
43
207
51
43
207
51
43
207
51
43
207
51
43
207
51
43
207
51
43
207
51
43
207
51
43
207
51
43
207
51
43
207
51
43
207
255
255
255
255
255
255
255
255
255
255
255
255
255
255
255
255
255
255
255
255
255
255
255
255
255
255
255
255
255
255
255
255
255
255
255
255
255
255
255
255
255
255
255
255
255
255
255
255
255
255
255
255
255
255
255
255
255
255
255
255
255
255
255
255
255
255
255
255
255
255
255
255
255
255
255
255
255
255
255
255
255
255
255
255
255
255
255
255
255
255
255
255
255
255
255
255
255
255
255
255
255
255
255
255
255
255
255
255
255
255
255
255
255
255
255
255
255
255
255
255
255
255
255
255
255
255
255
255
255
255
255
255
255
255
255
255
255
255
51
43
207
51
43
207
51
43
207
51
43
207
51
43
207
51
43
207
51
43
207
51
43
207
51
43
207
51
43
207
51
43
207
51
43
207
51
43
207
51
43
207
51
43
207
51
43
207
51
43
207
51
43
207
51
43
207
51
43
207
51
43
207
51
43
207
51
43
207
51
43
207
51
43
207
51
43
207
51
43
207
51
43
207
51
43
207
51
43
207
51
43
207
51
43
207
51
43
207
51
43
207
51
43
207
51
43
207
51
43
207
51
43
207
51
43
207
51
43
207
51
43
207
51
43
207
51
43
207
51
43
207
51
43
207
51
43
207
51
43
207
51
43
207
51
43
207
51
43
207
51
43
207
51
43
207
51
43
207
51
43
207
51
43
207
51
43
207
51
43
207
51
43
207
51
43
207
51
43
207
51
43
207
51
43
207
51
43
207
51
43
207
51
43
207
51
43
207
51
43
207
51
43
207
51
43
207
51
43
207
51
43
207
51
43
207
51
43
207
51
43
207
51
43
207
51
43
207
51
43
207
51
43
207
51
43
207
51
43
207
51
43
207
51
43
207
51
43
207
51
43
207
51
43
207
51
43
207
51
43
207
51
43
207
51
43
207
51
43
207
51
43
207
51
43
207
51
43
207
51
43
207
51
43
207
51
43
207
51
43
207
51
43
207
51
43
207
51
43
207
51
43
207
51
43
207
51
43
207
51
43
207
51
43
207
51
43
207
51
43
207
51
43
207
51
43
207
51
43
207
51
43
207
51
43
207
51
43
207
255
255
255
255
255
255
255
255
255
255
255
255
255
255
255
255
255
255
255
255
255
255
255
255
255
255
255
255
255
255
255
255
255
255
255
255
255
255
255
255
255
255
255
255
255
255
255
255
255
255
255
255
255
255
255
255
255
255
255
255
255
255
255
255
255
255
255
255
255
255
255
255
255
255
255
255
255
255
255
255
255
255
255
255
255
255
255
255
255
255
255
255
255
255
255
255
255
255
255
255
255
255
255
255
255
255
255
255
255
255
255
255
255
255
255
255
255
255
255
255
255
255
255
255
255
255
255
255
255
255
255
255
255
255
255
255
255
255
255
255
255
255
255
255
255
255
255
255
255
255
255
255
255
255
255
255
255
255
255
255
255
255
51
43
207
51
43
207
51
43
207
51
43
207
51
43
207
51
43
207
51
43
207
51
43
207
51
43
207
51
43
207
51
43
207
51
43
207
51
43
207
51
43
207
51
43
207
51
43
207
51
43
207
51
43
207
51
43
207
51
43
207
51
43
207
51
43
207
51
43
207
51
43
207
51
43
207
51
43
207
51
43
207
51
43
207
51
43
207
51
43
207
51
43
207
51
43
207
51
43
207
51
43
207
51
43
207
51
43
207
51
43
207
51
43
207
255
255
255
255
255
255
255
255
255
255
255
255
255
255
255
255
255
255
255
255
255
255
255
255
255
255
255
255
255
255
255
255
255
255
255
255
255
255
255
255
255
255
255
255
255
255
255
255
255
255
255
255
255
255
255
255
255
255
255
255
255
255
255
255
255
255
255
255
255
255
255
255
255
255
255
255
255
255
255
255
255
255
255
255
255
255
255
255
255
255
255
255
255
255
255
255
255
255
255
255
255
255
255
255
255
255
255
255
255
255
255
255
255
255
255
255
255
255
255
255
255
255
255
255
255
255
255
255
255
255
255
255
255
255
255
255
255
255
255
255
255
255
255
255
255
255
255
255
255
255
255
255
255
255
255
255
255
255
255
255
255
255
255
255
255
51
43
207
51
43
207
51
43
207
51
43
207
51
43
207
51
43
207
51
43
207
51
43
207
51
43
207
51
43
207
51
43
207
51
43
207
51
43
207
51
43
207
51
43
207
51
43
207
51
43
207
51
43
207
51
43
207
51
43
207
51
43
207
51
43
207
51
43
207
51
43
207
51
43
207
51
43
207
51
43
207
51
43
207
51
43
207
51
43
207
51
43
207
51
43
207
51
43
207
51
43
207
51
43
207
51
43
207
51
43
207
51
43
207
51
43
207
51
43
207
51
43
207
51
43
207
51
43
207
51
43
207
51
43
207
51
43
207
51
43
207
51
43
207
51
43
207
51
43
207
51
43
207
51
43
207
51
43
207
51
43
207
51
43
207
51
43
207
51
43
207
51
43
207
51
43
207
51
43
207
51
43
207
51
43
207
51
43
207
51
43
207
51
43
207
51
43
207
51
43
207
51
43
207
51
43
207
51
43
207
51
43
207
51
43
207
51
43
207
51
43
207
51
43
207
51
43
207
51
43
207
51
43
207
51
43
207
51
43
207
51
43
207
51
43
207
51
43
207
51
43
207
51
43
207
51
43
207
51
43
207
51
43
207
51
43
207
51
43
207
51
43
207
51
43
207
51
43
207
51
43
207
51
43
207
51
43
207
51
43
207
51
43
207
51
43
207
51
43
207
51
43
207
51
43
207
51
43
207
51
43
207
51
43
207
51
43
207
51
43
207
51
43
207
51
43
207
51
43
207
51
43
207
51
43
207
51
43
207
51
43
207
51
43
207
255
255
255
255
255
255
255
255
255
255
255
255
255
255
255
255
255
255
255
255
255
255
255
255
255
255
255
255
255
255
255
255
255
255
255
255
255
255
255
255
255
255
255
255
255
255
255
255
255
255
255
255
255
255
255
255
255
255
255
255
255
255
255
255
255
255
255
255
255
255
255
255
255
255
255
255
255
255
255
255
255
255
255
255
255
255
255
255
255
255
255
255
255
255
255
255
255
255
255
255
255
255
255
255
255
255
255
255
255
255
255
255
255
255
255
255
255
255
255
255
255
255
255
255
255
255
255
255
255
51
43
207
51
43
207
51
43
207
51
43
207
51
43
207
51
43
207
51
43
207
51
43
207
51
43
207
51
43
207
51
43
207
51
43
207
51
43
207
51
43
207
51
43
207
51
43
207
51
43
207
51
43
207
51
43
207
51
43
207
51
43
207
51
43
207
51
43
207
51
43
207
51
43
207
51
43
207
51
43
207
51
43
207
51
43
207
51
43
207
51
43
207
51
43
207
51
43
207
51
43
207
51
43
207
51
43
207
51
43
207
51
43
207
51
43
207
51
43
207
51
43
207
51
43
207
51
43
207
51
43
207
51
43
207
51
43
207
51
43
207
255
255
255
255
255
255
255
255
255
255
255
255
255
255
255
255
255
255
255
255
255
255
255
255
255
255
255
255
255
255
255
255
255
255
255
255
255
255
255
255
255
255
255
255
255
255
255
255
255
255
255
255
255
255
255
255
255
255
255
255
255
255
255
255
255
255
255
255
255
255
255
255
255
255
255
255
255
255
255
255
255
255
255
255
255
255
255
255
255
255
255
255
255
255
255
255
255
255
255
255
255
255
255
255
255
255
255
255
255
255
255
255
255
255
255
255
255
255
255
255
255
255
255
255
255
255
255
255
255
255
255
255
255
255
255
255
255
255
255
255
255
255
255
255
51
43
207
51
43
207
51
43
207
51
43
207
51
43
207
51
43
207
51
43
207
51
43
207
51
43
207
51
43
207
51
43
207
51
43
207
51
43
207
51
43
207
51
43
207
51
43
207
51
43
207
51
43
207
51
43
207
51
43
207
51
43
207
51
43
207
51
43
207
51
43
207
51
43
207
51
43
207
51
43
207
51
43
207
51
43
207
51
43
207
51
43
207
51
43
207
51
43
207
51
43
207
51
43
207
51
43
207
51
43
207
51
43
207
51
43
207
51
43
207
51
43
207
51
43
207
51
43
207
51
43
207
51
43
207
51
43
207
51
43
207
51
43
207
51
43
207
51
43
207
51
43
207
51
43
207
51
43
207
51
43
207
51
43
207
51
43
207
51
43
207
51
43
207
51
43
207
51
43
207
51
43
207
51
43
207
51
43
207
51
43
207
51
43
207
51
43
207
51
43
207
51
43
207
51
43
207
51
43
207
51
43
207
51
43
207
51
43
207
51
43
207
51
43
207
51
43
207
51
43
207
51
43
207
51
43
207
51
43
207
51
43
207
51
43
207
51
43
207
51
43
207
51
43
207
51
43
207
51
43
207
51
43
207
51
43
207
51
43
207
51
43
207
51
43
207
51
43
207
51
43
207
51
43
207
51
43
207
51
43
207
51
43
207
51
43
207
51
43
207
51
43
207
51
43
207
51
43
207
51
43
207
51
43
207
51
43
207
51
43
207
51
43
207
51
43
207
51
43
207
51
43
207
51
43
207
51
43
207
51
43
207
51
43
207
51
43
207
51
43
207
51
43
207
51
43
207
51
43
207
51
43
207
51
43
207
51
43
207
51
43
207
51
43
207
51
43
207
51
43
207
51
43
207
51
43
207
51
43
207
51
43
207
51
43
207
51
43
207
51
43
207
51
43
207
51
43
207
51
43
207
51
43
207
51
43
207
51
43
207
51
43
207
51
43
207
51
43
207
51
43
207
51
43
207
51
43
207
51
43
207
51
43
207
51
43
207
51
43
207
51
43
207
51
43
207
51
43
207
51
43
207
51
43
207
51
43
207
51
43
207
51
43
207
51
43
207
51
43
207
51
43
207
51
43
207
51
43
207
51
43
207
51
43
207
51
43
207
51
43
207
51
43
207
51
43
207
51
43
207
51
43
207
51
43
207
51
43
207
51
43
207
51
43
207
51
43
207
51
43
207
51
43
207
51
43
207
51
43
207
51
43
207
51
43
207
51
43
207
51
43
207
51
43
207
51
43
207
51
43
207
51
43
207
51
43
207
51
43
207
51
43
207
51
43
207
51
43
207
51
43
207
51
43
207
51
43
207
51
43
207
51
43
207
51
43
207
51
43
207
51
43
207
51
43
207
51
43
207
51
43
207
51
43
207
51
43
207
51
43
207
51
43
207
51
43
207
51
43
207
51
43
207
51
43
207
51
43
207
51
43
207
51
43
207
51
43
207
51
43
207
51
43
207
51
43
207
51
43
207
51
43
207
51
43
207
51
43
207
51
43
207
255
255
255
51
43
207
255
255
255
255
255
255
255
255
255
255
255
255
255
255
255
255
255
255
255
255
255
255
255
255
255
255
255
51
43
207
255
255
255
51
43
207
255
255
255
51
43
207
51
43
207
51
43
207
51
43
207
51
43
207
51
43
207
51
43
207
51
43
207
51
43
207
51
43
207
51
43
207
51
43
207
51
43
207
51
43
207
51
43
207
51
43
207
51
43
207
51
43
207
51
43
207
51
43
207
51
43
207
51
43
207
51
43
207
51
43
207
51
43
207
51
43
207
51
43
207
51
43
207
51
43
207
51
43
207
51
43
207
51
43
207
51
43
207
51
43
207
51
43
207
51
43
207
51
43
207
51
43
207
51
43
207
51
43
207
51
43
207
51
43
207
51
43
207
51
43
207
51
43
207
51
43
207
51
43
207
51
43
207
51
43
207
51
43
207
51
43
207
51
43
207
51
43
207
51
43
207
51
43
207
51
43
207
51
43
207
51
43
207
51
43
207
51
43
207
51
43
207
51
43
207
51
43
207
51
43
207
51
43
207
51
43
207
51
43
207
51
43
207
51
43
207
51
43
207
51
43
207
51
43
207
51
43
207
51
43
207
51
43
207
51
43
207
51
43
207
51
43
207
51
43
207
51
43
207
51
43
207
51
43
207
51
43
207
51
43
207
51
43
207
51
43
207
51
43
207
51
43
207
51
43
207
51
43
207
51
43
207
51
43
207
51
43
207
51
43
207
51
43
207
51
43
207
51
43
207
51
43
207
51
43
207
51
43
207
51
43
207
51
43
207
51
43
207
51
43
207
51
43
207
51
43
207
51
43
207
51
43
207
51
43
207
51
43
207
51
43
207
51
43
207
51
43
207
51
43
207
51
43
207
51
43
207
51
43
207
51
43
207
51
43
207
51
43
207
51
43
207
51
43
207
51
43
207
51
43
207
51
43
207
51
43
207
51
43
207
51
43
207
51
43
207
51
43
207
51
43
207
51
43
207
51
43
207
51
43
207
51
43
207
51
43
207
51
43
207
51
43
207
51
43
207
51
43
207
51
43
207
51
43
207
51
43
207
51
43
207
51
43
207
51
43
207
51
43
207
51
43
207
51
43
207
51
43
207
51
43
207
51
43
207
51
43
207
51
43
207
51
43
207
51
43
207
51
43
207
51
43
207
51
43
207
51
43
207
51
43
207
51
43
207
51
43
207
51
43
207
51
43
207
51
43
207
51
43
207
51
43
207
51
43
207
51
43
207
51
43
207
51
43
207
51
43
207
51
43
207
51
43
207
51
43
207
51
43
207
51
43
207
51
43
207
51
43
207
51
43
207
51
43
207
51
43
207
51
43
207
51
43
207
51
43
207
51
43
207
51
43
207
51
43
207
51
43
207
51
43
207
51
43
207
51
43
207
51
43
207
51
43
207
51
43
207
51
43
207
51
43
207
51
43
207
51
43
207
51
43
207
51
43
207
51
43
207
51
43
207
51
43
207
51
43
207
51
43
207
51
43
207
51
43
207
51
43
207
51
43
207
51
43
207
51
43
207
51
43
207
51
43
207
51
43
207
51
43
207
51
43
207
51
43
207
51
43
207
51
43
207
51
43
207
51
43
207
51
43
207
51
43
207
51
43
207
51
43
207
51
43
207
51
43
207
51
43
207
51
43
207
51
43
207
51
43
207
51
43
207
51
43
207
51
43
207
51
43
207
51
43
207
51
43
207
51
43
207
51
43
207
51
43
207
51
43
207
51
43
207
51
43
207
51
43
207
51
43
207
51
43
207
51
43
207
51
43
207
51
43
207
51
43
207
51
43
207
51
43
207
51
43
207
51
43
207
51
43
207
51
43
207
51
43
207
51
43
207
51
43
207
51
43
207
51
43
207
51
43
207
51
43
207
51
43
207
51
43
207
51
43
207
51
43
207
51
43
207
51
43
207
51
43
207
51
43
207
51
43
207
51
43
207
51
43
207
51
43
207
51
43
207
51
43
207
51
43
207
51
43
207
51
43
207
51
43
207
51
43
207
51
43
207
51
43
207
51
43
207
51
43
207
51
43
207
51
43
207
51
43
207
51
43
207
51
43
207
51
43
207
51
43
207
51
43
207
51
43
207
51
43
207
51
43
207
51
43
207
51
43
207
51
43
207
51
43
207
51
43
207
51
43
207
51
43
207
51
43
207
51
43
207
51
43
207
51
43
207
51
43
207
51
43
207
51
43
207
51
43
207
51
43
207
51
43
207
51
43
207
51
43
207
51
43
207
51
43
207
51
43
207
51
43
207
51
43
207
51
43
207
51
43
207
51
43
207
51
43
207
51
43
207
51
43
207
51
43
207
51
43
207
51
43
207
51
43
207
51
43
207
51
43
207
51
43
207
51
43
207
51
43
207
51
43
207
51
43
207
51
43
207
51
43
207
51
43
207
51
43
207
51
43
207
51
43
207
51
43
207
51
43
207
51
43
207
51
43
207
51
43
207
51
43
207
51
43
207
51
43
207
51
43
207
51
43
207
51
43
207
51
43
207
51
43
207
51
43
207
51
43
207
51
43
207
51
43
207
51
43
207
51
43
207
51
43
207
51
43
207
51
43
207
51
43
207
51
43
207
51
43
207
51
43
207
51
43
207
51
43
207
51
43
207
51
43
207
51
43
207
51
43
207
51
43
207
51
43
207
51
43
207
51
43
207
51
43
207
51
43
207
51
43
207
51
43
207
51
43
207
51
43
207
51
43
207
51
43
207
51
43
207
51
43
207
51
43
207
51
43
207
51
43
207
51
43
207
51
43
207
51
43
207
51
43
207
51
43
207
51
43
207
51
43
207
51
43
207
51
43
207
51
43
207
51
43
207
51
43
207
51
43
207
51
43
207
51
43
207
51
43
207
51
43
207
51
43
207
51
43
207
51
43
207
51
43
207
51
43
207
51
43
207
51
43
207
51
43
207
51
43
207
51
43
207
51
43
207
51
43
207
51
43
207
51
43
207
51
43
207
51
43
207
51
43
207
51
43
207
51
43
207
51
43
207
51
43
207
51
43
207
51
43
207
51
43
207
51
43
207
51
43
207
51
43
207
51
43
207
51
43
207
51
43
207
51
43
207
51
43
207
51
43
207
51
43
207
51
43
207
51
43
207
51
43
207
51
43
207
51
43
207
51
43
207
51
43
207
51
43
207
51
43
207
51
43
207
51
43
207
51
43
207
51
43
207
51
43
207
51
43
207
51
43
207
51
43
207
51
43
207
51
43
207
51
43
207
51
43
207
51
43
207
51
43
207
51
43
207
51
43
207
51
43
207
51
43
207
51
43
207
51
43
207
51
43
207
51
43
207
51
43
207
51
43
207
51
43
207
51
43
207
51
43
207
51
43
207
51
43
207
51
43
207
51
43
207
51
43
207
51
43
207
51
43
207
51
43
207
51
43
207
51
43
207
51
43
207
51
43
207
51
43
207
51
43
207
51
43
207
51
43
207
51
43
207
51
43
207
51
43
207
51
43
207
51
43
207
51
43
207
51
43
207
51
43
207
51
43
207
51
43
207
51
43
207
51
43
207
51
43
207
51
43
207
51
43
207
51
43
207
51
43
207
51
43
207
51
43
207
51
43
207
51
43
207
51
43
207
51
43
207
51
43
207
51
43
207
51
43
207
51
43
207
51
43
207
51
43
207
51
43
207
51
43
207
51
43
207
51
43
207
51
43
207
51
43
207
51
43
207
51
43
207
51
43
207
51
43
207
51
43
207
51
43
207
51
43
207
51
43
207
51
43
207
51
43
207
51
43
207
51
43
207
51
43
207
51
43
207
51
43
207
51
43
207
51
43
207
51
43
207
51
43
207
51
43
207
51
43
207
51
43
207
51
43
207
51
43
207
51
43
207
51
43
207
51
43
207
51
43
207
51
43
207
51
43
207
51
43
207
51
43
207
51
43
207
51
43
207
51
43
207
51
43
207
51
43
207
51
43
207
51
43
207
51
43
207
51
43
207
51
43
207
51
43
207
51
43
207
51
43
207
51
43
207
51
43
207
51
43
207
51
43
207
51
43
207
51
43
207
51
43
207
51
43
207
51
43
207
51
43
207
51
43
207
51
43
207
51
43
207
51
43
207
51
43
207
51
43
207
51
43
207
51
43
207
51
43
207
51
43
207
51
43
207
51
43
207
51
43
207
51
43
207
51
43
207
51
43
207
51
43
207
51
43
207
51
43
207
51
43
207
51
43
207
51
43
207
51
43
207
51
43
207
51
43
207
51
43
207
51
43
207
51
43
207
51
43
207
51
43
207
51
43
207
51
43
207
51
43
207
51
43
207
51
43
207
51
43
207
51
43
207
51
43
207
51
43
207
51
43
207
51
43
207
51
43
207
51
43
207
51
43
207
51
43
207
51
43
207
51
43
207
51
43
207
51
43
207
51
43
207
51
43
207
51
43
207
51
43
207
51
43
207
51
43
207
51
43
207
51
43
207
51
43
207
51
43
207
51
43
207
51
43
207
51
43
207
51
43
207
51
43
207
51
43
207
51
43
207
51
43
207
51
43
207
51
43
207
51
43
207
51
43
207
51
43
207
51
43
207
51
43
207
51
43
207
51
43
207
51
43
207
51
43
207
51
43
207
51
43
207
51
43
207
51
43
207
51
43
207
51
43
207
51
43
207
51
43
207
51
43
207
51
43
207
51
43
207
51
43
207
51
43
207
51
43
207
51
43
207
51
43
207
51
43
207
51
43
207
51
43
207
51
43
207
51
43
207
51
43
207
51
43
207
51
43
207
51
43
207
51
43
207
51
43
207
51
43
207
51
43
207
51
43
207
51
43
207
51
43
207
51
43
207
51
43
207
51
43
207
51
43
207
51
43
207
51
43
207
51
43
207
51
43
207
51
43
207
51
43
207
51
43
207
51
43
207
51
43
207
51
43
207
51
43
207
51
43
207
51
43
207
51
43
207
51
43
207
51
43
207
51
43
207
51
43
207
51
43
207
51
43
207
51
43
207
51
43
207
51
43
207
51
43
207
51
43
207
51
43
207
51
43
207
51
43
207
51
43
207
51
43
207
51
43
207
51
43
207
51
43
207
51
43
207
51
43
207
51
43
207
51
43
207
51
43
207
51
43
207
51
43
207
51
43
207
51
43
207
51
43
207
51
43
207
51
43
207
51
43
207
51
43
207
51
43
207
51
43
207
51
43
207
51
43
207
51
43
207
51
43
207
51
43
207
51
43
207
51
43
207
51
43
207
51
43
207
51
43
207
51
43
207
51
43
207
51
43
207
51
43
207
51
43
207
51
43
207
51
43
207
51
43
207
51
43
207
51
43
207
51
43
207
51
43
207
51
43
207
51
43
207
51
43
207
51
43
207
51
43
207
51
43
207
51
43
207
51
43
207
51
43
207
51
43
207
51
43
207
51
43
207
51
43
207
51
43
207
51
43
207
51
43
207
51
43
207
51
43
207
51
43
207
51
43
207
51
43
207
51
43
207
51
43
207
51
43
207
51
43
207
51
43
207
51
43
207
51
43
207
51
43
207
51
43
207
51
43
207
51
43
207
51
43
207
51
43
207
51
43
207
51
43
207
51
43
207
51
43
207
51
43
207
51
43
207
51
43
207
51
43
207
51
43
207
51
43
207
51
43
207
51
43
207
51
43
207
51
43
207
51
43
207
51
43
207
51
43
207
51
43
207
51
43
207
51
43
207
51
43
207
51
43
207
51
43
207
51
43
207
51
43
207
51
43
207
51
43
207
51
43
207
51
43
207
51
43
207
51
43
207
51
43
207
51
43
207
51
43
207
51
43
207
51
43
207
51
43
207
51
43
207
51
43
207
51
43
207
51
43
207
51
43
207
51
43
207
51
43
207
51
43
207
51
43
207
51
43
207
51
43
207
51
43
207
51
43
207
51
43
207
51
43
207
51
43
207
51
43
207
51
43
207
51
43
207
51
43
207
51
43
207
51
43
207
51
43
207
51
43
207
51
43
207
51
43
207
51
43
207
51
43
207
51
43
207
51
43
207
51
43
207
51
43
207
51
43
207
51
43
207
51
43
207
51
43
207
51
43
207
51
43
207
51
43
207
51
43
207
51
43
207
51
43
207
51
43
207
51
43
207
51
43
207
51
43
207
51
43
207
51
43
207
51
43
207
51
43
207
51
43
207
51
43
207
51
43
207
51
43
207
51
43
207
51
43
207
51
43
207
51
43
207
51
43
207
51
43
207
51
43
207
51
43
207
51
43
207
51
43
207
51
43
207
51
43
207
51
43
207
51
43
207
51
43
207
51
43
207
51
43
207
51
43
207
51
43
207
51
43
207
51
43
207
51
43
207
51
43
207
51
43
207
51
43
207
51
43
207
51
43
207
51
43
207
51
43
207
51
43
207
51
43
207
51
43
207
51
43
207
51
43
207
51
43
207
51
43
207
51
43
207
51
43
207
51
43
207
51
43
207
51
43
207
51
43
207
51
43
207
51
43
207
51
43
207
51
43
207
51
43
207
51
43
207
51
43
207
51
43
207
51
43
207
51
43
207
51
43
207
51
43
207
51
43
207
51
43
207
51
43
207
51
43
207
51
43
207
51
43
207
51
43
207
51
43
207
51
43
207
51
43
207
51
43
207
51
43
207
51
43
207
51
43
207
51
43
207
51
43
207
51
43
207
51
43
207
51
43
207
51
43
207
51
43
207
51
43
207
51
43
207
51
43
207
51
43
207
51
43
207
51
43
207
51
43
207
51
43
207
51
43
207
51
43
207
51
43
207
51
43
207
51
43
207
51
43
207
51
43
207
51
43
207
51
43
207
51
43
207
51
43
207
51
43
207
51
43
207
51
43
207
51
43
207
51
43
207
51
43
207
51
43
207
51
43
207
51
43
207
51
43
207
255
255
255
255
255
255
255
255
255
255
255
255
255
255
255
255
255
255
255
255
255
255
255
255
255
255
255
255
255
255
255
255
255
255
255
255
255
255
255
255
255
255
255
255
255
255
255
255
255
255
255
255
255
255
255
255
255
51
43
207
255
255
255
51
43
207
51
43
207
51
43
207
51
43
207
51
43
207
51
43
207
51
43
207
51
43
207
51
43
207
51
43
207
51
43
207
51
43
207
51
43
207
51
43
207
51
43
207
51
43
207
51
43
207
51
43
207
51
43
207
51
43
207
51
43
207
51
43
207
51
43
207
51
43
207
51
43
207
51
43
207
51
43
207
51
43
207
51
43
207
51
43
207
51
43
207
51
43
207
51
43
207
51
43
207
51
43
207
51
43
207
51
43
207
51
43
207
51
43
207
51
43
207
51
43
207
51
43
207
51
43
207
51
43
207
51
43
207
51
43
207
51
43
207
51
43
207
51
43
207
51
43
207
51
43
207
51
43
207
51
43
207
51
43
207
51
43
207
51
43
207
51
43
207
51
43
207
51
43
207
51
43
207
51
43
207
51
43
207
51
43
207
51
43
207
51
43
207
51
43
207
51
43
207
51
43
207
51
43
207
51
43
207
51
43
207
51
43
207
51
43
207
51
43
207
51
43
207
51
43
207
51
43
207
51
43
207
51
43
207
51
43
207
51
43
207
51
43
207
51
43
207
51
43
207
51
43
207
51
43
207
51
43
207
51
43
207
51
43
207
51
43
207
51
43
207
51
43
207
51
43
207
51
43
207
51
43
207
51
43
207
51
43
207
51
43
207
51
43
207
51
43
207
51
43
207
51
43
207
51
43
207
51
43
207
51
43
207
51
43
207
51
43
207
51
43
207
51
43
207
51
43
207
51
43
207
51
43
207
51
43
207
51
43
207
51
43
207
51
43
207
51
43
207
51
43
207
51
43
207
51
43
207
51
43
207
51
43
207
51
43
207
51
43
207
51
43
207
51
43
207
51
43
207
51
43
207
51
43
207
51
43
207
51
43
207
51
43
207
51
43
207
51
43
207
51
43
207
51
43
207
51
43
207
255
255
255
255
255
255
255
255
255
255
255
255
255
255
255
255
255
255
255
255
255
255
255
255
255
255
255
255
255
255
255
255
255
255
255
255
255
255
255
255
255
255
255
255
255
255
255
255
255
255
255
255
255
255
255
255
255
255
255
255
255
255
255
255
255
255
255
255
255
255
255
255
255
255
255
255
255
255
255
255
255
255
255
255
255
255
255
255
255
255
255
255
255
255
255
255
255
255
255
255
255
255
255
255
255
255
255
255
255
255
255
255
255
255
255
255
255
255
255
255
255
255
255
255
255
255
255
255
255
255
255
255
255
255
255
51
43
207
51
43
207
51
43
207
51
43
207
51
43
207
51
43
207
51
43
207
51
43
207
51
43
207
51
43
207
51
43
207
51
43
207
51
43
207
51
43
207
51
43
207
51
43
207
51
43
207
51
43
207
51
43
207
51
43
207
51
43
207
51
43
207
51
43
207
51
43
207
51
43
207
51
43
207
51
43
207
51
43
207
51
43
207
51
43
207
51
43
207
51
43
207
51
43
207
51
43
207
51
43
207
51
43
207
51
43
207
51
43
207
51
43
207
255
255
255
255
255
255
255
255
255
255
255
255
255
255
255
255
255
255
255
255
255
255
255
255
255
255
255
255
255
255
255
255
255
255
255
255
255
255
255
255
255
255
255
255
255
255
255
255
255
255
255
255
255
255
255
255
255
255
255
255
255
255
255
255
255
255
255
255
255
255
255
255
255
255
255
255
255
255
255
255
255
255
255
255
255
255
255
255
255
255
255
255
255
255
255
255
255
255
255
255
255
255
255
255
255
255
255
255
255
255
255
255
255
255
255
255
255
255
255
255
255
255
255
255
255
255
255
255
255
255
255
255
255
255
255
255
255
255
255
255
255
255
255
255
255
255
255
51
43
207
51
43
207
51
43
207
51
43
207
51
43
207
51
43
207
51
43
207
51
43
207
51
43
207
51
43
207
51
43
207
51
43
207
51
43
207
51
43
207
51
43
207
51
43
207
51
43
207
51
43
207
51
43
207
51
43
207
51
43
207
51
43
207
51
43
207
51
43
207
51
43
207
51
43
207
51
43
207
51
43
207
51
43
207
51
43
207
51
43
207
51
43
207
51
43
207
51
43
207
51
43
207
51
43
207
51
43
207
51
43
207
51
43
207
51
43
207
51
43
207
51
43
207
51
43
207
51
43
207
51
43
207
51
43
207
51
43
207
51
43
207
51
43
207
51
43
207
51
43
207
51
43
207
51
43
207
51
43
207
51
43
207
51
43
207
51
43
207
51
43
207
51
43
207
51
43
207
51
43
207
51
43
207
51
43
207
51
43
207
51
43
207
51
43
207
51
43
207
51
43
207
51
43
207
51
43
207
51
43
207
51
43
207
51
43
207
51
43
207
51
43
207
51
43
207
51
43
207
51
43
207
51
43
207
51
43
207
51
43
207
51
43
207
51
43
207
51
43
207
51
43
207
51
43
207
51
43
207
51
43
207
51
43
207
51
43
207
51
43
207
51
43
207
51
43
207
51
43
207
51
43
207
51
43
207
51
43
207
51
43
207
51
43
207
51
43
207
51
43
207
51
43
207
51
43
207
51
43
207
51
43
207
51
43
207
51
43
207
51
43
207
51
43
207
51
43
207
51
43
207
51
43
207
51
43
207
51
43
207
51
43
207
51
43
207
51
43
207
51
43
207
255
255
255
255
255
255
255
255
255
255
255
255
255
255
255
255
255
255
255
255
255
255
255
255
255
255
255
255
255
255
255
255
255
255
255
255
255
255
255
255
255
255
255
255
255
255
255
255
255
255
255
255
255
255
255
255
255
255
255
255
255
255
255
255
255
255
255
255
255
255
255
255
255
255
255
255
255
255
255
255
255
255
255
255
255
255
255
255
255
255
255
255
255
255
255
255
255
255
255
255
255
255
255
255
255
255
255
255
255
255
255
255
255
255
255
255
255
255
255
255
255
255
255
255
255
255
255
255
255
255
255
255
255
255
255
255
255
255
255
255
255
255
255
255
255
255
255
255
255
255
255
255
255
255
255
255
255
255
255
255
255
255
51
43
207
51
43
207
51
43
207
51
43
207
51
43
207
51
43
207
51
43
207
51
43
207
51
43
207
51
43
207
51
43
207
51
43
207
51
43
207
51
43
207
51
43
207
51
43
207
51
43
207
51
43
207
51
43
207
51
43
207
51
43
207
51
43
207
51
43
207
51
43
207
51
43
207
51
43
207
51
43
207
51
43
207
51
43
207
51
43
207
51
43
207
51
43
207
255
255
255
255
255
255
255
255
255
255
255
255
255
255
255
255
255
255
255
255
255
255
255
255
255
255
255
255
255
255
255
255
255
255
255
255
255
255
255
255
255
255
255
255
255
255
255
255
255
255
255
255
255
255
255
255
255
255
255
255
255
255
255
255
255
255
255
255
255
255
255
255
255
255
255
255
255
255
255
255
255
255
255
255
255
255
255
255
255
255
255
255
255
255
255
255
255
255
255
255
255
255
255
255
255
255
255
255
255
255
255
255
255
255
255
255
255
255
255
255
255
255
255
255
255
255
255
255
255
255
255
255
255
255
255
255
255
255
255
255
255
255
255
255
255
255
255
255
255
255
255
255
255
255
255
255
255
255
255
255
255
255
51
43
207
51
43
207
51
43
207
51
43
207
51
43
207
51
43
207
51
43
207
51
43
207
51
43
207
51
43
207
51
43
207
51
43
207
51
43
207
51
43
207
51
43
207
51
43
207
51
43
207
51
43
207
51
43
207
51
43
207
51
43
207
51
43
207
51
43
207
51
43
207
51
43
207
51
43
207
51
43
207
51
43
207
51
43
207
51
43
207
51
43
207
51
43
207
51
43
207
51
43
207
51
43
207
51
43
207
51
43
207
51
43
207
51
43
207
51
43
207
51
43
207
51
43
207
51
43
207
51
43
207
51
43
207
51
43
207
51
43
207
51
43
207
51
43
207
51
43
207
51
43
207
51
43
207
51
43
207
51
43
207
51
43
207
51
43
207
51
43
207
51
43
207
51
43
207
51
43
207
51
43
207
51
43
207
51
43
207
51
43
207
51
43
207
51
43
207
51
43
207
51
43
207
51
43
207
51
43
207
51
43
207
51
43
207
51
43
207
51
43
207
51
43
207
51
43
207
51
43
207
51
43
207
51
43
207
51
43
207
51
43
207
51
43
207
51
43
207
51
43
207
51
43
207
51
43
207
51
43
207
51
43
207
51
43
207
51
43
207
51
43
207
51
43
207
51
43
207
51
43
207
51
43
207
51
43
207
51
43
207
51
43
207
51
43
207
51
43
207
51
43
207
51
43
207
51
43
207
51
43
207
51
43
207
51
43
207
51
43
207
51
43
207
51
43
207
51
43
207
51
43
207
51
43
207
51
43
207
51
43
207
51
43
207
51
43
207
51
43
207
51
43
207
51
43
207
51
43
207
255
255
255
255
255
255
255
255
255
255
255
255
255
255
255
255
255
255
255
255
255
255
255
255
255
255
255
255
255
255
255
255
255
255
255
255
255
255
255
255
255
255
255
255
255
255
255
255
255
255
255
255
255
255
255
255
255
255
255
255
255
255
255
255
255
255
255
255
255
255
255
255
255
255
255
255
255
255
255
255
255
255
255
255
255
255
255
255
255
255
255
255
255
255
255
255
255
255
255
255
255
255
255
255
255
255
255
255
255
255
255
255
255
255
255
255
255
255
255
255
255
255
255
255
255
255
255
255
255
255
255
255
255
255
255
255
255
255
255
255
255
51
43
207
51
43
207
51
43
207
51
43
207
51
43
207
51
43
207
51
43
207
51
43
207
51
43
207
51
43
207
51
43
207
51
43
207
51
43
207
51
43
207
51
43
207
51
43
207
51
43
207
51
43
207
51
43
207
51
43
207
51
43
207
51
43
207
51
43
207
51
43
207
51
43
207
51
43
207
51
43
207
51
43
207
51
43
207
51
43
207
51
43
207
51
43
207
51
43
207
51
43
207
51
43
207
51
43
207
51
43
207
51
43
207
51
43
207
255
255
255
51
43
207
255
255
255
255
255
255
255
255
255
255
255
255
255
255
255
255
255
255
255
255
255
255
255
255
255
255
255
255
255
255
255
255
255
255
255
255
255
255
255
255
255
255
255
255
255
255
255
255
255
255
255
255
255
255
255
255
255
255
255
255
255
255
255
255
255
255
255
255
255
255
255
255
255
255
255
255
255
255
255
255
255
255
255
255
255
255
255
255
255
255
255
255
255
255
255
255
255
255
255
255
255
255
255
255
255
255
255
255
255
255
255
255
255
255
255
255
255
255
255
255
255
255
255
255
255
255
255
255
255
51
43
207
51
43
207
51
43
207
51
43
207
51
43
207
51
43
207
51
43
207
51
43
207
51
43
207
51
43
207
51
43
207
51
43
207
51
43
207
51
43
207
51
43
207
51
43
207
51
43
207
51
43
207
51
43
207
51
43
207
51
43
207
51
43
207
51
43
207
51
43
207
51
43
207
51
43
207
51
43
207
51
43
207
51
43
207
51
43
207
51
43
207
51
43
207
51
43
207
51
43
207
51
43
207
51
43
207
51
43
207
51
43
207
51
43
207
51
43
207
51
43
207
51
43
207
51
43
207
51
43
207
51
43
207
51
43
207
51
43
207
51
43
207
51
43
207
51
43
207
51
43
207
51
43
207
51
43
207
51
43
207
51
43
207
51
43
207
51
43
207
51
43
207
51
43
207
51
43
207
51
43
207
51
43
207
51
43
207
51
43
207
51
43
207
51
43
207
51
43
207
51
43
207
51
43
207
51
43
207
51
43
207
51
43
207
51
43
207
51
43
207
51
43
207
51
43
207
51
43
207
51
43
207
51
43
207
51
43
207
51
43
207
51
43
207
51
43
207
51
43
207
51
43
207
51
43
207
51
43
207
51
43
207
51
43
207
51
43
207
51
43
207
51
43
207
51
43
207
51
43
207
51
43
207
51
43
207
51
43
207
51
43
207
51
43
207
51
43
207
51
43
207
51
43
207
51
43
207
51
43
207
51
43
207
51
43
207
51
43
207
51
43
207
51
43
207
51
43
207
51
43
207
51
43
207
51
43
207
51
43
207
51
43
207
51
43
207
51
43
207
51
43
207
51
43
207
51
43
207
51
43
207
51
43
207
51
43
207
51
43
207
51
43
207
51
43
207
51
43
207
51
43
207
51
43
207
51
43
207
51
43
207
51
43
207
51
43
207
51
43
207
51
43
207
51
43
207
51
43
207
51
43
207
51
43
207
51
43
207
51
43
207
255
255
255
51
43
207
255
255
255
255
255
255
51
43
207
255
255
255
255
255
255
255
255
255
255
255
255
51
43
207
255
255
255
255
255
255
51
43
207
255
255
255
51
43
207
51
43
207
51
43
207
51
43
207
51
43
207
51
43
207
51
43
207
51
43
207
51
43
207
51
43
207
51
43
207
51
43
207
51
43
207
51
43
207
51
43
207
51
43
207
51
43
207
51
43
207
51
43
207
51
43
207
51
43
207
51
43
207
51
43
207
51
43
207
51
43
207
51
43
207
51
43
207
51
43
207
51
43
207
51
43
207
51
43
207
51
43
207
51
43
207
51
43
207
51
43
207
51
43
207
51
43
207
51
43
207
51
43
207
51
43
207
51
43
207
51
43
207
51
43
207
51
43
207
51
43
207
51
43
207
51
43
207
51
43
207
51
43
207
51
43
207
51
43
207
51
43
207
51
43
207
51
43
207
51
43
207
51
43
207
51
43
207
51
43
207
51
43
207
51
43
207
51
43
207
51
43
207
51
43
207
51
43
207
51
43
207
51
43
207
51
43
207
51
43
207
51
43
207
51
43
207
51
43
207
51
43
207
51
43
207
51
43
207
51
43
207
51
43
207
51
43
207
51
43
207
51
43
207
51
43
207
51
43
207
51
43
207
51
43
207
51
43
207
51
43
207
51
43
207
51
43
207
51
43
207
51
43
207
51
43
207
51
43
207
51
43
207
51
43
207
51
43
207
51
43
207
51
43
207
51
43
207
51
43
207
51
43
207
51
43
207
51
43
207
51
43
207
51
43
207
51
43
207
51
43
207
51
43
207
51
43
207
51
43
207
51
43
207
51
43
207
51
43
207
51
43
207
51
43
207
51
43
207
51
43
207
51
43
207
51
43
207
51
43
207
51
43
207
51
43
207
51
43
207
51
43
207
51
43
207
51
43
207
51
43
207
51
43
207
51
43
207
51
43
207
51
43
207
51
43
207
51
43
207
51
43
207
51
43
207
51
43
207
51
43
207
51
43
207
51
43
207
51
43
207
51
43
207
51
43
207
51
43
207
51
43
207
51
43
207
51
43
207
51
43
207
51
43
207
51
43
207
51
43
207
51
43
207
51
43
207
51
43
207
51
43
207
51
43
207
51
43
207
51
43
207
51
43
207
51
43
207
51
43
207
51
43
207
51
43
207
51
43
207
51
43
207
51
43
207
51
43
207
51
43
207
51
43
207
51
43
207
51
43
207
51
43
207
51
43
207
51
43
207
51
43
207
51
43
207
51
43
207
51
43
207
51
43
207
51
43
207
51
43
207
51
43
207
51
43
207
51
43
207
51
43
207
51
43
207
51
43
207
51
43
207
51
43
207
51
43
207
51
43
207
51
43
207
51
43
207
51
43
207
51
43
207
51
43
207
51
43
207
51
43
207
51
43
207
51
43
207
51
43
207
51
43
207
51
43
207
51
43
207
51
43
207
51
43
207
51
43
207
51
43
207
51
43
207
51
43
207
51
43
207
51
43
207
51
43
207
51
43
207
51
43
207
51
43
207
51
43
207
51
43
207
51
43
207
51
43
207
51
43
207
51
43
207
51
43
207
51
43
207
51
43
207
51
43
207
51
43
207
51
43
207
51
43
207
51
43
207
51
43
207
51
43
207
51
43
207
51
43
207
51
43
207
51
43
207
51
43
207
51
43
207
51
43
207
51
43
207
51
43
207
51
43
207
51
43
207
51
43
207
51
43
207
51
43
207
51
43
207
51
43
207
51
43
207
51
43
207
51
43
207
51
43
207
51
43
207
51
43
207
51
43
207
51
43
207
51
43
207
51
43
207
51
43
207
51
43
207
51
43
207
51
43
207
51
43
207
51
43
207
51
43
207
51
43
207
51
43
207
51
43
207
51
43
207
51
43
207
51
43
207
51
43
207
51
43
207
51
43
207
51
43
207
51
43
207
51
43
207
51
43
207
51
43
207
51
43
207
51
43
207
51
43
207
51
43
207
51
43
207
51
43
207
51
43
207
51
43
207
51
43
207
51
43
207
51
43
207
51
43
207
51
43
207
51
43
207
51
43
207
51
43
207
51
43
207
51
43
207
51
43
207
51
43
207
51
43
207
51
43
207
51
43
207
51
43
207
51
43
207
51
43
207
51
43
207
51
43
207
51
43
207
51
43
207
51
43
207
51
43
207
51
43
207
51
43
207
51
43
207
51
43
207
51
43
207
51
43
207
51
43
207
51
43
207
51
43
207
51
43
207
51
43
207
51
43
207
51
43
207
51
43
207
51
43
207
51
43
207
51
43
207
51
43
207
51
43
207
51
43
207
51
43
207
51
43
207
51
43
207
51
43
207
51
43
207
51
43
207
51
43
207
51
43
207
51
43
207
51
43
207
51
43
207
51
43
207
51
43
207
51
43
207
51
43
207
51
43
207
51
43
207
51
43
207
51
43
207
51
43
207
51
43
207
51
43
207
51
43
207
51
43
207
51
43
207
51
43
207
51
43
207
51
43
207
51
43
207
51
43
207
51
43
207
51
43
207
51
43
207
51
43
207
51
43
207
51
43
207
51
43
207
51
43
207
51
43
207
51
43
207
51
43
207
51
43
207
51
43
207
51
43
207
51
43
207
51
43
207
51
43
207
51
43
207
51
43
207
51
43
207
51
43
207
51
43
207
51
43
207
51
43
207
51
43
207
51
43
207
51
43
207
51
43
207
51
43
207
51
43
207
51
43
207
51
43
207
51
43
207
51
43
207
51
43
207
51
43
207
51
43
207
51
43
207
51
43
207
51
43
207
51
43
207
51
43
207
51
43
207
51
43
207
51
43
207
51
43
207
51
43
207
51
43
207
51
43
207
51
43
207
51
43
207
51
43
207
51
43
207
51
43
207
51
43
207
51
43
207
51
43
207
51
43
207
51
43
207
51
43
207
51
43
207
51
43
207
51
43
207
51
43
207
51
43
207
51
43
207
51
43
207
51
43
207
51
43
207
51
43
207
51
43
207
51
43
207
51
43
207
51
43
207
51
43
207
51
43
207
51
43
207
51
43
207
51
43
207
51
43
207
51
43
207
51
43
207
51
43
207
51
43
207
51
43
207
51
43
207
51
43
207
51
43
207
51
43
207
51
43
207
51
43
207
51
43
207
51
43
207
51
43
207
51
43
207
51
43
207
51
43
207
51
43
207
51
43
207
51
43
207
51
43
207
51
43
207
51
43
207
51
43
207
51
43
207
51
43
207
51
43
207
51
43
207
51
43
207
51
43
207
51
43
207
51
43
207
51
43
207
51
43
207
51
43
207
51
43
207
51
43
207
51
43
207
51
43
207
51
43
207
51
43
207
51
43
207
51
43
207
51
43
207
51
43
207
51
43
207
51
43
207
51
43
207
51
43
207
51
43
207
51
43
207
51
43
207
51
43
207
51
43
207
51
43
207
51
43
207
51
43
207
51
43
207
51
43
207
51
43
207
51
43
207
51
43
207
51
43
207
51
43
207
51
43
207
51
43
207
51
43
207
51
43
207
51
43
207
51
43
207
51
43
207
51
43
207
51
43
207
51
43
207
51
43
207
51
43
207
51
43
207
51
43
207
51
43
207
51
43
207
51
43
207
51
43
207
51
43
207
51
43
207
51
43
207
51
43
207
51
43
207
51
43
207
51
43
207
51
43
207
51
43
207
51
43
207
51
43
207
51
43
207
51
43
207
51
43
207
51
43
207
51
43
207
51
43
207
51
43
207
51
43
207
51
43
207
51
43
207
51
43
207
51
43
207
51
43
207
51
43
207
51
43
207
51
43
207
51
43
207
51
43
207
51
43
207
51
43
207
51
43
207
51
43
207
51
43
207
51
43
207
51
43
207
51
43
207
51
43
207
51
43
207
51
43
207
51
43
207
51
43
207
51
43
207
51
43
207
51
43
207
51
43
207
51
43
207
51
43
207
51
43
207
51
43
207
51
43
207
51
43
207
51
43
207
51
43
207
51
43
207
51
43
207
51
43
207
51
43
207
51
43
207
51
43
207
51
43
207
51
43
207
51
43
207
51
43
207
51
43
207
51
43
207
51
43
207
51
43
207
51
43
207
51
43
207
51
43
207
51
43
207
51
43
207
51
43
207
51
43
207
51
43
207
51
43
207
51
43
207
51
43
207
51
43
207
51
43
207
51
43
207
51
43
207
51
43
207
51
43
207
51
43
207
51
43
207
51
43
207
51
43
207
51
43
207
51
43
207
51
43
207
51
43
207
51
43
207
51
43
207
51
43
207
51
43
207
51
43
207
51
43
207
51
43
207
51
43
207
51
43
207
51
43
207
51
43
207
51
43
207
51
43
207
51
43
207
51
43
207
51
43
207
51
43
207
51
43
207
51
43
207
51
43
207
51
43
207
51
43
207
51
43
207
51
43
207
51
43
207
51
43
207
51
43
207
51
43
207
51
43
207
51
43
207
51
43
207
51
43
207
51
43
207
51
43
207
51
43
207
51
43
207
51
43
207
51
43
207
51
43
207
51
43
207
51
43
207
51
43
207
51
43
207
51
43
207
51
43
207
51
43
207
51
43
207
51
43
207
51
43
207
51
43
207
51
43
207
51
43
207
51
43
207
51
43
207
51
43
207
51
43
207
51
43
207
51
43
207
51
43
207
51
43
207
51
43
207
51
43
207
51
43
207
51
43
207
51
43
207
51
43
207
51
43
207
51
43
207
51
43
207
51
43
207
51
43
207
51
43
207
51
43
207
51
43
207
51
43
207
51
43
207
51
43
207
51
43
207
51
43
207
51
43
207
51
43
207
51
43
207
51
43
207
51
43
207
51
43
207
51
43
207
51
43
207
51
43
207
51
43
207
51
43
207
51
43
207
51
43
207
51
43
207
51
43
207
51
43
207
51
43
207
51
43
207
51
43
207
51
43
207
51
43
207
51
43
207
51
43
207
51
43
207
51
43
207
51
43
207
51
43
207
51
43
207
51
43
207
51
43
207
51
43
207
51
43
207
51
43
207
51
43
207
51
43
207
51
43
207
51
43
207
51
43
207
51
43
207
51
43
207
51
43
207
51
43
207
51
43
207
51
43
207
51
43
207
51
43
207
51
43
207
51
43
207
51
43
207
51
43
207
51
43
207
51
43
207
51
43
207
51
43
207
51
43
207
51
43
207
51
43
207
51
43
207
51
43
207
51
43
207
51
43
207
51
43
207
51
43
207
51
43
207
51
43
207
51
43
207
51
43
207
51
43
207
51
43
207
51
43
207
51
43
207
51
43
207
51
43
207
51
43
207
51
43
207
51
43
207
51
43
207
51
43
207
51
43
207
51
43
207
51
43
207
51
43
207
51
43
207
51
43
207
51
43
207
51
43
207
51
43
207
51
43
207
51
43
207
51
43
207
51
43
207
51
43
207
51
43
207
51
43
207
51
43
207
51
43
207
51
43
207
51
43
207
51
43
207
51
43
207
51
43
207
51
43
207
51
43
207
51
43
207
51
43
207
51
43
207
51
43
207
51
43
207
51
43
207
51
43
207
51
43
207
51
43
207
51
43
207
51
43
207
51
43
207
51
43
207
51
43
207
51
43
207
51
43
207
51
43
207
51
43
207
51
43
207
51
43
207
51
43
207
51
43
207
51
43
207
51
43
207
51
43
207
51
43
207
51
43
207
51
43
207
51
43
207
51
43
207
51
43
207
51
43
207
51
43
207
51
43
207
51
43
207
51
43
207
51
43
207
51
43
207
51
43
207
51
43
207
51
43
207
51
43
207
51
43
207
51
43
207
51
43
207
51
43
207
51
43
207
51
43
207
51
43
207
51
43
207
51
43
207
51
43
207
51
43
207
51
43
207
51
43
207
51
43
207
51
43
207
51
43
207
51
43
207
51
43
207
51
43
207
51
43
207
51
43
207
51
43
207
51
43
207
51
43
207
51
43
207
51
43
207
51
43
207
51
43
207
51
43
207
51
43
207
51
43
207
51
43
207
51
43
207
51
43
207
51
43
207
51
43
207
51
43
207
51
43
207
51
43
207
51
43
207
51
43
207
51
43
207
51
43
207
51
43
207
51
43
207
51
43
207
51
43
207
51
43
207
51
43
207
51
43
207
51
43
207
51
43
207
51
43
207
51
43
207
51
43
207
51
43
207
51
43
207
51
43
207
51
43
207
51
43
207
51
43
207
51
43
207
51
43
207
51
43
207
51
43
207
51
43
207
51
43
207
51
43
207
51
43
207
51
43
207
51
43
207
51
43
207
51
43
207
51
43
207
51
43
207
51
43
207
51
43
207
51
43
207
51
43
207
51
43
207
51
43
207
51
43
207
51
43
207
51
43
207
51
43
207
51
43
207
51
43
207
51
43
207
51
43
207
51
43
207
51
43
207
51
43
207
51
43
207
51
43
207
51
43
207
51
43
207
51
43
207
51
43
207
51
43
207
51
43
207
51
43
207
51
43
207
51
43
207
51
43
207
51
43
207
51
43
207
51
43
207
51
43
207
51
43
207
51
43
207
51
43
207
51
43
207
51
43
207
51
43
207
51
43
207
51
43
207
51
43
207
51
43
207
51
43
207
51
43
207
51
43
207
51
43
207
51
43
207
51
43
207
51
43
207
51
43
207
51
43
207
51
43
207
51
43
207
51
43
207
51
43
207
51
43
207
51
43
207
51
43
207
51
43
207
51
43
207
51
43
207
51
43
207
51
43
207
51
43
207
51
43
207
51
43
207
51
43
207
51
43
207
51
43
207
51
43
207
51
43
207
51
43
207
51
43
207
51
43
207
51
43
207
51
43
207
51
43
207
51
43
207
51
43
207
51
43
207
51
43
207
51
43
207
51
43
207
51
43
207
51
43
207
51
43
207
51
43
207
51
43
207
51
43
207
51
43
207
51
43
207
51
43
207
51
43
207
51
43
207
51
43
207
51
43
207
51
43
207
51
43
207
51
43
207
51
43
207
51
43
207
51
43
207
51
43
207
51
43
207
51
43
207
51
43
207
51
43
207
51
43
207
51
43
207
51
43
207
51
43
207
51
43
207
51
43
207
51
43
207
51
43
207
51
43
207
51
43
207
51
43
207
51
43
207
51
43
207
51
43
207
51
43
207
51
43
207
51
43
207
51
43
207
51
43
207
51
43
207
51
43
207
51
43
207
51
43
207
51
43
207
51
43
207
51
43
207
51
43
207
51
43
207
51
43
207
51
43
207
51
43
207
51
43
207
51
43
207
51
43
207
51
43
207
51
43
207
51
43
207
51
43
207
51
43
207
51
43
207
51
43
207
51
43
207
51
43
207
51
43
207
51
43
207
51
43
207
51
43
207
51
43
207
51
43
207
51
43
207
51
43
207
51
43
207
51
43
207
51
43
207
51
43
207
51
43
207
51
43
207
51
43
207
51
43
207
51
43
207
51
43
207
51
43
207
51
43
207
51
43
207
51
43
207
51
43
207
51
43
207
51
43
207
51
43
207
51
43
207
51
43
207
51
43
207
51
43
207
51
43
207
51
43
207
51
43
207
51
43
207
51
43
207
51
43
207
51
43
207
51
43
207
51
43
207
51
43
207
51
43
207
51
43
207
51
43
207
51
43
207
51
43
207
51
43
207
51
43
207
51
43
207
51
43
207
51
43
207
51
43
207
51
43
207
51
43
207
51
43
207
51
43
207
51
43
207
51
43
207
51
43
207
51
43
207
51
43
207
51
43
207
51
43
207
51
43
207
51
43
207
51
43
207
51
43
207
51
43
207
51
43
207
51
43
207
51
43
207
51
43
207
51
43
207
51
43
207
51
43
207
51
43
207
51
43
207
51
43
207
51
43
207
51
43
207
51
43
207
51
43
207
51
43
207
51
43
207
51
43
207
51
43
207
51
43
207
51
43
207
51
43
207
51
43
207
51
43
207
51
43
207
51
43
207
51
43
207
51
43
207
51
43
207
51
43
207
51
43
207
51
43
207
51
43
207
51
43
207
51
43
207
51
43
207
51
43
207
51
43
207
51
43
207
51
43
207
51
43
207
51
43
207
51
43
207
51
43
207
51
43
207
51
43
207
51
43
207
51
43
207
51
43
207
51
43
207
51
43
207
51
43
207
51
43
207
51
43
207
51
43
207
51
43
207
51
43
207
51
43
207
51
43
207
51
43
207
51
43
207
51
43
207
51
43
207
51
43
207
51
43
207
51
43
207
51
43
207
51
43
207
51
43
207
51
43
207
51
43
207
51
43
207
51
43
207
51
43
207
51
43
207
51
43
207
51
43
207
51
43
207
51
43
207
51
43
207
51
43
207
51
43
207
51
43
207
51
43
207
51
43
207
51
43
207
51
43
207
51
43
207
51
43
207
51
43
207
51
43
207
51
43
207
51
43
207
51
43
207
51
43
207
51
43
207
51
43
207
51
43
207
51
43
207
51
43
207
51
43
207
51
43
207
51
43
207
51
43
207
51
43
207
51
43
207
51
43
207
51
43
207
51
43
207
51
43
207
51
43
207
51
43
207
51
43
207
51
43
207
51
43
207
51
43
207
51
43
207
51
43
207
51
43
207
51
43
207
51
43
207
51
43
207
51
43
207
51
43
207
51
43
207
51
43
207
51
43
207
51
43
207
51
43
207
51
43
207
51
43
207
51
43
207
51
43
207
51
43
207
51
43
207
51
43
207
51
43
207
51
43
207
51
43
207
51
43
207
51
43
207
51
43
207
51
43
207
51
43
207
51
43
207
51
43
207
51
43
207
51
43
207
51
43
207
51
43
207
51
43
207
51
43
207
51
43
207
51
43
207
51
43
207
51
43
207
51
43
207
51
43
207
51
43
207
51
43
207
51
43
207
51
43
207
51
43
207
51
43
207
51
43
207
51
43
207
51
43
207
51
43
207
51
43
207
51
43
207
51
43
207
51
43
207
51
43
207
51
43
207
51
43
207
51
43
207
51
43
207
51
43
207
51
43
207
51
43
207
51
43
207
51
43
207
51
43
207
51
43
207
51
43
207
51
43
207
51
43
207
51
43
207
51
43
207
51
43
207
51
43
207
51
43
207
51
43
207
51
43
207
51
43
207
51
43
207
51
43
207
51
43
207
51
43
207
51
43
207
51
43
207
51
43
207
51
43
207
51
43
207
51
43
207
51
43
207
51
43
207
51
43
207
51
43
207
51
43
207
51
43
207
51
43
207
51
43
207
51
43
207
51
43
207
51
43
207
51
43
207
51
43
207
51
43
207
51
43
207
51
43
207
51
43
207
51
43
207
51
43
207
51
43
207
51
43
207
51
43
207
51
43
207
51
43
207
51
43
207
51
43
207
51
43
207
51
43
207
51
43
207
51
43
207
51
43
207
51
43
207
51
43
207
51
43
207
51
43
207
51
43
207
51
43
207
51
43
207
51
43
207
51
43
207
51
43
207
51
43
207
51
43
207
51
43
207
51
43
207
51
43
207
51
43
207
51
43
207
51
43
207
51
43
207
51
43
207
51
43
207
51
43
207
51
43
207
51
43
207
51
43
207
51
43
207
51
43
207
51
43
207
51
43
207
51
43
207
51
43
207
51
43
207
51
43
207
51
43
207
51
43
207
51
43
207
51
43
207
51
43
207
51
43
207
51
43
207
51
43
207
51
43
207
51
43
207
51
43
207
51
43
207
51
43
207
51
43
207
51
43
207
51
43
207
51
43
207
51
43
207
51
43
207
51
43
207
51
43
207
51
43
207
51
43
207
51
43
207
51
43
207
51
43
207
51
43
207
51
43
207
51
43
207
51
43
207
51
43
207
51
43
207
51
43
207
51
43
207
51
43
207
51
43
207
51
43
207
51
43
207
51
43
207
51
43
207
51
43
207
51
43
207
51
43
207
51
43
207
51
43
207
51
43
207
51
43
207
51
43
207
51
43
207
51
43
207
51
43
207
51
43
207
51
43
207
51
43
207
51
43
207
51
43
207
51
43
207
51
43
207
51
43
207
51
43
207
51
43
207
51
43
207
51
43
207
51
43
207
51
43
207
51
43
207
51
43
207
51
43
207
51
43
207
51
43
207
51
43
207
51
43
207
51
43
207
51
43
207
51
43
207
51
43
207
51
43
207
51
43
207
51
43
207
51
43
207
51
43
207
51
43
207
51
43
207
51
43
207
51
43
207
51
43
207
51
43
207
51
43
207
51
43
207
51
43
207
51
43
207
51
43
207
51
43
207
51
43
207
51
43
207
51
43
207
51
43
207
51
43
207
51
43
207
51
43
207
51
43
207
51
43
207
51
43
207
51
43
207
51
43
207
51
43
207
51
43
207
51
43
207
51
43
207
255
255
255
51
43
207
255
255
255
255
255
255
255
255
255
255
255
255
255
255
255
255
255
255
255
255
255
255
255
255
255
255
255
255
255
255
255
255
255
255
255
255
255
255
255
255
255
255
255
255
255
255
255
255
255
255
255
255
255
255
255
255
255
255
255
255
255
255
255
255
255
255
255
255
255
255
255
255
255
255
255
255
255
255
255
255
255
255
255
255
255
255
255
255
255
255
255
255
255
255
255
255
255
255
255
255
255
255
255
255
255
255
255
255
255
255
255
255
255
255
255
255
255
51
43
207
51
43
207
51
43
207
51
43
207
51
43
207
51
43
207
51
43
207
51
43
207
51
43
207
51
43
207
51
43
207
51
43
207
51
43
207
51
43
207
51
43
207
51
43
207
51
43
207
51
43
207
51
43
207
51
43
207
51
43
207
51
43
207
51
43
207
51
43
207
51
43
207
51
43
207
51
43
207
51
43
207
51
43
207
51
43
207
51
43
207
51
43
207
51
43
207
51
43
207
51
43
207
51
43
207
51
43
207
51
43
207
51
43
207
51
43
207
51
43
207
51
43
207
51
43
207
51
43
207
51
43
207
51
43
207
51
43
207
255
255
255
255
255
255
255
255
255
255
255
255
255
255
255
255
255
255
255
255
255
255
255
255
255
255
255
255
255
255
255
255
255
255
255
255
255
255
255
255
255
255
255
255
255
255
255
255
255
255
255
255
255
255
255
255
255
255
255
255
255
255
255
255
255
255
255
255
255
255
255
255
255
255
255
255
255
255
255
255
255
255
255
255
255
255
255
255
255
255
255
255
255
255
255
255
255
255
255
255
255
255
255
255
255
255
255
255
255
255
255
255
255
255
255
255
255
255
255
255
255
255
255
255
255
255
255
255
255
255
255
255
51
43
207
51
43
207
51
43
207
51
43
207
51
43
207
51
43
207
51
43
207
51
43
207
51
43
207
51
43
207
51
43
207
51
43
207
51
43
207
51
43
207
51
43
207
51
43
207
51
43
207
51
43
207
51
43
207
51
43
207
51
43
207
51
43
207
51
43
207
51
43
207
51
43
207
51
43
207
51
43
207
51
43
207
51
43
207
51
43
207
51
43
207
51
43
207
51
43
207
51
43
207
51
43
207
51
43
207
51
43
207
51
43
207
51
43
207
51
43
207
51
43
207
51
43
207
51
43
207
51
43
207
51
43
207
51
43
207
51
43
207
51
43
207
51
43
207
51
43
207
51
43
207
51
43
207
51
43
207
51
43
207
51
43
207
51
43
207
51
43
207
51
43
207
51
43
207
51
43
207
51
43
207
51
43
207
51
43
207
51
43
207
51
43
207
51
43
207
51
43
207
51
43
207
51
43
207
51
43
207
51
43
207
51
43
207
51
43
207
51
43
207
51
43
207
51
43
207
51
43
207
51
43
207
51
43
207
51
43
207
51
43
207
51
43
207
51
43
207
51
43
207
51
43
207
51
43
207
51
43
207
51
43
207
51
43
207
51
43
207
51
43
207
51
43
207
51
43
207
51
43
207
51
43
207
51
43
207
51
43
207
51
43
207
51
43
207
51
43
207
51
43
207
51
43
207
51
43
207
51
43
207
51
43
207
51
43
207
51
43
207
51
43
207
51
43
207
51
43
207
51
43
207
51
43
207
51
43
207
51
43
207
51
43
207
51
43
207
51
43
207
51
43
207
51
43
207
255
255
255
255
255
255
255
255
255
255
255
255
255
255
255
255
255
255
255
255
255
255
255
255
255
255
255
255
255
255
255
255
255
255
255
255
255
255
255
255
255
255
255
255
255
255
255
255
255
255
255
255
255
255
255
255
255
255
255
255
255
255
255
255
255
255
255
255
255
255
255
255
255
255
255
255
255
255
255
255
255
255
255
255
255
255
255
255
255
255
255
255
255
255
255
255
255
255
255
255
255
255
255
255
255
255
255
255
255
255
255
255
255
255
255
255
255
255
255
255
255
255
255
255
255
255
255
255
255
255
255
255
255
255
255
255
255
255
255
255
255
255
255
255
255
255
255
255
255
255
255
255
255
255
255
255
255
255
255
51
43
207
51
43
207
51
43
207
51
43
207
51
43
207
51
43
207
51
43
207
51
43
207
51
43
207
51
43
207
51
43
207
51
43
207
51
43
207
51
43
207
51
43
207
51
43
207
51
43
207
51
43
207
51
43
207
51
43
207
51
43
207
51
43
207
51
43
207
51
43
207
51
43
207
51
43
207
51
43
207
51
43
207
51
43
207
51
43
207
51
43
207
51
43
207
51
43
207
51
43
207
51
43
207
255
255
255
255
255
255
255
255
255
255
255
255
255
255
255
255
255
255
255
255
255
255
255
255
255
255
255
255
255
255
255
255
255
255
255
255
255
255
255
255
255
255
255
255
255
255
255
255
255
255
255
255
255
255
255
255
255
255
255
255
255
255
255
255
255
255
255
255
255
255
255
255
255
255
255
255
255
255
255
255
255
255
255
255
255
255
255
255
255
255
255
255
255
255
255
255
255
255
255
255
255
255
255
255
255
255
255
255
255
255
255
255
255
255
255
255
255
255
255
255
255
255
255
255
255
255
255
255
255
255
255
255
255
255
255
255
255
255
255
255
255
255
255
255
255
255
255
255
255
255
255
255
255
255
255
255
255
255
255
255
255
255
255
255
255
51
43
207
51
43
207
51
43
207
51
43
207
51
43
207
51
43
207
51
43
207
51
43
207
51
43
207
51
43
207
51
43
207
51
43
207
51
43
207
51
43
207
51
43
207
51
43
207
51
43
207
51
43
207
51
43
207
51
43
207
51
43
207
51
43
207
51
43
207
51
43
207
51
43
207
51
43
207
51
43
207
51
43
207
51
43
207
51
43
207
51
43
207
51
43
207
51
43
207
51
43
207
51
43
207
51
43
207
51
43
207
51
43
207
51
43
207
51
43
207
51
43
207
51
43
207
51
43
207
51
43
207
51
43
207
51
43
207
51
43
207
51
43
207
51
43
207
51
43
207
51
43
207
51
43
207
51
43
207
51
43
207
51
43
207
51
43
207
51
43
207
51
43
207
51
43
207
51
43
207
51
43
207
51
43
207
51
43
207
51
43
207
51
43
207
51
43
207
51
43
207
51
43
207
51
43
207
51
43
207
51
43
207
51
43
207
51
43
207
51
43
207
51
43
207
51
43
207
51
43
207
51
43
207
51
43
207
51
43
207
51
43
207
51
43
207
51
43
207
51
43
207
51
43
207
51
43
207
51
43
207
51
43
207
51
43
207
51
43
207
51
43
207
51
43
207
51
43
207
51
43
207
51
43
207
51
43
207
51
43
207
51
43
207
51
43
207
51
43
207
51
43
207
51
43
207
51
43
207
51
43
207
51
43
207
51
43
207
51
43
207
51
43
207
51
43
207
51
43
207
51
43
207
51
43
207
51
43
207
51
43
207
255
255
255
255
255
255
255
255
255
255
255
255
255
255
255
255
255
255
255
255
255
255
255
255
255
255
255
255
255
255
255
255
255
255
255
255
255
255
255
255
255
255
255
255
255
255
255
255
255
255
255
255
255
255
255
255
255
255
255
255
255
255
255
255
255
255
255
255
255
255
255
255
255
255
255
255
255
255
255
255
255
255
255
255
255
255
255
255
255
255
255
255
255
255
255
255
255
255
255
255
255
255
255
255
255
255
255
255
255
255
255
255
255
255
255
255
255
255
255
255
255
255
255
255
255
255
255
255
255
255
255
255
255
255
255
255
255
255
255
255
255
255
255
255
255
255
255
255
255
255
51
43
207
51
43
207
51
43
207
51
43
207
51
43
207
51
43
207
51
43
207
51
43
207
51
43
207
51
43
207
51
43
207
51
43
207
51
43
207
51
43
207
51
43
207
51
43
207
51
43
207
51
43
207
51
43
207
51
43
207
51
43
207
51
43
207
51
43
207
51
43
207
51
43
207
51
43
207
51
43
207
51
43
207
51
43
207
51
43
207
51
43
207
51
43
207
51
43
207
51
43
207
51
43
207
51
43
207
51
43
207
51
43
207
51
43
207
51
43
207
255
255
255
255
255
255
255
255
255
255
255
255
255
255
255
255
255
255
255
255
255
255
255
255
255
255
255
255
255
255
255
255
255
255
255
255
255
255
255
255
255
255
255
255
255
255
255
255
255
255
255
255
255
255
255
255
255
255
255
255
255
255
255
255
255
255
255
255
255
255
255
255
255
255
255
255
255
255
255
255
255
255
255
255
255
255
255
255
255
255
255
255
255
255
255
255
255
255
255
255
255
255
255
255
255
255
255
255
255
255
255
255
255
255
255
255
255
255
255
255
255
255
255
255
255
255
255
255
255
255
255
255
255
255
255
255
255
255
255
255
255
255
255
255
255
255
255
51
43
207
51
43
207
51
43
207
51
43
207
51
43
207
51
43
207
51
43
207
51
43
207
51
43
207
51
43
207
51
43
207
51
43
207
51
43
207
51
43
207
51
43
207
51
43
207
51
43
207
51
43
207
51
43
207
51
43
207
51
43
207
51
43
207
51
43
207
51
43
207
51
43
207
51
43
207
51
43
207
51
43
207
51
43
207
51
43
207
51
43
207
51
43
207
51
43
207
51
43
207
51
43
207
51
43
207
51
43
207
51
43
207
51
43
207
51
43
207
51
43
207
51
43
207
51
43
207
51
43
207
51
43
207
51
43
207
51
43
207
51
43
207
51
43
207
51
43
207
51
43
207
51
43
207
51
43
207
51
43
207
51
43
207
51
43
207
51
43
207
51
43
207
51
43
207
51
43
207
51
43
207
51
43
207
51
43
207
51
43
207
51
43
207
51
43
207
51
43
207
51
43
207
51
43
207
51
43
207
51
43
207
51
43
207
51
43
207
51
43
207
51
43
207
51
43
207
51
43
207
51
43
207
51
43
207
51
43
207
51
43
207
51
43
207
51
43
207
51
43
207
51
43
207
51
43
207
51
43
207
51
43
207
51
43
207
51
43
207
51
43
207
51
43
207
51
43
207
51
43
207
51
43
207
51
43
207
51
43
207
51
43
207
51
43
207
51
43
207
51
43
207
51
43
207
51
43
207
51
43
207
51
43
207
51
43
207
51
43
207
51
43
207
51
43
207
51
43
207
51
43
207
51
43
207
51
43
207
51
43
207
51
43
207
51
43
207
51
43
207
51
43
207
51
43
207
51
43
207
51
43
207
51
43
207
51
43
207
51
43
207
51
43
207
51
43
207
51
43
207
51
43
207
255
255
255
51
43
207
255
255
255
255
255
255
255
255
255
255
255
255
255
255
255
255
255
255
255
255
255
255
255
255
255
255
255
255
255
255
255
255
255
255
255
255
255
255
255
255
255
255
255
255
255
255
255
255
255
255
255
255
255
255
255
255
255
255
255
255
255
255
255
255
255
255
255
255
255
255
255
255
51
43
207
255
255
255
51
43
207
51
43
207
51
43
207
51
43
207
51
43
207
51
43
207
51
43
207
51
43
207
51
43
207
51
43
207
51
43
207
51
43
207
51
43
207
51
43
207
51
43
207
51
43
207
51
43
207
51
43
207
51
43
207
51
43
207
51
43
207
51
43
207
51
43
207
51
43
207
51
43
207
51
43
207
51
43
207
51
43
207
51
43
207
51
43
207
51
43
207
51
43
207
51
43
207
51
43
207
51
43
207
51
43
207
51
43
207
51
43
207
51
43
207
51
43
207
51
43
207
51
43
207
51
43
207
51
43
207
51
43
207
51
43
207
51
43
207
51
43
207
51
43
207
51
43
207
51
43
207
51
43
207
51
43
207
51
43
207
51
43
207
51
43
207
51
43
207
51
43
207
51
43
207
51
43
207
51
43
207
51
43
207
51
43
207
51
43
207
51
43
207
51
43
207
255
255
255
51
43
207
255
255
255
255
255
255
255
255
255
255
255
255
255
255
255
255
255
255
255
255
255
255
255
255
255
255
255
255
255
255
255
255
255
255
255
255
255
255
255
255
255
255
255
255
255
255
255
255
51
43
207
255
255
255
51
43
207
51
43
207
51
43
207
51
43
207
51
43
207
51
43
207
51
43
207
51
43
207
51
43
207
51
43
207
51
43
207
51
43
207
51
43
207
51
43
207
51
43
207
51
43
207
51
43
207
51
43
207
51
43
207
51
43
207
51
43
207
51
43
207
51
43
207
51
43
207
51
43
207
51
43
207
51
43
207
51
43
207
51
43
207
51
43
207
51
43
207
51
43
207
51
43
207
51
43
207
51
43
207
51
43
207
51
43
207
51
43
207
51
43
207
51
43
207
51
43
207
51
43
207
51
43
207
51
43
207
51
43
207
51
43
207
51
43
207
51
43
207
51
43
207
51
43
207
51
43
207
51
43
207
51
43
207
51
43
207
51
43
207
51
43
207
51
43
207
51
43
207
51
43
207
51
43
207
51
43
207
51
43
207
51
43
207
51
43
207
51
43
207
51
43
207
51
43
207
51
43
207
51
43
207
51
43
207
51
43
207
51
43
207
51
43
207
51
43
207
51
43
207
51
43
207
51
43
207
51
43
207
51
43
207
51
43
207
51
43
207
51
43
207
51
43
207
51
43
207
51
43
207
51
43
207
51
43
207
51
43
207
51
43
207
51
43
207
51
43
207
51
43
207
51
43
207
51
43
207
51
43
207
51
43
207
51
43
207
51
43
207
51
43
207
51
43
207
51
43
207
51
43
207
51
43
207
51
43
207
51
43
207
51
43
207
51
43
207
51
43
207
51
43
207
51
43
207
51
43
207
51
43
207
51
43
207
51
43
207
51
43
207
51
43
207
51
43
207
51
43
207
51
43
207
51
43
207
51
43
207
51
43
207
51
43
207
51
43
207
51
43
207
51
43
207
51
43
207
51
43
207
51
43
207
51
43
207
51
43
207
51
43
207
51
43
207
51
43
207
51
43
207
51
43
207
51
43
207
51
43
207
51
43
207
51
43
207
51
43
207
51
43
207
51
43
207
51
43
207
51
43
207
51
43
207
51
43
207
51
43
207
51
43
207
51
43
207
51
43
207
51
43
207
51
43
207
51
43
207
51
43
207
51
43
207
51
43
207
51
43
207
51
43
207
51
43
207
51
43
207
51
43
207
51
43
207
51
43
207
51
43
207
51
43
207
51
43
207
51
43
207
51
43
207
51
43
207
51
43
207
51
43
207
51
43
207
51
43
207
51
43
207
51
43
207
51
43
207
51
43
207
51
43
207
51
43
207
51
43
207
51
43
207
51
43
207
51
43
207
51
43
207
51
43
207
51
43
207
51
43
207
51
43
207
51
43
207
51
43
207
51
43
207
51
43
207
51
43
207
51
43
207
51
43
207
51
43
207
51
43
207
51
43
207
51
43
207
51
43
207
51
43
207
51
43
207
51
43
207
51
43
207
51
43
207
51
43
207
51
43
207
51
43
207
51
43
207
51
43
207
51
43
207
51
43
207
51
43
207
51
43
207
51
43
207
51
43
207
51
43
207
51
43
207
51
43
207
51
43
207
51
43
207
51
43
207
51
43
207
51
43
207
51
43
207
51
43
207
51
43
207
51
43
207
51
43
207
51
43
207
51
43
207
51
43
207
51
43
207
51
43
207
51
43
207
51
43
207
51
43
207
51
43
207
51
43
207
51
43
207
51
43
207
51
43
207
51
43
207
51
43
207
51
43
207
51
43
207
51
43
207
51
43
207
51
43
207
51
43
207
51
43
207
51
43
207
51
43
207
51
43
207
51
43
207
51
43
207
51
43
207
51
43
207
51
43
207
51
43
207
51
43
207
51
43
207
51
43
207
51
43
207
51
43
207
51
43
207
51
43
207
51
43
207
51
43
207
51
43
207
51
43
207
51
43
207
51
43
207
51
43
207
51
43
207
51
43
207
51
43
207
51
43
207
51
43
207
51
43
207
51
43
207
51
43
207
51
43
207
51
43
207
51
43
207
51
43
207
51
43
207
51
43
207
51
43
207
51
43
207
51
43
207
51
43
207
51
43
207
51
43
207
51
43
207
51
43
207
51
43
207
51
43
207
51
43
207
51
43
207
51
43
207
51
43
207
51
43
207
51
43
207
51
43
207
51
43
207
51
43
207
51
43
207
51
43
207
51
43
207
51
43
207
51
43
207
51
43
207
51
43
207
51
43
207
51
43
207
51
43
207
51
43
207
51
43
207
51
43
207
51
43
207
51
43
207
51
43
207
51
43
207
51
43
207
51
43
207
51
43
207
51
43
207
51
43
207
51
43
207
51
43
207
51
43
207
51
43
207
51
43
207
51
43
207
51
43
207
51
43
207
51
43
207
51
43
207
51
43
207
51
43
207
51
43
207
51
43
207
51
43
207
51
43
207
51
43
207
51
43
207
51
43
207
51
43
207
51
43
207
51
43
207
51
43
207
51
43
207
51
43
207
51
43
207
51
43
207
51
43
207
51
43
207
51
43
207
51
43
207
51
43
207
51
43
207
51
43
207
51
43
207
51
43
207
51
43
207
51
43
207
51
43
207
51
43
207
51
43
207
51
43
207
51
43
207
51
43
207
51
43
207
51
43
207
51
43
207
51
43
207
51
43
207
51
43
207
51
43
207
51
43
207
51
43
207
51
43
207
51
43
207
51
43
207
51
43
207
51
43
207
51
43
207
51
43
207
51
43
207
51
43
207
51
43
207
51
43
207
51
43
207
51
43
207
51
43
207
51
43
207
51
43
207
51
43
207
51
43
207
51
43
207
51
43
207
51
43
207
51
43
207
51
43
207
51
43
207
51
43
207
51
43
207
51
43
207
51
43
207
51
43
207
51
43
207
51
43
207
51
43
207
51
43
207
51
43
207
51
43
207
51
43
207
51
43
207
51
43
207
51
43
207
51
43
207
51
43
207
51
43
207
51
43
207
51
43
207
51
43
207
51
43
207
51
43
207
51
43
207
51
43
207
51
43
207
51
43
207
51
43
207
51
43
207
51
43
207
51
43
207
51
43
207
51
43
207
51
43
207
51
43
207
51
43
207
51
43
207
51
43
207
51
43
207
51
43
207
51
43
207
51
43
207
51
43
207
51
43
207
51
43
207
51
43
207
51
43
207
51
43
207
51
43
207
51
43
207
51
43
207
51
43
207
51
43
207
51
43
207
51
43
207
51
43
207
51
43
207
51
43
207
51
43
207
51
43
207
51
43
207
51
43
207
51
43
207
51
43
207
51
43
207
51
43
207
51
43
207
51
43
207
51
43
207
51
43
207
51
43
207
51
43
207
51
43
207
51
43
207
51
43
207
51
43
207
51
43
207
51
43
207
51
43
207
51
43
207
51
43
207
51
43
207
51
43
207
51
43
207
51
43
207
51
43
207
51
43
207
51
43
207
51
43
207
51
43
207
51
43
207
51
43
207
51
43
207
51
43
207
51
43
207
51
43
207
51
43
207
51
43
207
51
43
207
51
43
207
51
43
207
51
43
207
51
43
207
51
43
207
51
43
207
51
43
207
51
43
207
51
43
207
51
43
207
51
43
207
51
43
207
51
43
207
51
43
207
51
43
207
51
43
207
51
43
207
51
43
207
51
43
207
51
43
207
51
43
207
51
43
207
51
43
207
51
43
207
51
43
207
51
43
207
51
43
207
51
43
207
51
43
207
51
43
207
51
43
207
51
43
207
51
43
207
51
43
207
51
43
207
51
43
207
51
43
207
51
43
207
51
43
207
51
43
207
51
43
207
51
43
207
51
43
207
51
43
207
51
43
207
51
43
207
51
43
207
51
43
207
51
43
207
51
43
207
51
43
207
51
43
207
51
43
207
51
43
207
51
43
207
51
43
207
51
43
207
51
43
207
51
43
207
51
43
207
51
43
207
51
43
207
51
43
207
51
43
207
51
43
207
51
43
207
51
43
207
51
43
207
51
43
207
51
43
207
51
43
207
51
43
207
51
43
207
51
43
207
51
43
207
51
43
207
51
43
207
51
43
207
51
43
207
51
43
207
51
43
207
51
43
207
51
43
207
51
43
207
51
43
207
51
43
207
51
43
207
51
43
207
51
43
207
51
43
207
51
43
207
51
43
207
51
43
207
51
43
207
51
43
207
51
43
207
51
43
207
51
43
207
51
43
207
51
43
207
51
43
207
51
43
207
51
43
207
51
43
207
51
43
207
51
43
207
51
43
207
51
43
207
51
43
207
51
43
207
51
43
207
51
43
207
51
43
207
51
43
207
51
43
207
51
43
207
51
43
207
51
43
207
51
43
207
51
43
207
51
43
207
51
43
207
51
43
207
51
43
207
51
43
207
51
43
207
51
43
207
51
43
207
51
43
207
51
43
207
51
43
207
51
43
207
51
43
207
51
43
207
51
43
207
51
43
207
51
43
207
51
43
207
51
43
207
51
43
207
51
43
207
51
43
207
51
43
207
51
43
207
51
43
207
51
43
207
51
43
207
51
43
207
51
43
207
51
43
207
51
43
207
51
43
207
51
43
207
51
43
207
51
43
207
51
43
207
51
43
207
51
43
207
51
43
207
51
43
207
51
43
207
51
43
207
51
43
207
51
43
207
51
43
207
51
43
207
51
43
207
51
43
207
51
43
207
51
43
207
51
43
207
51
43
207
51
43
207
51
43
207
51
43
207
51
43
207
51
43
207
51
43
207
51
43
207
51
43
207
51
43
207
51
43
207
51
43
207
51
43
207
51
43
207
51
43
207
51
43
207
51
43
207
51
43
207
51
43
207
51
43
207
51
43
207
51
43
207
51
43
207
51
43
207
51
43
207
51
43
207
51
43
207
51
43
207
51
43
207
51
43
207
51
43
207
51
43
207
51
43
207
51
43
207
51
43
207
51
43
207
51
43
207
51
43
207
51
43
207
51
43
207
51
43
207
51
43
207
51
43
207
51
43
207
51
43
207
51
43
207
51
43
207
51
43
207
51
43
207
51
43
207
51
43
207
51
43
207
51
43
207
51
43
207
51
43
207
51
43
207
51
43
207
51
43
207
51
43
207
51
43
207
51
43
207
51
43
207
51
43
207
51
43
207
51
43
207
51
43
207
51
43
207
51
43
207
51
43
207
51
43
207
51
43
207
51
43
207
51
43
207
51
43
207
51
43
207
51
43
207
51
43
207
51
43
207
51
43
207
51
43
207
51
43
207
51
43
207
51
43
207
51
43
207
51
43
207
51
43
207
51
43
207
51
43
207
51
43
207
51
43
207
51
43
207
51
43
207
51
43
207
51
43
207
51
43
207
51
43
207
51
43
207
51
43
207
51
43
207
51
43
207
51
43
207
51
43
207
51
43
207
51
43
207
51
43
207
51
43
207
51
43
207
51
43
207
51
43
207
51
43
207
51
43
207
51
43
207
51
43
207
51
43
207
51
43
207
51
43
207
51
43
207
51
43
207
51
43
207
51
43
207
51
43
207
51
43
207
51
43
207
51
43
207
51
43
207
51
43
207
51
43
207
51
43
207
51
43
207
51
43
207
51
43
207
51
43
207
51
43
207
51
43
207
51
43
207
51
43
207
51
43
207
51
43
207
51
43
207
51
43
207
51
43
207
51
43
207
51
43
207
51
43
207
51
43
207
51
43
207
51
43
207
51
43
207
51
43
207
51
43
207
51
43
207
51
43
207
51
43
207
51
43
207
51
43
207
51
43
207
51
43
207
51
43
207
51
43
207
51
43
207
51
43
207
51
43
207
51
43
207
51
43
207
51
43
207
51
43
207
51
43
207
51
43
207
51
43
207
51
43
207
51
43
207
51
43
207
51
43
207
51
43
207
51
43
207
51
43
207
51
43
207
51
43
207
51
43
207
51
43
207
51
43
207
51
43
207
51
43
207
51
43
207
51
43
207
51
43
207
51
43
207
51
43
207
51
43
207
51
43
207
51
43
207
51
43
207
51
43
207
51
43
207
51
43
207
51
43
207
51
43
207
51
43
207
51
43
207
51
43
207
51
43
207
51
43
207
51
43
207
51
43
207
51
43
207
51
43
207
51
43
207
51
43
207
51
43
207
51
43
207
51
43
207
51
43
207
51
43
207
51
43
207
51
43
207
51
43
207
51
43
207
51
43
207
51
43
207
51
43
207
51
43
207
51
43
207
51
43
207
51
43
207
51
43
207
51
43
207
51
43
207
51
43
207
51
43
207
51
43
207
51
43
207
51
43
207
51
43
207
255
255
255
51
43
207
255
255
255
255
255
255
255
255
255
255
255
255
255
255
255
255
255
255
255
255
255
255
255
255
255
255
255
255
255
255
255
255
255
255
255
255
255
255
255
255
255
255
255
255
255
255
255
255
255
255
255
255
255
255
255
255
255
255
255
255
255
255
255
255
255
255
51
43
207
255
255
255
51
43
207
51
43
207
51
43
207
51
43
207
51
43
207
51
43
207
51
43
207
51
43
207
51
43
207
51
43
207
51
43
207
51
43
207
51
43
207
51
43
207
51
43
207
51
43
207
51
43
207
51
43
207
51
43
207
51
43
207
51
43
207
51
43
207
51
43
207
51
43
207
51
43
207
51
43
207
51
43
207
51
43
207
51
43
207
51
43
207
51
43
207
51
43
207
51
43
207
51
43
207
51
43
207
51
43
207
51
43
207
51
43
207
51
43
207
51
43
207
51
43
207
51
43
207
51
43
207
51
43
207
51
43
207
51
43
207
51
43
207
51
43
207
51
43
207
51
43
207
51
43
207
51
43
207
51
43
207
51
43
207
51
43
207
51
43
207
51
43
207
51
43
207
51
43
207
51
43
207
51
43
207
51
43
207
51
43
207
51
43
207
255
255
255
51
43
207
255
255
255
51
43
207
255
255
255
255
255
255
255
255
255
255
255
255
255
255
255
255
255
255
255
255
255
255
255
255
51
43
207
255
255
255
255
255
255
51
43
207
255
255
255
51
43
207
51
43
207
51
43
207
51
43
207
51
43
207
51
43
207
51
43
207
51
43
207
51
43
207
51
43
207
51
43
207
51
43
207
51
43
207
51
43
207
51
43
207
51
43
207
51
43
207
51
43
207
51
43
207
51
43
207
51
43
207
51
43
207
51
43
207
51
43
207
51
43
207
51
43
207
51
43
207
51
43
207
51
43
207
51
43
207
51
43
207
51
43
207
51
43
207
51
43
207
51
43
207
51
43
207
51
43
207
51
43
207
51
43
207
51
43
207
51
43
207
51
43
207
51
43
207
51
43
207
51
43
207
51
43
207
51
43
207
51
43
207
51
43
207
51
43
207
51
43
207
51
43
207
51
43
207
51
43
207
51
43
207
51
43
207
51
43
207
51
43
207
51
43
207
51
43
207
51
43
207
51
43
207
51
43
207
51
43
207
51
43
207
51
43
207
51
43
207
51
43
207
51
43
207
51
43
207
51
43
207
51
43
207
51
43
207
51
43
207
51
43
207
51
43
207
51
43
207
51
43
207
51
43
207
51
43
207
51
43
207
51
43
207
51
43
207
51
43
207
51
43
207
51
43
207
51
43
207
51
43
207
51
43
207
51
43
207
51
43
207
51
43
207
51
43
207
51
43
207
51
43
207
51
43
207
51
43
207
51
43
207
51
43
207
51
43
207
51
43
207
51
43
207
51
43
207
51
43
207
51
43
207
51
43
207
51
43
207
51
43
207
51
43
207
51
43
207
51
43
207
51
43
207
51
43
207
51
43
207
51
43
207
51
43
207
51
43
207
51
43
207
51
43
207
51
43
207
51
43
207
51
43
207
51
43
207
51
43
207
51
43
207
51
43
207
51
43
207
51
43
207
51
43
207
51
43
207
51
43
207
51
43
207
51
43
207
51
43
207
51
43
207
51
43
207
51
43
207
255
255
255
255
255
255
255
255
255
255
255
255
255
255
255
255
255
255
255
255
255
255
255
255
255
255
255
255
255
255
255
255
255
255
255
255
255
255
255
255
255
255
255
255
255
255
255
255
255
255
255
255
255
255
255
255
255
255
255
255
255
255
255
255
255
255
255
255
255
255
255
255
255
255
255
255
255
255
255
255
255
255
255
255
255
255
255
255
255
255
255
255
255
255
255
255
255
255
255
255
255
255
255
255
255
255
255
255
255
255
255
255
255
255
255
255
255
255
255
255
255
255
255
255
255
255
255
255
255
255
255
255
255
255
255
255
255
255
255
255
255
255
255
255
255
255
255
51
43
207
51
43
207
51
43
207
51
43
207
51
43
207
51
43
207
51
43
207
51
43
207
51
43
207
51
43
207
51
43
207
51
43
207
51
43
207
51
43
207
51
43
207
51
43
207
51
43
207
51
43
207
51
43
207
51
43
207
51
43
207
51
43
207
51
43
207
51
43
207
51
43
207
51
43
207
51
43
207
51
43
207
51
43
207
51
43
207
51
43
207
51
43
207
51
43
207
51
43
207
51
43
207
51
43
207
51
43
207
255
255
255
255
255
255
255
255
255
255
255
255
255
255
255
255
255
255
255
255
255
255
255
255
255
255
255
255
255
255
255
255
255
255
255
255
255
255
255
255
255
255
255
255
255
255
255
255
255
255
255
255
255
255
255
255
255
255
255
255
255
255
255
255
255
255
255
255
255
255
255
255
255
255
255
255
255
255
255
255
255
255
255
255
255
255
255
255
255
255
255
255
255
255
255
255
255
255
255
255
255
255
255
255
255
255
255
255
255
255
255
255
255
255
255
255
255
255
255
255
255
255
255
255
255
255
255
255
255
255
255
255
255
255
255
255
255
255
255
255
255
255
255
255
51
43
207
51
43
207
51
43
207
51
43
207
51
43
207
51
43
207
51
43
207
51
43
207
51
43
207
51
43
207
51
43
207
51
43
207
51
43
207
51
43
207
51
43
207
51
43
207
51
43
207
51
43
207
51
43
207
51
43
207
51
43
207
51
43
207
51
43
207
51
43
207
51
43
207
51
43
207
51
43
207
51
43
207
51
43
207
51
43
207
51
43
207
51
43
207
51
43
207
51
43
207
51
43
207
51
43
207
51
43
207
51
43
207
51
43
207
51
43
207
51
43
207
51
43
207
51
43
207
51
43
207
51
43
207
51
43
207
51
43
207
51
43
207
51
43
207
51
43
207
51
43
207
51
43
207
51
43
207
51
43
207
51
43
207
51
43
207
51
43
207
51
43
207
51
43
207
51
43
207
51
43
207
51
43
207
51
43
207
51
43
207
51
43
207
51
43
207
51
43
207
51
43
207
51
43
207
51
43
207
51
43
207
51
43
207
51
43
207
51
43
207
51
43
207
51
43
207
51
43
207
51
43
207
51
43
207
51
43
207
51
43
207
51
43
207
51
43
207
51
43
207
51
43
207
51
43
207
51
43
207
51
43
207
51
43
207
51
43
207
51
43
207
51
43
207
51
43
207
51
43
207
51
43
207
51
43
207
51
43
207
51
43
207
51
43
207
51
43
207
51
43
207
51
43
207
51
43
207
51
43
207
51
43
207
51
43
207
51
43
207
51
43
207
51
43
207
51
43
207
51
43
207
51
43
207
51
43
207
51
43
207
51
43
207
51
43
207
51
43
207
51
43
207
51
43
207
51
43
207
51
43
207
255
255
255
255
255
255
255
255
255
255
255
255
255
255
255
255
255
255
255
255
255
255
255
255
255
255
255
255
255
255
255
255
255
255
255
255
255
255
255
255
255
255
255
255
255
255
255
255
255
255
255
255
255
255
255
255
255
255
255
255
255
255
255
255
255
255
255
255
255
255
255
255
255
255
255
255
255
255
255
255
255
255
255
255
255
255
255
255
255
255
255
255
255
255
255
255
255
255
255
255
255
255
255
255
255
255
255
255
255
255
255
255
255
255
255
255
255
255
255
255
255
255
255
255
255
255
255
255
255
255
255
255
255
255
255
255
255
255
255
255
255
255
255
255
255
255
255
255
255
255
255
255
255
255
255
255
255
255
255
51
43
207
51
43
207
51
43
207
51
43
207
51
43
207
51
43
207
51
43
207
51
43
207
51
43
207
51
43
207
51
43
207
51
43
207
51
43
207
51
43
207
51
43
207
51
43
207
51
43
207
51
43
207
51
43
207
51
43
207
51
43
207
51
43
207
51
43
207
51
43
207
51
43
207
51
43
207
51
43
207
51
43
207
51
43
207
51
43
207
51
43
207
51
43
207
255
255
255
255
255
255
255
255
255
255
255
255
255
255
255
255
255
255
255
255
255
255
255
255
255
255
255
255
255
255
255
255
255
255
255
255
255
255
255
255
255
255
255
255
255
255
255
255
255
255
255
255
255
255
255
255
255
255
255
255
255
255
255
255
255
255
255
255
255
255
255
255
255
255
255
255
255
255
255
255
255
255
255
255
255
255
255
255
255
255
255
255
255
255
255
255
255
255
255
255
255
255
255
255
255
255
255
255
255
255
255
255
255
255
255
255
255
255
255
255
255
255
255
255
255
255
255
255
255
255
255
255
255
255
255
255
255
255
255
255
255
255
255
255
255
255
255
255
255
255
255
255
255
255
255
255
255
255
255
255
255
255
51
43
207
51
43
207
51
43
207
51
43
207
51
43
207
51
43
207
51
43
207
51
43
207
51
43
207
51
43
207
51
43
207
51
43
207
51
43
207
51
43
207
51
43
207
51
43
207
51
43
207
51
43
207
51
43
207
51
43
207
51
43
207
51
43
207
51
43
207
51
43
207
51
43
207
51
43
207
51
43
207
51
43
207
51
43
207
51
43
207
51
43
207
51
43
207
51
43
207
51
43
207
51
43
207
51
43
207
51
43
207
51
43
207
51
43
207
51
43
207
51
43
207
51
43
207
51
43
207
51
43
207
51
43
207
51
43
207
51
43
207
51
43
207
51
43
207
51
43
207
51
43
207
51
43
207
51
43
207
51
43
207
51
43
207
51
43
207
51
43
207
51
43
207
51
43
207
51
43
207
51
43
207
51
43
207
51
43
207
51
43
207
51
43
207
51
43
207
51
43
207
51
43
207
51
43
207
51
43
207
51
43
207
51
43
207
51
43
207
51
43
207
51
43
207
51
43
207
51
43
207
51
43
207
51
43
207
51
43
207
51
43
207
51
43
207
51
43
207
51
43
207
51
43
207
51
43
207
51
43
207
51
43
207
51
43
207
51
43
207
51
43
207
51
43
207
51
43
207
51
43
207
51
43
207
51
43
207
51
43
207
51
43
207
51
43
207
51
43
207
51
43
207
51
43
207
51
43
207
51
43
207
51
43
207
51
43
207
51
43
207
51
43
207
51
43
207
51
43
207
51
43
207
51
43
207
51
43
207
51
43
207
51
43
207
51
43
207
51
43
207
51
43
207
51
43
207
51
43
207
51
43
207
51
43
207
255
255
255
255
255
255
255
255
255
255
255
255
255
255
255
255
255
255
255
255
255
255
255
255
255
255
255
255
255
255
255
255
255
255
255
255
255
255
255
255
255
255
255
255
255
255
255
255
255
255
255
255
255
255
255
255
255
255
255
255
255
255
255
255
255
255
255
255
255
255
255
255
255
255
255
255
255
255
255
255
255
255
255
255
255
255
255
255
255
255
255
255
255
255
255
255
255
255
255
255
255
255
255
255
255
255
255
255
255
255
255
255
255
255
255
255
255
255
255
255
255
255
255
255
255
255
51
43
207
51
43
207
51
43
207
51
43
207
51
43
207
51
43
207
51
43
207
51
43
207
51
43
207
51
43
207
51
43
207
51
43
207
51
43
207
51
43
207
51
43
207
51
43
207
51
43
207
51
43
207
51
43
207
51
43
207
51
43
207
51
43
207
51
43
207
51
43
207
51
43
207
51
43
207
51
43
207
51
43
207
51
43
207
51
43
207
51
43
207
51
43
207
51
43
207
51
43
207
51
43
207
51
43
207
51
43
207
51
43
207
51
43
207
51
43
207
51
43
207
51
43
207
255
255
255
255
255
255
255
255
255
255
255
255
255
255
255
255
255
255
255
255
255
255
255
255
255
255
255
255
255
255
255
255
255
255
255
255
255
255
255
255
255
255
255
255
255
255
255
255
255
255
255
255
255
255
255
255
255
255
255
255
255
255
255
255
255
255
255
255
255
255
255
255
255
255
255
255
255
255
255
255
255
255
255
255
255
255
255
255
255
255
255
255
255
255
255
255
255
255
255
255
255
255
255
255
255
255
255
255
255
255
255
255
255
255
255
255
255
255
255
255
255
255
255
255
255
255
255
255
255
255
255
255
255
255
255
255
255
255
51
43
207
51
43
207
51
43
207
51
43
207
51
43
207
51
43
207
51
43
207
51
43
207
51
43
207
51
43
207
51
43
207
51
43
207
51
43
207
51
43
207
51
43
207
51
43
207
51
43
207
51
43
207
51
43
207
51
43
207
51
43
207
51
43
207
51
43
207
51
43
207
51
43
207
51
43
207
51
43
207
51
43
207
51
43
207
51
43
207
51
43
207
51
43
207
51
43
207
51
43
207
51
43
207
51
43
207
51
43
207
51
43
207
51
43
207
51
43
207
51
43
207
51
43
207
51
43
207
51
43
207
51
43
207
51
43
207
51
43
207
51
43
207
51
43
207
51
43
207
51
43
207
51
43
207
51
43
207
51
43
207
51
43
207
51
43
207
51
43
207
51
43
207
51
43
207
51
43
207
51
43
207
51
43
207
51
43
207
51
43
207
51
43
207
51
43
207
51
43
207
51
43
207
51
43
207
51
43
207
51
43
207
51
43
207
51
43
207
51
43
207
51
43
207
51
43
207
51
43
207
51
43
207
51
43
207
51
43
207
51
43
207
51
43
207
51
43
207
51
43
207
51
43
207
51
43
207
51
43
207
51
43
207
51
43
207
51
43
207
51
43
207
51
43
207
51
43
207
51
43
207
51
43
207
51
43
207
51
43
207
51
43
207
51
43
207
51
43
207
51
43
207
51
43
207
51
43
207
51
43
207
51
43
207
51
43
207
51
43
207
51
43
207
51
43
207
51
43
207
51
43
207
51
43
207
51
43
207
51
43
207
51
43
207
51
43
207
51
43
207
51
43
207
51
43
207
51
43
207
51
43
207
51
43
207
51
43
207
51
43
207
51
43
207
51
43
207
51
43
207
51
43
207
51
43
207
51
43
207
51
43
207
51
43
207
51
43
207
51
43
207
51
43
207
51
43
207
51
43
207
51
43
207
51
43
207
51
43
207
51
43
207
51
43
207
51
43
207
51
43
207
51
43
207
51
43
207
51
43
207
51
43
207
51
43
207
51
43
207
51
43
207
51
43
207
51
43
207
51
43
207
51
43
207
51
43
207
51
43
207
51
43
207
51
43
207
51
43
207
51
43
207
51
43
207
51
43
207
51
43
207
51
43
207
51
43
207
51
43
207
51
43
207
51
43
207
51
43
207
51
43
207
51
43
207
51
43
207
51
43
207
51
43
207
51
43
207
51
43
207
51
43
207
51
43
207
51
43
207
51
43
207
51
43
207
51
43
207
51
43
207
51
43
207
51
43
207
51
43
207
51
43
207
51
43
207
51
43
207
51
43
207
51
43
207
51
43
207
51
43
207
51
43
207
51
43
207
51
43
207
51
43
207
51
43
207
51
43
207
51
43
207
51
43
207
51
43
207
51
43
207
51
43
207
51
43
207
51
43
207
51
43
207
51
43
207
51
43
207
51
43
207
51
43
207
51
43
207
51
43
207
51
43
207
51
43
207
51
43
207
51
43
207
51
43
207
51
43
207
51
43
207
51
43
207
51
43
207
51
43
207
51
43
207
51
43
207
51
43
207
51
43
207
51
43
207
51
43
207
51
43
207
51
43
207
51
43
207
51
43
207
51
43
207
51
43
207
51
43
207
51
43
207
51
43
207
51
43
207
51
43
207
51
43
207
51
43
207
51
43
207
51
43
207
51
43
207
51
43
207
51
43
207
51
43
207
51
43
207
51
43
207
51
43
207
51
43
207
51
43
207
51
43
207
51
43
207
51
43
207
51
43
207
51
43
207
51
43
207
51
43
207
51
43
207
51
43
207
51
43
207
51
43
207
51
43
207
51
43
207
51
43
207
51
43
207
51
43
207
51
43
207
51
43
207
51
43
207
51
43
207
51
43
207
51
43
207
51
43
207
51
43
207
51
43
207
51
43
207
51
43
207
51
43
207
51
43
207
51
43
207
51
43
207
51
43
207
51
43
207
51
43
207
51
43
207
51
43
207
51
43
207
51
43
207
51
43
207
51
43
207
51
43
207
51
43
207
51
43
207
51
43
207
51
43
207
51
43
207
51
43
207
51
43
207
51
43
207
51
43
207
51
43
207
51
43
207
51
43
207
51
43
207
51
43
207
51
43
207
51
43
207
51
43
207
51
43
207
51
43
207
51
43
207
51
43
207
51
43
207
51
43
207
51
43
207
51
43
207
51
43
207
51
43
207
51
43
207
51
43
207
51
43
207
51
43
207
51
43
207
51
43
207
51
43
207
51
43
207
51
43
207
51
43
207
51
43
207
51
43
207
51
43
207
51
43
207
51
43
207
51
43
207
51
43
207
51
43
207
51
43
207
51
43
207
51
43
207
51
43
207
51
43
207
51
43
207
51
43
207
51
43
207
51
43
207
51
43
207
51
43
207
51
43
207
51
43
207
51
43
207
51
43
207
51
43
207
51
43
207
51
43
207
51
43
207
51
43
207
51
43
207
51
43
207
51
43
207
51
43
207
51
43
207
51
43
207
51
43
207
51
43
207
51
43
207
51
43
207
51
43
207
51
43
207
51
43
207
51
43
207
51
43
207
51
43
207
51
43
207
51
43
207
51
43
207
51
43
207
51
43
207
51
43
207
51
43
207
51
43
207
51
43
207
51
43
207
51
43
207
51
43
207
51
43
207
51
43
207
51
43
207
51
43
207
51
43
207
51
43
207
51
43
207
51
43
207
51
43
207
51
43
207
51
43
207
51
43
207
51
43
207
51
43
207
51
43
207
51
43
207
51
43
207
51
43
207
51
43
207
51
43
207
51
43
207
51
43
207
51
43
207
51
43
207
51
43
207
51
43
207
51
43
207
51
43
207
51
43
207
51
43
207
51
43
207
51
43
207
51
43
207
51
43
207
51
43
207
51
43
207
51
43
207
51
43
207
51
43
207
51
43
207
51
43
207
51
43
207
51
43
207
51
43
207
51
43
207
51
43
207
51
43
207
51
43
207
51
43
207
51
43
207
51
43
207
51
43
207
51
43
207
51
43
207
51
43
207
51
43
207
51
43
207
51
43
207
51
43
207
51
43
207
51
43
207
51
43
207
51
43
207
51
43
207
51
43
207
51
43
207
51
43
207
51
43
207
51
43
207
51
43
207
51
43
207
51
43
207
51
43
207
51
43
207
51
43
207
51
43
207
51
43
207
51
43
207
51
43
207
51
43
207
51
43
207
51
43
207
51
43
207
51
43
207
51
43
207
51
43
207
51
43
207
51
43
207
51
43
207
51
43
207
51
43
207
51
43
207
51
43
207
51
43
207
51
43
207
51
43
207
51
43
207
51
43
207
51
43
207
51
43
207
51
43
207
51
43
207
51
43
207
51
43
207
51
43
207
51
43
207
51
43
207
51
43
207
51
43
207
51
43
207
51
43
207
51
43
207
51
43
207
51
43
207
51
43
207
51
43
207
51
43
207
51
43
207
51
43
207
51
43
207
51
43
207
51
43
207
51
43
207
51
43
207
51
43
207
51
43
207
51
43
207
51
43
207
51
43
207
51
43
207
51
43
207
51
43
207
51
43
207
51
43
207
51
43
207
51
43
207
51
43
207
51
43
207
51
43
207
51
43
207
51
43
207
51
43
207
51
43
207
51
43
207
51
43
207
51
43
207
51
43
207
51
43
207
51
43
207
51
43
207
51
43
207
51
43
207
51
43
207
51
43
207
51
43
207
51
43
207
51
43
207
51
43
207
51
43
207
51
43
207
51
43
207
51
43
207
51
43
207
51
43
207
51
43
207
51
43
207
51
43
207
51
43
207
51
43
207
51
43
207
51
43
207
51
43
207
51
43
207
51
43
207
51
43
207
51
43
207
51
43
207
51
43
207
51
43
207
51
43
207
51
43
207
51
43
207
51
43
207
51
43
207
51
43
207
51
43
207
51
43
207
51
43
207
51
43
207
51
43
207
51
43
207
51
43
207
51
43
207
51
43
207
51
43
207
51
43
207
51
43
207
51
43
207
51
43
207
51
43
207
51
43
207
51
43
207
51
43
207
51
43
207
51
43
207
51
43
207
51
43
207
51
43
207
51
43
207
51
43
207
51
43
207
51
43
207
51
43
207
51
43
207
51
43
207
51
43
207
51
43
207
51
43
207
51
43
207
51
43
207
51
43
207
51
43
207
51
43
207
51
43
207
51
43
207
51
43
207
51
43
207
51
43
207
51
43
207
51
43
207
51
43
207
51
43
207
51
43
207
51
43
207
51
43
207
51
43
207
51
43
207
51
43
207
51
43
207
51
43
207
51
43
207
51
43
207
51
43
207
51
43
207
51
43
207
51
43
207
51
43
207
51
43
207
51
43
207
51
43
207
51
43
207
51
43
207
51
43
207
51
43
207
51
43
207
51
43
207
51
43
207
51
43
207
51
43
207
51
43
207
51
43
207
51
43
207
51
43
207
51
43
207
51
43
207
51
43
207
51
43
207
51
43
207
51
43
207
51
43
207
51
43
207
51
43
207
51
43
207
51
43
207
51
43
207
51
43
207
51
43
207
51
43
207
51
43
207
51
43
207
51
43
207
51
43
207
51
43
207
51
43
207
51
43
207
51
43
207
51
43
207
51
43
207
51
43
207
51
43
207
51
43
207
51
43
207
51
43
207
51
43
207
51
43
207
51
43
207
51
43
207
51
43
207
51
43
207
51
43
207
51
43
207
51
43
207
51
43
207
51
43
207
51
43
207
51
43
207
51
43
207
51
43
207
51
43
207
51
43
207
51
43
207
51
43
207
51
43
207
51
43
207
51
43
207
51
43
207
51
43
207
51
43
207
51
43
207
51
43
207
51
43
207
51
43
207
51
43
207
51
43
207
51
43
207
51
43
207
51
43
207
51
43
207
51
43
207
51
43
207
51
43
207
51
43
207
51
43
207
51
43
207
51
43
207
51
43
207
51
43
207
51
43
207
51
43
207
51
43
207
51
43
207
51
43
207
51
43
207
51
43
207
51
43
207
51
43
207
51
43
207
51
43
207
51
43
207
51
43
207
51
43
207
51
43
207
51
43
207
51
43
207
51
43
207
51
43
207
51
43
207
51
43
207
51
43
207
51
43
207
51
43
207
51
43
207
51
43
207
51
43
207
51
43
207
51
43
207
51
43
207
51
43
207
51
43
207
51
43
207
51
43
207
51
43
207
51
43
207
51
43
207
51
43
207
51
43
207
51
43
207
51
43
207
51
43
207
51
43
207
51
43
207
51
43
207
51
43
207
51
43
207
51
43
207
51
43
207
51
43
207
51
43
207
51
43
207
51
43
207
51
43
207
51
43
207
51
43
207
51
43
207
51
43
207
51
43
207
51
43
207
51
43
207
51
43
207
51
43
207
51
43
207
51
43
207
51
43
207
51
43
207
51
43
207
51
43
207
51
43
207
51
43
207
51
43
207
51
43
207
51
43
207
51
43
207
51
43
207
51
43
207
51
43
207
51
43
207
51
43
207
51
43
207
51
43
207
51
43
207
51
43
207
51
43
207
51
43
207
51
43
207
51
43
207
51
43
207
51
43
207
51
43
207
51
43
207
51
43
207
51
43
207
51
43
207
51
43
207
51
43
207
51
43
207
51
43
207
51
43
207
51
43
207
51
43
207
51
43
207
51
43
207
51
43
207
51
43
207
51
43
207
51
43
207
51
43
207
51
43
207
51
43
207
51
43
207
51
43
207
51
43
207
51
43
207
51
43
207
51
43
207
51
43
207
51
43
207
51
43
207
51
43
207
51
43
207
51
43
207
51
43
207
51
43
207
51
43
207
51
43
207
51
43
207
51
43
207
51
43
207
51
43
207
51
43
207
51
43
207
51
43
207
51
43
207
51
43
207
51
43
207
51
43
207
51
43
207
51
43
207
51
43
207
51
43
207
51
43
207
51
43
207
51
43
207
51
43
207
51
43
207
51
43
207
51
43
207
51
43
207
51
43
207
51
43
207
51
43
207
51
43
207
51
43
207
51
43
207
51
43
207
51
43
207
51
43
207
51
43
207
51
43
207
51
43
207
51
43
207
51
43
207
51
43
207
51
43
207
51
43
207
51
43
207
51
43
207
51
43
207
51
43
207
51
43
207
51
43
207
51
43
207
51
43
207
51
43
207
51
43
207
51
43
207
51
43
207
51
43
207
51
43
207
51
43
207
51
43
207
51
43
207
51
43
207
51
43
207
51
43
207
51
43
207
51
43
207
51
43
207
51
43
207
51
43
207
51
43
207
51
43
207
51
43
207
51
43
207
51
43
207
51
43
207
51
43
207
51
43
207
51
43
207
51
43
207
51
43
207
51
43
207
51
43
207
51
43
207
51
43
207
51
43
207
51
43
207
51
43
207
51
43
207
51
43
207
51
43
207
51
43
207
51
43
207
51
43
207
51
43
207
51
43
207
51
43
207
51
43
207
51
43
207
51
43
207
51
43
207
51
43
207
51
43
207
51
43
207
51
43
207
51
43
207
51
43
207
51
43
207
51
43
207
51
43
207
51
43
207
51
43
207
51
43
207
51
43
207
51
43
207
51
43
207
51
43
207
51
43
207
51
43
207
51
43
207
51
43
207
51
43
207
51
43
207
51
43
207
51
43
207
51
43
207
51
43
207
51
43
207
51
43
207
51
43
207
51
43
207
51
43
207
51
43
207
51
43
207
51
43
207
51
43
207
51
43
207
51
43
207
51
43
207
51
43
207
51
43
207
51
43
207
51
43
207
51
43
207
51
43
207
51
43
207
51
43
207
51
43
207
51
43
207
51
43
207
51
43
207
51
43
207
51
43
207
51
43
207
51
43
207
51
43
207
51
43
207
51
43
207
51
43
207
51
43
207
51
43
207
51
43
207
51
43
207
51
43
207
51
43
207
51
43
207
51
43
207
51
43
207
51
43
207
51
43
207
51
43
207
51
43
207
51
43
207
51
43
207
51
43
207
51
43
207
51
43
207
51
43
207
51
43
207
51
43
207
51
43
207
51
43
207
51
43
207
51
43
207
51
43
207
51
43
207
51
43
207
51
43
207
51
43
207
51
43
207
51
43
207
51
43
207
51
43
207
51
43
207
51
43
207
51
43
207
51
43
207
51
43
207
51
43
207
51
43
207
51
43
207
51
43
207
51
43
207
51
43
207
51
43
207
51
43
207
51
43
207
51
43
207
51
43
207
51
43
207
51
43
207
51
43
207
51
43
207
51
43
207
51
43
207
51
43
207
51
43
207
51
43
207
51
43
207
51
43
207
51
43
207
51
43
207
51
43
207
51
43
207
51
43
207
51
43
207
51
43
207
51
43
207
51
43
207
51
43
207
51
43
207
51
43
207
51
43
207
51
43
207
51
43
207
51
43
207
51
43
207
51
43
207
51
43
207
51
43
207
51
43
207
51
43
207
51
43
207
51
43
207
51
43
207
51
43
207
51
43
207
51
43
207
51
43
207
51
43
207
51
43
207
51
43
207
51
43
207
51
43
207
51
43
207
51
43
207
51
43
207
51
43
207
51
43
207
51
43
207
51
43
207
51
43
207
51
43
207
51
43
207
51
43
207
51
43
207
51
43
207
51
43
207
51
43
207
51
43
207
51
43
207
51
43
207
51
43
207
51
43
207
51
43
207
51
43
207
51
43
207
51
43
207
51
43
207
51
43
207
51
43
207
51
43
207
51
43
207
51
43
207
51
43
207
51
43
207
51
43
207
51
43
207
51
43
207
51
43
207
51
43
207
51
43
207
51
43
207
51
43
207
51
43
207
51
43
207
51
43
207
51
43
207
51
43
207
51
43
207
51
43
207
51
43
207
51
43
207
51
43
207
51
43
207
51
43
207
51
43
207
51
43
207
51
43
207
51
43
207
51
43
207
51
43
207
51
43
207
51
43
207
51
43
207
51
43
207
51
43
207
51
43
207
51
43
207
51
43
207
51
43
207
51
43
207
51
43
207
51
43
207
51
43
207
51
43
207
51
43
207
51
43
207
51
43
207
51
43
207
51
43
207
51
43
207
51
43
207
51
43
207
51
43
207
51
43
207
51
43
207
51
43
207
51
43
207
51
43
207
51
43
207
51
43
207
51
43
207
51
43
207
51
43
207
51
43
207
51
43
207
51
43
207
51
43
207
51
43
207
51
43
207
51
43
207
51
43
207
51
43
207
51
43
207
51
43
207
51
43
207
51
43
207
51
43
207
51
43
207
51
43
207
51
43
207
51
43
207
51
43
207
51
43
207
51
43
207
51
43
207
51
43
207
51
43
207
51
43
207
51
43
207
51
43
207
51
43
207
51
43
207
51
43
207
51
43
207
51
43
207
51
43
207
51
43
207
51
43
207
51
43
207
51
43
207
51
43
207
51
43
207
51
43
207
51
43
207
51
43
207
51
43
207
51
43
207
51
43
207
51
43
207
51
43
207
51
43
207
51
43
207
51
43
207
51
43
207
51
43
207
51
43
207
51
43
207
51
43
207
51
43
207
51
43
207
51
43
207
51
43
207
51
43
207
51
43
207
51
43
207
51
43
207
51
43
207
51
43
207
51
43
207
51
43
207
51
43
207
51
43
207
51
43
207
51
43
207
51
43
207
51
43
207
51
43
207
51
43
207
51
43
207
51
43
207
51
43
207
51
43
207
51
43
207
51
43
207
51
43
207
51
43
207
51
43
207
51
43
207
51
43
207
51
43
207
51
43
207
51
43
207
51
43
207
51
43
207
51
43
207
51
43
207
51
43
207
51
43
207
51
43
207
51
43
207
51
43
207
51
43
207
51
43
207
51
43
207
51
43
207
51
43
207
51
43
207
51
43
207
51
43
207
51
43
207
51
43
207
51
43
207
51
43
207
51
43
207
51
43
207
51
43
207
51
43
207
51
43
207
51
43
207
51
43
207
51
43
207
51
43
207
51
43
207
51
43
207
51
43
207
51
43
207
51
43
207
51
43
207
51
43
207
51
43
207
51
43
207
51
43
207
51
43
207
51
43
207
51
43
207
51
43
207
51
43
207
51
43
207
51
43
207
51
43
207
51
43
207
51
43
207
51
43
207
51
43
207
51
43
207
51
43
207
51
43
207
51
43
207
51
43
207
51
43
207
51
43
207
51
43
207
51
43
207
51
43
207
51
43
207
51
43
207
51
43
207
51
43
207
51
43
207
51
43
207
51
43
207
51
43
207
51
43
207
51
43
207
51
43
207
51
43
207
51
43
207
51
43
207
51
43
207
51
43
207
51
43
207
51
43
207
51
43
207
51
43
207
51
43
207
51
43
207
51
43
207
51
43
207
51
43
207
51
43
207
51
43
207
51
43
207
51
43
207
51
43
207
51
43
207
51
43
207
51
43
207
51
43
207
51
43
207
51
43
207
51
43
207
51
43
207
51
43
207
51
43
207
51
43
207
51
43
207
51
43
207
51
43
207
51
43
207
51
43
207
51
43
207
51
43
207
51
43
207
51
43
207
51
43
207
51
43
207
51
43
207
51
43
207
51
43
207
51
43
207
51
43
207
51
43
207
51
43
207
51
43
207
51
43
207
51
43
207
51
43
207
51
43
207
51
43
207
51
43
207
51
43
207
51
43
207
51
43
207
51
43
207
51
43
207
51
43
207
51
43
207
51
43
207
51
43
207
51
43
207
51
43
207
51
43
207
51
43
207
51
43
207
51
43
207
51
43
207
51
43
207
51
43
207
51
43
207
51
43
207
51
43
207
51
43
207
51
43
207
51
43
207
51
43
207
51
43
207
51
43
207
51
43
207
51
43
207
51
43
207
51
43
207
51
43
207
51
43
207
51
43
207
51
43
207
51
43
207
51
43
207
51
43
207
51
43
207
51
43
207
51
43
207
51
43
207
51
43
207
51
43
207
51
43
207
51
43
207
51
43
207
51
43
207
51
43
207
51
43
207
51
43
207
51
43
207
51
43
207
51
43
207
51
43
207
51
43
207
51
43
207
51
43
207
51
43
207
51
43
207
51
43
207
51
43
207
51
43
207
51
43
207
51
43
207
51
43
207
51
43
207
51
43
207
51
43
207
51
43
207
51
43
207
51
43
207
51
43
207
51
43
207
51
43
207
51
43
207
51
43
207
51
43
207
51
43
207
51
43
207
51
43
207
51
43
207
51
43
207
51
43
207
51
43
207
51
43
207
51
43
207
51
43
207
51
43
207
51
43
207
51
43
207
51
43
207
51
43
207
51
43
207
51
43
207
51
43
207
51
43
207
51
43
207
51
43
207
51
43
207
51
43
207
51
43
207
51
43
207
51
43
207
51
43
207
51
43
207
51
43
207
51
43
207
51
43
207
51
43
207
51
43
207
51
43
207
51
43
207
51
43
207
51
43
207
51
43
207
51
43
207
51
43
207
51
43
207
51
43
207
51
43
207
51
43
207
51
43
207
51
43
207
51
43
207
51
43
207
51
43
207
51
43
207
51
43
207
51
43
207
51
43
207
51
43
207
51
43
207
51
43
207
51
43
207
51
43
207
51
43
207
51
43
207
51
43
207
51
43
207
51
43
207
51
43
207
51
43
207
51
43
207
51
43
207
51
43
207
51
43
207
51
43
207
51
43
207
51
43
207
51
43
207
51
43
207
51
43
207
51
43
207
51
43
207
51
43
207
51
43
207
51
43
207
51
43
207
51
43
207
51
43
207
51
43
207
51
43
207
51
43
207
51
43
207
51
43
207
51
43
207
51
43
207
51
43
207
51
43
207
51
43
207
51
43
207
51
43
207
51
43
207
51
43
207
51
43
207
51
43
207
51
43
207
51
43
207
51
43
207
51
43
207
51
43
207
51
43
207
51
43
207
51
43
207
51
43
207
51
43
207
51
43
207
51
43
207
51
43
207
51
43
207
51
43
207
51
43
207
51
43
207
51
43
207
51
43
207
51
43
207
51
43
207
51
43
207
51
43
207
51
43
207
51
43
207
51
43
207
51
43
207
51
43
207
51
43
207
51
43
207
51
43
207
51
43
207
51
43
207
51
43
207
51
43
207
51
43
207
51
43
207
51
43
207
51
43
207
51
43
207
51
43
207
51
43
207
51
43
207
51
43
207
51
43
207
51
43
207
51
43
207
51
43
207
51
43
207
51
43
207
51
43
207
51
43
207
51
43
207
51
43
207
51
43
207
51
43
207
51
43
207
51
43
207
51
43
207
51
43
207
51
43
207
51
43
207
51
43
207
51
43
207
51
43
207
51
43
207
51
43
207
51
43
207
51
43
207
51
43
207
51
43
207
51
43
207
51
43
207
51
43
207
51
43
207
51
43
207
51
43
207
51
43
207
51
43
207
51
43
207
51
43
207
51
43
207
51
43
207
51
43
207
51
43
207
51
43
207
51
43
207
51
43
207
51
43
207
51
43
207
51
43
207
51
43
207
51
43
207
51
43
207
51
43
207
51
43
207
51
43
207
51
43
207
51
43
207
51
43
207
51
43
207
51
43
207
51
43
207
51
43
207
51
43
207
51
43
207
51
43
207
51
43
207
51
43
207
51
43
207
51
43
207
51
43
207
51
43
207
51
43
207
51
43
207
51
43
207
51
43
207
51
43
207
51
43
207
51
43
207
51
43
207
51
43
207
51
43
207
51
43
207
51
43
207
51
43
207
51
43
207
51
43
207
51
43
207
51
43
207
51
43
207
51
43
207
51
43
207
51
43
207
51
43
207
51
43
207
51
43
207
51
43
207
51
43
207
51
43
207
51
43
207
51
43
207
51
43
207
51
43
207
51
43
207
51
43
207
51
43
207
51
43
207
51
43
207
51
43
207
51
43
207
51
43
207
51
43
207
51
43
207
51
43
207
51
43
207
51
43
207
51
43
207
51
43
207
51
43
207
51
43
207
51
43
207
51
43
207
51
43
207
51
43
207
51
43
207
51
43
207
51
43
207
51
43
207
51
43
207
51
43
207
51
43
207
51
43
207
51
43
207
51
43
207
51
43
207
51
43
207
51
43
207
51
43
207
51
43
207
51
43
207
51
43
207
51
43
207
51
43
207
51
43
207
51
43
207
51
43
207
51
43
207
51
43
207
51
43
207
51
43
207
51
43
207
51
43
207
51
43
207
51
43
207
51
43
207
51
43
207
51
43
207
51
43
207
51
43
207
51
43
207
51
43
207
51
43
207
51
43
207
51
43
207
51
43
207
51
43
207
51
43
207
51
43
207
51
43
207
51
43
207
51
43
207
51
43
207
51
43
207
51
43
207
51
43
207
51
43
207
51
43
207
51
43
207
51
43
207
51
43
207
51
43
207
51
43
207
51
43
207
51
43
207
51
43
207
51
43
207
51
43
207
51
43
207
51
43
207
51
43
207
51
43
207
51
43
207
51
43
207
51
43
207
51
43
207
51
43
207
51
43
207
51
43
207
51
43
207
51
43
207
51
43
207
51
43
207
51
43
207
51
43
207
51
43
207
51
43
207
51
43
207
51
43
207
51
43
207
51
43
207
51
43
207
51
43
207
51
43
207
51
43
207
51
43
207
51
43
207
51
43
207
51
43
207
51
43
207
51
43
207
51
43
207
51
43
207
51
43
207
51
43
207
51
43
207
51
43
207
51
43
207
51
43
207
51
43
207
51
43
207
51
43
207
51
43
207
51
43
207
51
43
207
51
43
207
51
43
207
51
43
207
51
43
207
51
43
207
51
43
207
51
43
207
51
43
207
51
43
207
51
43
207
51
43
207
51
43
207
51
43
207
51
43
207
51
43
207
51
43
207
51
43
207
51
43
207
51
43
207
51
43
207
51
43
207
51
43
207
51
43
207
51
43
207
51
43
207
51
43
207
51
43
207
51
43
207
51
43
207
51
43
207
51
43
207
51
43
207
51
43
207
51
43
207
51
43
207
51
43
207
51
43
207
51
43
207
51
43
207
51
43
207
51
43
207
51
43
207
51
43
207
51
43
207
51
43
207
51
43
207
51
43
207
51
43
207
51
43
207
51
43
207
51
43
207
51
43
207
51
43
207
51
43
207
51
43
207
51
43
207
51
43
207
51
43
207
51
43
207
51
43
207
51
43
207
51
43
207
51
43
207
51
43
207
51
43
207
51
43
207
51
43
207
51
43
207
51
43
207
51
43
207
51
43
207
51
43
207
51
43
207
51
43
207
51
43
207
51
43
207
51
43
207
51
43
207
51
43
207
51
43
207
51
43
207
51
43
207
51
43
207
51
43
207
51
43
207
51
43
207
51
43
207
51
43
207
51
43
207
51
43
207
51
43
207
51
43
207
51
43
207
51
43
207
51
43
207
51
43
207
51
43
207
51
43
207
51
43
207
51
43
207
51
43
207
51
43
207
51
43
207
51
43
207
51
43
207
51
43
207
51
43
207
51
43
207
51
43
207
51
43
207
51
43
207
51
43
207
51
43
207
51
43
207
51
43
207
51
43
207
51
43
207
51
43
207
51
43
207
51
43
207
51
43
207
51
43
207
51
43
207
51
43
207
51
43
207
51
43
207
51
43
207
51
43
207
51
43
207
51
43
207
51
43
207
51
43
207
51
43
207
51
43
207
51
43
207
51
43
207
51
43
207
51
43
207
51
43
207
51
43
207
51
43
207
51
43
207
51
43
207
51
43
207
51
43
207
51
43
207
51
43
207
51
43
207
51
43
207
51
43
207
51
43
207
51
43
207
51
43
207
51
43
207
51
43
207
51
43
207
51
43
207
51
43
207
51
43
207
51
43
207
51
43
207
51
43
207
51
43
207
51
43
207
51
43
207
51
43
207
51
43
207
51
43
207
51
43
207
51
43
207
51
43
207
51
43
207
51
43
207
51
43
207
51
43
207
51
43
207
51
43
207
51
43
207
51
43
207
51
43
207
51
43
207
51
43
207
51
43
207
51
43
207
51
43
207
51
43
207
51
43
207
51
43
207
51
43
207
51
43
207
51
43
207
51
43
207
51
43
207
51
43
207
51
43
207
51
43
207
51
43
207
51
43
207
51
43
207
51
43
207
51
43
207
51
43
207
51
43
207
51
43
207
51
43
207
51
43
207
51
43
207
51
43
207
51
43
207
51
43
207
51
43
207
51
43
207
51
43
207
51
43
207
51
43
207
51
43
207
51
43
207
51
43
207
51
43
207
51
43
207
51
43
207
51
43
207
51
43
207
51
43
207
51
43
207
51
43
207
51
43
207
51
43
207
51
43
207
51
43
207
51
43
207
51
43
207
51
43
207
51
43
207
51
43
207
51
43
207
51
43
207
51
43
207
51
43
207
51
43
207
51
43
207
51
43
207
51
43
207
51
43
207
51
43
207
51
43
207
51
43
207
51
43
207
51
43
207
51
43
207
51
43
207
51
43
207
51
43
207
51
43
207
51
43
207
51
43
207
51
43
207
51
43
207
51
43
207
51
43
207
51
43
207
51
43
207
51
43
207
51
43
207
51
43
207
51
43
207
51
43
207
51
43
207
51
43
207
51
43
207
51
43
207
51
43
207
51
43
207
51
43
207
51
43
207
51
43
207
51
43
207
51
43
207
51
43
207
51
43
207
51
43
207
51
43
207
51
43
207
51
43
207
51
43
207
51
43
207
51
43
207
51
43
207
51
43
207
51
43
207
51
43
207
51
43
207
51
43
207
51
43
207
51
43
207
51
43
207
51
43
207
51
43
207
51
43
207
51
43
207
51
43
207
51
43
207
51
43
207
51
43
207
51
43
207
51
43
207
51
43
207
51
43
207
51
43
207
51
43
207
51
43
207
51
43
207
51
43
207
51
43
207
51
43
207
51
43
207
51
43
207
51
43
207
51
43
207
51
43
207
51
43
207
51
43
207
51
43
207
51
43
207
51
43
207
51
43
207
51
43
207
51
43
207
51
43
207
51
43
207
51
43
207
51
43
207
51
43
207
51
43
207
51
43
207
51
43
207
51
43
207
51
43
207
51
43
207
51
43
207
51
43
207
51
43
207
51
43
207
51
43
207
51
43
207
51
43
207
51
43
207
51
43
207
51
43
207
51
43
207
51
43
207
51
43
207
51
43
207
51
43
207
51
43
207
51
43
207
51
43
207
51
43
207
51
43
207
51
43
207
51
43
207
51
43
207
51
43
207
51
43
207
51
43
207
51
43
207
51
43
207
51
43
207
51
43
207
51
43
207
51
43
207
51
43
207
51
43
207
51
43
207
51
43
207
51
43
207
51
43
207
51
43
207
51
43
207
51
43
207
51
43
207
51
43
207
51
43
207
51
43
207
51
43
207
51
43
207
51
43
207
51
43
207
51
43
207
51
43
207
51
43
207
51
43
207
51
43
207
51
43
207
51
43
207
51
43
207
51
43
207
51
43
207
51
43
207
51
43
207
51
43
207
51
43
207
51
43
207
51
43
207
51
43
207
51
43
207
51
43
207
51
43
207
51
43
207
51
43
207
51
43
207
51
43
207
51
43
207
51
43
207
51
43
207
51
43
207
51
43
207
51
43
207
51
43
207
51
43
207
51
43
207
51
43
207
51
43
207
51
43
207
51
43
207
51
43
207
51
43
207
51
43
207
51
43
207
51
43
207
51
43
207
51
43
207
51
43
207
51
43
207
51
43
207
51
43
207
51
43
207
51
43
207
51
43
207
51
43
207
51
43
207
51
43
207
51
43
207
51
43
207
51
43
207
51
43
207
51
43
207
51
43
207
51
43
207
51
43
207
51
43
207
51
43
207
51
43
207
51
43
207
51
43
207
51
43
207
51
43
207
51
43
207
51
43
207
51
43
207
51
43
207
51
43
207
51
43
207
51
43
207
51
43
207
51
43
207
51
43
207
51
43
207
51
43
207
51
43
207
51
43
207
51
43
207
51
43
207
51
43
207
51
43
207
51
43
207
51
43
207
51
43
207
51
43
207
51
43
207
51
43
207
51
43
207
51
43
207
51
43
207
51
43
207
51
43
207
51
43
207
51
43
207
51
43
207
51
43
207
51
43
207
51
43
207
51
43
207
51
43
207
51
43
207
51
43
207
51
43
207
51
43
207
51
43
207
51
43
207
51
43
207
51
43
207
51
43
207
51
43
207
51
43
207
51
43
207
51
43
207
51
43
207
51
43
207
51
43
207
51
43
207
51
43
207
51
43
207
51
43
207
51
43
207
51
43
207
51
43
207
51
43
207
51
43
207
51
43
207
51
43
207
51
43
207
51
43
207
51
43
207
51
43
207
51
43
207
51
43
207
51
43
207
51
43
207
51
43
207
51
43
207
51
43
207
51
43
207
51
43
207
51
43
207
51
43
207
51
43
207
51
43
207
51
43
207
51
43
207
51
43
207
51
43
207
51
43
207
51
43
207
51
43
207
51
43
207
51
43
207
51
43
207
51
43
207
51
43
207
51
43
207
51
43
207
51
43
207
51
43
207
51
43
207
51
43
207
51
43
207
51
43
207
51
43
207
51
43
207
51
43
207
51
43
207
51
43
207
51
43
207
51
43
207
51
43
207
51
43
207
51
43
207
51
43
207
51
43
207
51
43
207
51
43
207
51
43
207
51
43
207
51
43
207
51
43
207
51
43
207
51
43
207
51
43
207
51
43
207
51
43
207
51
43
207
51
43
207
51
43
207
51
43
207
51
43
207
51
43
207
51
43
207
51
43
207
51
43
207
51
43
207
51
43
207
51
43
207
51
43
207
51
43
207
51
43
207
51
43
207
51
43
207
51
43
207
51
43
207
51
43
207
51
43
207
51
43
207
51
43
207
51
43
207
51
43
207
51
43
207
51
43
207
51
43
207
51
43
207
51
43
207
51
43
207
51
43
207
51
43
207
51
43
207
51
43
207
51
43
207
51
43
207
51
43
207
51
43
207
51
43
207
51
43
207
51
43
207
51
43
207
51
43
207
51
43
207
51
43
207
51
43
207
51
43
207
51
43
207
51
43
207
51
43
207
51
43
207
51
43
207
51
43
207
51
43
207
51
43
207
51
43
207
51
43
207
51
43
207
51
43
207
51
43
207
51
43
207
51
43
207
51
43
207
51
43
207
51
43
207
51
43
207
51
43
207
51
43
207
51
43
207
51
43
207
51
43
207
51
43
207
51
43
207
51
43
207
51
43
207
51
43
207
51
43
207
51
43
207
51
43
207
51
43
207
51
43
207
51
43
207
51
43
207
51
43
207
51
43
207
51
43
207
51
43
207
51
43
207
51
43
207
51
43
207
51
43
207
51
43
207
51
43
207
51
43
207
51
43
207
51
43
207
51
43
207
51
43
207
51
43
207
51
43
207
51
43
207
51
43
207
51
43
207
51
43
207
51
43
207
51
43
207
51
43
207
51
43
207
51
43
207
51
43
207
51
43
207
51
43
207
51
43
207
51
43
207
51
43
207
51
43
207
51
43
207
51
43
207
51
43
207
51
43
207
51
43
207
51
43
207
51
43
207
51
43
207
51
43
207
51
43
207
51
43
207
51
43
207
51
43
207
51
43
207
51
43
207
51
43
207
51
43
207
51
43
207
51
43
207
51
43
207
51
43
207
51
43
207
51
43
207
51
43
207
51
43
207
51
43
207
51
43
207
51
43
207
51
43
207
51
43
207
51
43
207
51
43
207
51
43
207
51
43
207
51
43
207
51
43
207
51
43
207
51
43
207
51
43
207
51
43
207
51
43
207
51
43
207
51
43
207
51
43
207
51
43
207
51
43
207
51
43
207
51
43
207
51
43
207
51
43
207
51
43
207
51
43
207
51
43
207
51
43
207
51
43
207
51
43
207
51
43
207
51
43
207
51
43
207
51
43
207
51
43
207
51
43
207
51
43
207
51
43
207
51
43
207
51
43
207
51
43
207
51
43
207
51
43
207
51
43
207
51
43
207
51
43
207
51
43
207
51
43
207
51
43
207
51
43
207
51
43
207
51
43
207
51
43
207
51
43
207
51
43
207
51
43
207
51
43
207
51
43
207
51
43
207
51
43
207
51
43
207
51
43
207
51
43
207
51
43
207
51
43
207
51
43
207
51
43
207
51
43
207
51
43
207
51
43
207
51
43
207
51
43
207
51
43
207
51
43
207
51
43
207
51
43
207
51
43
207
51
43
207
51
43
207
51
43
207
51
43
207
51
43
207
51
43
207
51
43
207
51
43
207
51
43
207
51
43
207
51
43
207
51
43
207
51
43
207
51
43
207
51
43
207
51
43
207
51
43
207
51
43
207
51
43
207
51
43
207
51
43
207
51
43
207
51
43
207
51
43
207
51
43
207
51
43
207
51
43
207
51
43
207
51
43
207
51
43
207
51
43
207
51
43
207
51
43
207
51
43
207
51
43
207
51
43
207
51
43
207
51
43
207
51
43
207
51
43
207
51
43
207
51
43
207
51
43
207
51
43
207
51
43
207
51
43
207
51
43
207
51
43
207
51
43
207
51
43
207
51
43
207
51
43
207
51
43
207
51
43
207
51
43
207
51
43
207
51
43
207
51
43
207
51
43
207
51
43
207
51
43
207
51
43
207
51
43
207
51
43
207
51
43
207
51
43
207
51
43
207
51
43
207
51
43
207
51
43
207
51
43
207
51
43
207
51
43
207
51
43
207
51
43
207
51
43
207
51
43
207
51
43
207
51
43
207
51
43
207
51
43
207
51
43
207
51
43
207
51
43
207
51
43
207
51
43
207
51
43
207
51
43
207
51
43
207
51
43
207
51
43
207
51
43
207
51
43
207
51
43
207
51
43
207
51
43
207
51
43
207
51
43
207
51
43
207
51
43
207
51
43
207
51
43
207
51
43
207
51
43
207
51
43
207
51
43
207
51
43
207
51
43
207
51
43
207
51
43
207
51
43
207
51
43
207
51
43
207
51
43
207
51
43
207
51
43
207
51
43
207
51
43
207
51
43
207
51
43
207
51
43
207
51
43
207
51
43
207
51
43
207
51
43
207
51
43
207
51
43
207
51
43
207
51
43
207
51
43
207
51
43
207
51
43
207
51
43
207
51
43
207
51
43
207
51
43
207
51
43
207
51
43
207
51
43
207
51
43
207
51
43
207
51
43
207
51
43
207
51
43
207
51
43
207
51
43
207
51
43
207
51
43
207
51
43
207
51
43
207
51
43
207
51
43
207
51
43
207
51
43
207
51
43
207
51
43
207
51
43
207
51
43
207
51
43
207
51
43
207
51
43
207
51
43
207
51
43
207
51
43
207
51
43
207
51
43
207
51
43
207
51
43
207
51
43
207
51
43
207
51
43
207
51
43
207
51
43
207
51
43
207
51
43
207
51
43
207
51
43
207
51
43
207
51
43
207
51
43
207
51
43
207
51
43
207
51
43
207
51
43
207
51
43
207
51
43
207
51
43
207
51
43
207
51
43
207
51
43
207
51
43
207
51
43
207
51
43
207
51
43
207
51
43
207
51
43
207
51
43
207
51
43
207
51
43
207
51
43
207
51
43
207
51
43
207
51
43
207
51
43
207
51
43
207
51
43
207
51
43
207
51
43
207
51
43
207
51
43
207
51
43
207
51
43
207
51
43
207
51
43
207
51
43
207
51
43
207
51
43
207
51
43
207
51
43
207
51
43
207
51
43
207
51
43
207
51
43
207
51
43
207
51
43
207
51
43
207
51
43
207
51
43
207
51
43
207
51
43
207
51
43
207
51
43
207
51
43
207
51
43
207
51
43
207
51
43
207
51
43
207
51
43
207
51
43
207
51
43
207
51
43
207
51
43
207
51
43
207
51
43
207
51
43
207
51
43
207
51
43
207
51
43
207
51
43
207
51
43
207
51
43
207
51
43
207
51
43
207
51
43
207
51
43
207
51
43
207
51
43
207
51
43
207
51
43
207
51
43
207
51
43
207
51
43
207
51
43
207
51
43
207
51
43
207
51
43
207
51
43
207
51
43
207
51
43
207
51
43
207
51
43
207
51
43
207
51
43
207
51
43
207
51
43
207
51
43
207
51
43
207
51
43
207
51
43
207
51
43
207
51
43
207
51
43
207
51
43
207
51
43
207
51
43
207
51
43
207
51
43
207
51
43
207
51
43
207
51
43
207
51
43
207
51
43
207
51
43
207
51
43
207
51
43
207
51
43
207
51
43
207
51
43
207
51
43
207
51
43
207
51
43
207
51
43
207
51
43
207
51
43
207
51
43
207
51
43
207
51
43
207
51
43
207
51
43
207
51
43
207
51
43
207
51
43
207
51
43
207
51
43
207
51
43
207
51
43
207
51
43
207
51
43
207
51
43
207
51
43
207
51
43
207
51
43
207
51
43
207
51
43
207
51
43
207
51
43
207
51
43
207
51
43
207
51
43
207
51
43
207
51
43
207
51
43
207
51
43
207
51
43
207
51
43
207
51
43
207
51
43
207
51
43
207
51
43
207
51
43
207
51
43
207
51
43
207
51
43
207
51
43
207
51
43
207
51
43
207
51
43
207
51
43
207
51
43
207
51
43
207
51
43
207
51
43
207
51
43
207
51
43
207
51
43
207
51
43
207
51
43
207
51
43
207
51
43
207
51
43
207
51
43
207
51
43
207
51
43
207
51
43
207
51
43
207
51
43
207
51
43
207
51
43
207
51
43
207
51
43
207
51
43
207
51
43
207
51
43
207
51
43
207
51
43
207
51
43
207
51
43
207
51
43
207
51
43
207
51
43
207
51
43
207
51
43
207
51
43
207
51
43
207
51
43
207
51
43
207
51
43
207
51
43
207
51
43
207
51
43
207
51
43
207
51
43
207
51
43
207
51
43
207
51
43
207
51
43
207
51
43
207
51
43
207
51
43
207
51
43
207
51
43
207
51
43
207
51
43
207
51
43
207
51
43
207
51
43
207
51
43
207
51
43
207
51
43
207
51
43
207
51
43
207
51
43
207
51
43
207
51
43
207
51
43
207
51
43
207
51
43
207
51
43
207
51
43
207
51
43
207
51
43
207
51
43
207
51
43
207
51
43
207
51
43
207
51
43
207
51
43
207
51
43
207
51
43
207
51
43
207
51
43
207
51
43
207
51
43
207
51
43
207
51
43
207
51
43
207
51
43
207
51
43
207
51
43
207
51
43
207
51
43
207
51
43
207
51
43
207
51
43
207
51
43
207
51
43
207
51
43
207
51
43
207
51
43
207
51
43
207
51
43
207
51
43
207
51
43
207
51
43
207
51
43
207
51
43
207
51
43
207
51
43
207
51
43
207
51
43
207
51
43
207
51
43
207
51
43
207
51
43
207
51
43
207
51
43
207
51
43
207
51
43
207
51
43
207
51
43
207
51
43
207
51
43
207
51
43
207
51
43
207
51
43
207
51
43
207
51
43
207
51
43
207
51
43
207
51
43
207
51
43
207
51
43
207
51
43
207
51
43
207
51
43
207
51
43
207
51
43
207
51
43
207
51
43
207
51
43
207
51
43
207
51
43
207
51
43
207
51
43
207
51
43
207
51
43
207
51
43
207
51
43
207
51
43
207
51
43
207
51
43
207
51
43
207
51
43
207
51
43
207
51
43
207
51
43
207
51
43
207
51
43
207
51
43
207
51
43
207
51
43
207
51
43
207
51
43
207
51
43
207
51
43
207
51
43
207
51
43
207
51
43
207
51
43
207
51
43
207
51
43
207
51
43
207
51
43
207
51
43
207
51
43
207
51
43
207
51
43
207
51
43
207
51
43
207
51
43
207
51
43
207
51
43
207
51
43
207
51
43
207
51
43
207
51
43
207
51
43
207
51
43
207
51
43
207
51
43
207
51
43
207
51
43
207
51
43
207
51
43
207
51
43
207
51
43
207
51
43
207
51
43
207
51
43
207
51
43
207
51
43
207
51
43
207
51
43
207
51
43
207
51
43
207
51
43
207
51
43
207
51
43
207
51
43
207
51
43
207
51
43
207
51
43
207
51
43
207
51
43
207
51
43
207
51
43
207
51
43
207
51
43
207
51
43
207
51
43
207
51
43
207
51
43
207
51
43
207
51
43
207
51
43
207
51
43
207
51
43
207
51
43
207
51
43
207
51
43
207
51
43
207
51
43
207
51
43
207
51
43
207
51
43
207
51
43
207
51
43
207
51
43
207
51
43
207
51
43
207
51
43
207
51
43
207
51
43
207
51
43
207
51
43
207
51
43
207
51
43
207
51
43
207
51
43
207
51
43
207
51
43
207
51
43
207
51
43
207
51
43
207
51
43
207
51
43
207
51
43
207
51
43
207
51
43
207
51
43
207
51
43
207
51
43
207
51
43
207
51
43
207
51
43
207
51
43
207
51
43
207
51
43
207
51
43
207
51
43
207
51
43
207
51
43
207
51
43
207
51
43
207
51
43
207
51
43
207
51
43
207
51
43
207
51
43
207
51
43
207
51
43
207
51
43
207
51
43
207
51
43
207
51
43
207
51
43
207
51
43
207
51
43
207
51
43
207
51
43
207
51
43
207
51
43
207
51
43
207
51
43
207
51
43
207
51
43
207
51
43
207
51
43
207
51
43
207
51
43
207
51
43
207
51
43
207
51
43
207
51
43
207
51
43
207
51
43
207
51
43
207
51
43
207
51
43
207
51
43
207
51
43
207
51
43
207
51
43
207
51
43
207
51
43
207
51
43
207
51
43
207
51
43
207
51
43
207
51
43
207
51
43
207
51
43
207
51
43
207
51
43
207
51
43
207
51
43
207
51
43
207
51
43
207
51
43
207
51
43
207
51
43
207
51
43
207
51
43
207
51
43
207
51
43
207
51
43
207
51
43
207
51
43
207
51
43
207
51
43
207
51
43
207
51
43
207
51
43
207
51
43
207
51
43
207
51
43
207
51
43
207
51
43
207
51
43
207
51
43
207
51
43
207
51
43
207
51
43
207
51
43
207
51
43
207
51
43
207
51
43
207
51
43
207
51
43
207
51
43
207
51
43
207
51
43
207
51
43
207
51
43
207
51
43
207
51
43
207
51
43
207
51
43
207
51
43
207
51
43
207
51
43
207
51
43
207
51
43
207
51
43
207
51
43
207
51
43
207
51
43
207
51
43
207
51
43
207
51
43
207
51
43
207
51
43
207
51
43
207
51
43
207
51
43
207
51
43
207
51
43
207
51
43
207
51
43
207
51
43
207
51
43
207
51
43
207
51
43
207
51
43
207
51
43
207
51
43
207
51
43
207
51
43
207
51
43
207
51
43
207
51
43
207
51
43
207
51
43
207
51
43
207
51
43
207
51
43
207
51
43
207
51
43
207
51
43
207
51
43
207
51
43
207
51
43
207
51
43
207
51
43
207
51
43
207
51
43
207
51
43
207
51
43
207
51
43
207
51
43
207
51
43
207
51
43
207
51
43
207
51
43
207
51
43
207
51
43
207
51
43
207
51
43
207
51
43
207
51
43
207
51
43
207
51
43
207
51
43
207
51
43
207
51
43
207
51
43
207
51
43
207
51
43
207
51
43
207
51
43
207
51
43
207
51
43
207
51
43
207
51
43
207
51
43
207
51
43
207
51
43
207
51
43
207
51
43
207
51
43
207
51
43
207
51
43
207
51
43
207
51
43
207
51
43
207
51
43
207
51
43
207
51
43
207
51
43
207
51
43
207
51
43
207
51
43
207
51
43
207
51
43
207
51
43
207
51
43
207
51
43
207
51
43
207
51
43
207
51
43
207
51
43
207
51
43
207
51
43
207
51
43
207
51
43
207
51
43
207
51
43
207
51
43
207
51
43
207
51
43
207
51
43
207
51
43
207
51
43
207
51
43
207
51
43
207
51
43
207
51
43
207
51
43
207
51
43
207
51
43
207
51
43
207
51
43
207
51
43
207
51
43
207
51
43
207
51
43
207
51
43
207
51
43
207
51
43
207
51
43
207
51
43
207
51
43
207
51
43
207
51
43
207
51
43
207
51
43
207
51
43
207
51
43
207
51
43
207
51
43
207
51
43
207
51
43
207
51
43
207
51
43
207
51
43
207
51
43
207
51
43
207
51
43
207
51
43
207
51
43
207
51
43
207
51
43
207
51
43
207
51
43
207
51
43
207
51
43
207
51
43
207
51
43
207
51
43
207
51
43
207
51
43
207
51
43
207
51
43
207
51
43
207
51
43
207
51
43
207
51
43
207
51
43
207
51
43
207
51
43
207
51
43
207
51
43
207
51
43
207
51
43
207
51
43
207
51
43
207
51
43
207
51
43
207
51
43
207
51
43
207
51
43
207
51
43
207
51
43
207
51
43
207
51
43
207
51
43
207
51
43
207
51
43
207
51
43
207
51
43
207
51
43
207
51
43
207
51
43
207
51
43
207
51
43
207
51
43
207
51
43
207
51
43
207
51
43
207
51
43
207
51
43
207
51
43
207
51
43
207
51
43
207
51
43
207
51
43
207
51
43
207
51
43
207
51
43
207
51
43
207
51
43
207
51
43
207
51
43
207
51
43
207
51
43
207
51
43
207
51
43
207
51
43
207
51
43
207
51
43
207
51
43
207
51
43
207
51
43
207
51
43
207
51
43
207
51
43
207
51
43
207
51
43
207
51
43
207
51
43
207
51
43
207
51
43
207
51
43
207
51
43
207
51
43
207
51
43
207
51
43
207
51
43
207
51
43
207
51
43
207
51
43
207
51
43
207
51
43
207
51
43
207
51
43
207
51
43
207
51
43
207
51
43
207
51
43
207
51
43
207
51
43
207
51
43
207
51
43
207
51
43
207
51
43
207
51
43
207
51
43
207
51
43
207
51
43
207
51
43
207
51
43
207
51
43
207
51
43
207
51
43
207
51
43
207
51
43
207
51
43
207
51
43
207
51
43
207
51
43
207
51
43
207
51
43
207
51
43
207
51
43
207
51
43
207
51
43
207
51
43
207
51
43
207
51
43
207
51
43
207
51
43
207
51
43
207
51
43
207
51
43
207
51
43
207
51
43
207
51
43
207
51
43
207
51
43
207
51
43
207
51
43
207
51
43
207
51
43
207
51
43
207
51
43
207
51
43
207
51
43
207
51
43
207
51
43
207
51
43
207
51
43
207
51
43
207
51
43
207
51
43
207
51
43
207
51
43
207
51
43
207
51
43
207
51
43
207
51
43
207
51
43
207
51
43
207
51
43
207
51
43
207
51
43
207
51
43
207
51
43
207
51
43
207
51
43
207
51
43
207
51
43
207
51
43
207
51
43
207
51
43
207
51
43
207
51
43
207
51
43
207
51
43
207
51
43
207
51
43
207
51
43
207
51
43
207
51
43
207
51
43
207
51
43
207
51
43
207
51
43
207
51
43
207
51
43
207
51
43
207
51
43
207
51
43
207
51
43
207
51
43
207
51
43
207
51
43
207
51
43
207
51
43
207
51
43
207
51
43
207
51
43
207
51
43
207
51
43
207
51
43
207
51
43
207
51
43
207
51
43
207
51
43
207
51
43
207
51
43
207
51
43
207
51
43
207
51
43
207
51
43
207
51
43
207
51
43
207
51
43
207
51
43
207
51
43
207
51
43
207
51
43
207
51
43
207
51
43
207
51
43
207
51
43
207
51
43
207
51
43
207
51
43
207
51
43
207
51
43
207
51
43
207
51
43
207
51
43
207
51
43
207
51
43
207
51
43
207
51
43
207
51
43
207
51
43
207
51
43
207
51
43
207
51
43
207
51
43
207
51
43
207
51
43
207
51
43
207
51
43
207
51
43
207
51
43
207
51
43
207
51
43
207
51
43
207
51
43
207
51
43
207
51
43
207
51
43
207
51
43
207
51
43
207
51
43
207
51
43
207
51
43
207
51
43
207
51
43
207
51
43
207
51
43
207
51
43
207
51
43
207
51
43
207
51
43
207
51
43
207
51
43
207
51
43
207
51
43
207
51
43
207
51
43
207
51
43
207
51
43
207
51
43
207
51
43
207
51
43
207
51
43
207
51
43
207
51
43
207
51
43
207
51
43
207
51
43
207
51
43
207
51
43
207
51
43
207
51
43
207
51
43
207
51
43
207
51
43
207
51
43
207
51
43
207
51
43
207
51
43
207
51
43
207
51
43
207
51
43
207
51
43
207
51
43
207
51
43
207
51
43
207
51
43
207
51
43
207
51
43
207
51
43
207
51
43
207
51
43
207
51
43
207
51
43
207
51
43
207
51
43
207
51
43
207
51
43
207
51
43
207
51
43
207
51
43
207
51
43
207
51
43
207
51
43
207
51
43
207
51
43
207
51
43
207
51
43
207
51
43
207
51
43
207
51
43
207
51
43
207
51
43
207
51
43
207
51
43
207
51
43
207
51
43
207
51
43
207
51
43
207
51
43
207
51
43
207
51
43
207
51
43
207
51
43
207
51
43
207
51
43
207
51
43
207
51
43
207
51
43
207
51
43
207
51
43
207
51
43
207
51
43
207
51
43
207
51
43
207
51
43
207
51
43
207
51
43
207
51
43
207
51
43
207
51
43
207
51
43
207
51
43
207
51
43
207
51
43
207
51
43
207
51
43
207
51
43
207
51
43
207
51
43
207
51
43
207
51
43
207
51
43
207
51
43
207
51
43
207
51
43
207
51
43
207
51
43
207
51
43
207
51
43
207
51
43
207
51
43
207
51
43
207
51
43
207
51
43
207
51
43
207
51
43
207
51
43
207
51
43
207
51
43
207
51
43
207
51
43
207
51
43
207
51
43
207
51
43
207
51
43
207
51
43
207
51
43
207
51
43
207
51
43
207
51
43
207
51
43
207
51
43
207
51
43
207
51
43
207
51
43
207
51
43
207
51
43
207
51
43
207
51
43
207
51
43
207
51
43
207
51
43
207
51
43
207
51
43
207
51
43
207
51
43
207
51
43
207
51
43
207
51
43
207
51
43
207
51
43
207
51
43
207
51
43
207
51
43
207
51
43
207
51
43
207
51
43
207
51
43
207
51
43
207
51
43
207
51
43
207
51
43
207
51
43
207
51
43
207
51
43
207
51
43
207
51
43
207
51
43
207
51
43
207
51
43
207
51
43
207
51
43
207
51
43
207
51
43
207
51
43
207
51
43
207
51
43
207
51
43
207
51
43
207
51
43
207
51
43
207
51
43
207
51
43
207
51
43
207
51
43
207
51
43
207
51
43
207
51
43
207
51
43
207
51
43
207
51
43
207
51
43
207
51
43
207
51
43
207
51
43
207
51
43
207
51
43
207
51
43
207
51
43
207
51
43
207
51
43
207
51
43
207
51
43
207
51
43
207
51
43
207
51
43
207
51
43
207
51
43
207
51
43
207
51
43
207
51
43
207
51
43
207
51
43
207
51
43
207
51
43
207
51
43
207
51
43
207
51
43
207
51
43
207
51
43
207
51
43
207
51
43
207
51
43
207
51
43
207
51
43
207
51
43
207
51
43
207
51
43
207
51
43
207
51
43
207
51
43
207
51
43
207
51
43
207
51
43
207
51
43
207
51
43
207
51
43
207
51
43
207
51
43
207
51
43
207
51
43
207
51
43
207
51
43
207
51
43
207
51
43
207
51
43
207
51
43
207
51
43
207
51
43
207
51
43
207
51
43
207
51
43
207
51
43
207
51
43
207
51
43
207
51
43
207
51
43
207
51
43
207
51
43
207
51
43
207
51
43
207
51
43
207
51
43
207
51
43
207
51
43
207
51
43
207
51
43
207
51
43
207
51
43
207
51
43
207
51
43
207
51
43
207
51
43
207
51
43
207
51
43
207
51
43
207
51
43
207
51
43
207
51
43
207
51
43
207
51
43
207
51
43
207
51
43
207
51
43
207
51
43
207
51
43
207
51
43
207
51
43
207
51
43
207
51
43
207
51
43
207
51
43
207
51
43
207
51
43
207
51
43
207
51
43
207
51
43
207
51
43
207
51
43
207
51
43
207
51
43
207
51
43
207
51
43
207
51
43
207
51
43
207
51
43
207
51
43
207
51
43
207
51
43
207
51
43
207
51
43
207
51
43
207
51
43
207
51
43
207
51
43
207
51
43
207
51
43
207
51
43
207
51
43
207
51
43
207
51
43
207
51
43
207
51
43
207
51
43
207
51
43
207
51
43
207
51
43
207
51
43
207
51
43
207
51
43
207
51
43
207
51
43
207
51
43
207
51
43
207
51
43
207
51
43
207
51
43
207
51
43
207
51
43
207
51
43
207
51
43
207
51
43
207
51
43
207
51
43
207
51
43
207
51
43
207
51
43
207
51
43
207
51
43
207
51
43
207
51
43
207
51
43
207
51
43
207
51
43
207
51
43
207
51
43
207
51
43
207
51
43
207
51
43
207
51
43
207
51
43
207
51
43
207
51
43
207
51
43
207
51
43
207
51
43
207
51
43
207
51
43
207
51
43
207
51
43
207
51
43
207
51
43
207
51
43
207
51
43
207
51
43
207
51
43
207
51
43
207
51
43
207
51
43
207
51
43
207
51
43
207
51
43
207
51
43
207
51
43
207
51
43
207
51
43
207
51
43
207
51
43
207
51
43
207
51
43
207
51
43
207
51
43
207
51
43
207
51
43
207
51
43
207
51
43
207
51
43
207
51
43
207
51
43
207
51
43
207
51
43
207
51
43
207
51
43
207
51
43
207
51
43
207
51
43
207
51
43
207
51
43
207
51
43
207
51
43
207
51
43
207
51
43
207
51
43
207
51
43
207
51
43
207
51
43
207
51
43
207
51
43
207
51
43
207
51
43
207
51
43
207
51
43
207
51
43
207
51
43
207
51
43
207
51
43
207
51
43
207
51
43
207
51
43
207
51
43
207
51
43
207
51
43
207
51
43
207
51
43
207
51
43
207
51
43
207
51
43
207
51
43
207
51
43
207
51
43
207
51
43
207
51
43
207
51
43
207
51
43
207
51
43
207
51
43
207
51
43
207
51
43
207
51
43
207
51
43
207
51
43
207
51
43
207
51
43
207
51
43
207
51
43
207
51
43
207
51
43
207
51
43
207
51
43
207
51
43
207
51
43
207
51
43
207
51
43
207
51
43
207
51
43
207
51
43
207
51
43
207
51
43
207
51
43
207
51
43
207
51
43
207
51
43
207
51
43
207
51
43
207
51
43
207
51
43
207
51
43
207
51
43
207
51
43
207
51
43
207
51
43
207
51
43
207
51
43
207
51
43
207
51
43
207
51
43
207
51
43
207
51
43
207
51
43
207
51
43
207
51
43
207
51
43
207
51
43
207
51
43
207
51
43
207
51
43
207
51
43
207
51
43
207
51
43
207
51
43
207
51
43
207
51
43
207
51
43
207
51
43
207
51
43
207
51
43
207
51
43
207
51
43
207
51
43
207
51
43
207
51
43
207
51
43
207
51
43
207
51
43
207
51
43
207
51
43
207
51
43
207
51
43
207
51
43
207
51
43
207
51
43
207
51
43
207
51
43
207
51
43
207
51
43
207
51
43
207
51
43
207
51
43
207
51
43
207
51
43
207
51
43
207
51
43
207
51
43
207
51
43
207
51
43
207
51
43
207
51
43
207
51
43
207
51
43
207
51
43
207
51
43
207
51
43
207
51
43
207
51
43
207
51
43
207
51
43
207
51
43
207
51
43
207
51
43
207
51
43
207
51
43
207
51
43
207
51
43
207
51
43
207
51
43
207
51
43
207
51
43
207
51
43
207
51
43
207
51
43
207
51
43
207
51
43
207
51
43
207
51
43
207
51
43
207
51
43
207
51
43
207
51
43
207
51
43
207
51
43
207
51
43
207
51
43
207
51
43
207
51
43
207
51
43
207
51
43
207
51
43
207
51
43
207
51
43
207
51
43
207
51
43
207
51
43
207
51
43
207
51
43
207
51
43
207
51
43
207
51
43
207
51
43
207
51
43
207
51
43
207
51
43
207
51
43
207
51
43
207
51
43
207
51
43
207
51
43
207
51
43
207
51
43
207
51
43
207
51
43
207
51
43
207
51
43
207
51
43
207
51
43
207
51
43
207
51
43
207
51
43
207
51
43
207
51
43
207
51
43
207
51
43
207
51
43
207
51
43
207
51
43
207
51
43
207
51
43
207
51
43
207
51
43
207
51
43
207
51
43
207
51
43
207
51
43
207
51
43
207
51
43
207
51
43
207
51
43
207
51
43
207
51
43
207
51
43
207
51
43
207
51
43
207
51
43
207
51
43
207
51
43
207
51
43
207
51
43
207
51
43
207
51
43
207
51
43
207
51
43
207
51
43
207
51
43
207
51
43
207
51
43
207
51
43
207
51
43
207
51
43
207
51
43
207
51
43
207
51
43
207
51
43
207
51
43
207
51
43
207
51
43
207
51
43
207
51
43
207
51
43
207
51
43
207
51
43
207
51
43
207
51
43
207
51
43
207
51
43
207
51
43
207
51
43
207
51
43
207
51
43
207
51
43
207
51
43
207
51
43
207
51
43
207
51
43
207
51
43
207
51
43
207
51
43
207
51
43
207
51
43
207
51
43
207
51
43
207
51
43
207
51
43
207
51
43
207
51
43
207
51
43
207
51
43
207
51
43
207
51
43
207
51
43
207
51
43
207
51
43
207
51
43
207
51
43
207
51
43
207
51
43
207
51
43
207
51
43
207
51
43
207
51
43
207
51
43
207
51
43
207
51
43
207
51
43
207
51
43
207
51
43
207
51
43
207
51
43
207
51
43
207
51
43
207
51
43
207
51
43
207
51
43
207
51
43
207
51
43
207
51
43
207
51
43
207
51
43
207
51
43
207
51
43
207
51
43
207
51
43
207
51
43
207
51
43
207
51
43
207
51
43
207
51
43
207
51
43
207
51
43
207
51
43
207
51
43
207
51
43
207
51
43
207
51
43
207
51
43
207
51
43
207
51
43
207
51
43
207
51
43
207
51
43
207
51
43
207
51
43
207
51
43
207
51
43
207
51
43
207
51
43
207
51
43
207
51
43
207
51
43
207
51
43
207
51
43
207
51
43
207
51
43
207
51
43
207
51
43
207
51
43
207
51
43
207
51
43
207
51
43
207
51
43
207
51
43
207
51
43
207
51
43
207
51
43
207
51
43
207
51
43
207
51
43
207
51
43
207
51
43
207
51
43
207
51
43
207
51
43
207
51
43
207
51
43
207
51
43
207
51
43
207
51
43
207
51
43
207
51
43
207
51
43
207
51
43
207
51
43
207
51
43
207
51
43
207
51
43
207
51
43
207
51
43
207
51
43
207
51
43
207
51
43
207
51
43
207
51
43
207
51
43
207
51
43
207
51
43
207
51
43
207
51
43
207
51
43
207
51
43
207
51
43
207
51
43
207
51
43
207
51
43
207
51
43
207
51
43
207
51
43
207
51
43
207
51
43
207
51
43
207
51
43
207
51
43
207
51
43
207
51
43
207
51
43
207
51
43
207
51
43
207
51
43
207
51
43
207
51
43
207
51
43
207
51
43
207
51
43
207
51
43
207
51
43
207
51
43
207
51
43
207
51
43
207
51
43
207
51
43
207
51
43
207
51
43
207
51
43
207
51
43
207
51
43
207
51
43
207
51
43
207
51
43
207
51
43
207
51
43
207
51
43
207
51
43
207
51
43
207
51
43
207
51
43
207
51
43
207
51
43
207
51
43
207
51
43
207
51
43
207
51
43
207
51
43
207
51
43
207
51
43
207
51
43
207
51
43
207
51
43
207
51
43
207
51
43
207
51
43
207
51
43
207
51
43
207
51
43
207
51
43
207
51
43
207
51
43
207
51
43
207
51
43
207
51
43
207
51
43
207
51
43
207
51
43
207
51
43
207
51
43
207
51
43
207
51
43
207
51
43
207
51
43
207
51
43
207
51
43
207
51
43
207
51
43
207
51
43
207
51
43
207
51
43
207
51
43
207
51
43
207
51
43
207
51
43
207
51
43
207
51
43
207
51
43
207
51
43
207
51
43
207
51
43
207
51
43
207
51
43
207
51
43
207
51
43
207
51
43
207
51
43
207
51
43
207
51
43
207
51
43
207
51
43
207
51
43
207
51
43
207
51
43
207
51
43
207
51
43
207
51
43
207
51
43
207
51
43
207
51
43
207
51
43
207
51
43
207
51
43
207
51
43
207
51
43
207
51
43
207
51
43
207
51
43
207
51
43
207
51
43
207
51
43
207
51
43
207
51
43
207
51
43
207
51
43
207
51
43
207
51
43
207
51
43
207
51
43
207
51
43
207
51
43
207
51
43
207
51
43
207
51
43
207
51
43
207
51
43
207
51
43
207
51
43
207
51
43
207
51
43
207
51
43
207
51
43
207
51
43
207
51
43
207
51
43
207
51
43
207
51
43
207
51
43
207
51
43
207
51
43
207
51
43
207
51
43
207
51
43
207
51
43
207
51
43
207
51
43
207
51
43
207
51
43
207
51
43
207
51
43
207
51
43
207
51
43
207
51
43
207
51
43
207
51
43
207
51
43
207
51
43
207
51
43
207
51
43
207
51
43
207
51
43
207
51
43
207
51
43
207
51
43
207
51
43
207
51
43
207
51
43
207
51
43
207
51
43
207
51
43
207
51
43
207
51
43
207
51
43
207
51
43
207
51
43
207
51
43
207
51
43
207
51
43
207
51
43
207
51
43
207
51
43
207
51
43
207
51
43
207
51
43
207
51
43
207
51
43
207
51
43
207
51
43
207
51
43
207
51
43
207
51
43
207
51
43
207
51
43
207
51
43
207
51
43
207
51
43
207
51
43
207
51
43
207
51
43
207
51
43
207
51
43
207
51
43
207
51
43
207
51
43
207
51
43
207
51
43
207
51
43
207
51
43
207
51
43
207
51
43
207
51
43
207
51
43
207
51
43
207
51
43
207
51
43
207
51
43
207
51
43
207
51
43
207
51
43
207
51
43
207
51
43
207
51
43
207
51
43
207
51
43
207
51
43
207
51
43
207
51
43
207
51
43
207
51
43
207
51
43
207
51
43
207
51
43
207
51
43
207
51
43
207
51
43
207
51
43
207
51
43
207
51
43
207
51
43
207
51
43
207
51
43
207
51
43
207
51
43
207
51
43
207
51
43
207
51
43
207
51
43
207
51
43
207
51
43
207
51
43
207
51
43
207
51
43
207
51
43
207
51
43
207
51
43
207
51
43
207
51
43
207
51
43
207
51
43
207
51
43
207
51
43
207
51
43
207
51
43
207
51
43
207
51
43
207
51
43
207
51
43
207
51
43
207
51
43
207
51
43
207
51
43
207
51
43
207
51
43
207
51
43
207
51
43
207
51
43
207
51
43
207
51
43
207
51
43
207
51
43
207
51
43
207
51
43
207
51
43
207
51
43
207
51
43
207
51
43
207
51
43
207
51
43
207
51
43
207
51
43
207
51
43
207
51
43
207
51
43
207
51
43
207
51
43
207
51
43
207
51
43
207
51
43
207
51
43
207
51
43
207
51
43
207
51
43
207
51
43
207
51
43
207
51
43
207
51
43
207
51
43
207
51
43
207
51
43
207
51
43
207
51
43
207
51
43
207
51
43
207
51
43
207
51
43
207
51
43
207
51
43
207
51
43
207
51
43
207
51
43
207
51
43
207
51
43
207
51
43
207
51
43
207
51
43
207
51
43
207
51
43
207
51
43
207
51
43
207
51
43
207
51
43
207
51
43
207
51
43
207
51
43
207
51
43
207
51
43
207
51
43
207
51
43
207
51
43
207
51
43
207
51
43
207
51
43
207
51
43
207
51
43
207
51
43
207
51
43
207
51
43
207
51
43
207
51
43
207
51
43
207
51
43
207
51
43
207
51
43
207
51
43
207
51
43
207
51
43
207
51
43
207
51
43
207
51
43
207
51
43
207
51
43
207
51
43
207
51
43
207
51
43
207
51
43
207
51
43
207
51
43
207
51
43
207
51
43
207
51
43
207
51
43
207
51
43
207
51
43
207
51
43
207
51
43
207
51
43
207
51
43
207
51
43
207
51
43
207
51
43
207
51
43
207
51
43
207
51
43
207
51
43
207
51
43
207
51
43
207
51
43
207
51
43
207
51
43
207
51
43
207
51
43
207
51
43
207
51
43
207
51
43
207
51
43
207
51
43
207
51
43
207
51
43
207
51
43
207
51
43
207
51
43
207
51
43
207
51
43
207
51
43
207
51
43
207
51
43
207
51
43
207
51
43
207
51
43
207
51
43
207
51
43
207
51
43
207
51
43
207
51
43
207
51
43
207
51
43
207
51
43
207
51
43
207
51
43
207
51
43
207
51
43
207
51
43
207
51
43
207
51
43
207
51
43
207
51
43
207
51
43
207
51
43
207
51
43
207
51
43
207
51
43
207
51
43
207
51
43
207
51
43
207
51
43
207
51
43
207
51
43
207
51
43
207
51
43
207
51
43
207
51
43
207
51
43
207
51
43
207
51
43
207
51
43
207
51
43
207
51
43
207
51
43
207
51
43
207
51
43
207
51
43
207
51
43
207
51
43
207
51
43
207
51
43
207
51
43
207
51
43
207
51
43
207
51
43
207
51
43
207
51
43
207
51
43
207
51
43
207
51
43
207
51
43
207
51
43
207
51
43
207
51
43
207
51
43
207
51
43
207
51
43
207
51
43
207
51
43
207
51
43
207
51
43
207
51
43
207
51
43
207
51
43
207
51
43
207
51
43
207
51
43
207
51
43
207
51
43
207
51
43
207
51
43
207
51
43
207
51
43
207
51
43
207
51
43
207
51
43
207
51
43
207
51
43
207
51
43
207
51
43
207
51
43
207
51
43
207
51
43
207
51
43
207
51
43
207
51
43
207
51
43
207
51
43
207
51
43
207
51
43
207
51
43
207
51
43
207
51
43
207
51
43
207
51
43
207
51
43
207
51
43
207
51
43
207
51
43
207
51
43
207
51
43
207
51
43
207
51
43
207
51
43
207
51
43
207
51
43
207
51
43
207
51
43
207
51
43
207
51
43
207
51
43
207
51
43
207
51
43
207
51
43
207
51
43
207
51
43
207
51
43
207
51
43
207
51
43
207
51
43
207
51
43
207
51
43
207
51
43
207
51
43
207
51
43
207
51
43
207
51
43
207
51
43
207
51
43
207
51
43
207
51
43
207
51
43
207
51
43
207
51
43
207
51
43
207
51
43
207
51
43
207
51
43
207
51
43
207
51
43
207
51
43
207
51
43
207
51
43
207
51
43
207
51
43
207
51
43
207
51
43
207
51
43
207
51
43
207
51
43
207
51
43
207
51
43
207
51
43
207
51
43
207
51
43
207
51
43
207
51
43
207
51
43
207
51
43
207
51
43
207
51
43
207
51
43
207
51
43
207
51
43
207
51
43
207
51
43
207
51
43
207
51
43
207
51
43
207
51
43
207
51
43
207
51
43
207
51
43
207
51
43
207
51
43
207
51
43
207
51
43
207
51
43
207
51
43
207
51
43
207
51
43
207
51
43
207
51
43
207
51
43
207
51
43
207
51
43
207
51
43
207
51
43
207
51
43
207
51
43
207
51
43
207
51
43
207
51
43
207
51
43
207
51
43
207
51
43
207
51
43
207
51
43
207
51
43
207
51
43
207
51
43
207
51
43
207
51
43
207
51
43
207
51
43
207
51
43
207
51
43
207
51
43
207
51
43
207
51
43
207
51
43
207
51
43
207
51
43
207
51
43
207
51
43
207
51
43
207
51
43
207
51
43
207
51
43
207
51
43
207
51
43
207
51
43
207
51
43
207
51
43
207
51
43
207
51
43
207
51
43
207
51
43
207
51
43
207
51
43
207
51
43
207
51
43
207
51
43
207
51
43
207
51
43
207
51
43
207
51
43
207
51
43
207
51
43
207
51
43
207
51
43
207
51
43
207
51
43
207
51
43
207
51
43
207
51
43
207
51
43
207
51
43
207
51
43
207
51
43
207
51
43
207
51
43
207
51
43
207
51
43
207
51
43
207
51
43
207
51
43
207
51
43
207
51
43
207
51
43
207
51
43
207
51
43
207
51
43
207
51
43
207
51
43
207
51
43
207
51
43
207
51
43
207
51
43
207
51
43
207
51
43
207
51
43
207
51
43
207
51
43
207
51
43
207
51
43
207
51
43
207
51
43
207
51
43
207
51
43
207
51
43
207
51
43
207
51
43
207
51
43
207
51
43
207
51
43
207
51
43
207
51
43
207
51
43
207
51
43
207
51
43
207
51
43
207
51
43
207
51
43
207
51
43
207
51
43
207
51
43
207
51
43
207
51
43
207
51
43
207
51
43
207
51
43
207
51
43
207
51
43
207
51
43
207
51
43
207
51
43
207
51
43
207
51
43
207
51
43
207
51
43
207
51
43
207
51
43
207
51
43
207
51
43
207
51
43
207
51
43
207
51
43
207
51
43
207
51
43
207
51
43
207
51
43
207
51
43
207
51
43
207
51
43
207
51
43
207
51
43
207
51
43
207
51
43
207
51
43
207
51
43
207
51
43
207
51
43
207
51
43
207
51
43
207
51
43
207
51
43
207
51
43
207
51
43
207
51
43
207
51
43
207
51
43
207
51
43
207
51
43
207
51
43
207
51
43
207
51
43
207
51
43
207
51
43
207
51
43
207
51
43
207
51
43
207
51
43
207
51
43
207
51
43
207
51
43
207
51
43
207
51
43
207
51
43
207
51
43
207
51
43
207
51
43
207
51
43
207
51
43
207
51
43
207
51
43
207
51
43
207
51
43
207
51
43
207
51
43
207
51
43
207
51
43
207
51
43
207
51
43
207
51
43
207
51
43
207
51
43
207
51
43
207
51
43
207
51
43
207
51
43
207
51
43
207
51
43
207
51
43
207
51
43
207
51
43
207
51
43
207
51
43
207
51
43
207
51
43
207
51
43
207
51
43
207
51
43
207
51
43
207
51
43
207
51
43
207
51
43
207
51
43
207
51
43
207
51
43
207
51
43
207
51
43
207
51
43
207
51
43
207
51
43
207
51
43
207
51
43
207
51
43
207
51
43
207
51
43
207
51
43
207
51
43
207
51
43
207
51
43
207
51
43
207
51
43
207
51
43
207
51
43
207
51
43
207
51
43
207
51
43
207
51
43
207
51
43
207
51
43
207
51
43
207
51
43
207
51
43
207
51
43
207
51
43
207
51
43
207
51
43
207
51
43
207
51
43
207
51
43
207
51
43
207
51
43
207
51
43
207
51
43
207
51
43
207
51
43
207
51
43
207
51
43
207
51
43
207
51
43
207
51
43
207
51
43
207
51
43
207
51
43
207
51
43
207
51
43
207
51
43
207
51
43
207
51
43
207
51
43
207
51
43
207
51
43
207
51
43
207
51
43
207
51
43
207
51
43
207
51
43
207
51
43
207
51
43
207
51
43
207
51
43
207
51
43
207
51
43
207
51
43
207
51
43
207
51
43
207
51
43
207
51
43
207
51
43
207
51
43
207
51
43
207
51
43
207
51
43
207
51
43
207
51
43
207
51
43
207
51
43
207
51
43
207
51
43
207
51
43
207
51
43
207
51
43
207
51
43
207
51
43
207
51
43
207
51
43
207
51
43
207
51
43
207
51
43
207
51
43
207
51
43
207
51
43
207
51
43
207
51
43
207
51
43
207
51
43
207
51
43
207
51
43
207
51
43
207
51
43
207
51
43
207
51
43
207
51
43
207
51
43
207
51
43
207
51
43
207
51
43
207
51
43
207
51
43
207
51
43
207
51
43
207
51
43
207
51
43
207
51
43
207
51
43
207
51
43
207
51
43
207
51
43
207
51
43
207
51
43
207
51
43
207
51
43
207
51
43
207
51
43
207
51
43
207
51
43
207
51
43
207
51
43
207
51
43
207
51
43
207
51
43
207
51
43
207
51
43
207
51
43
207
51
43
207
51
43
207
51
43
207
51
43
207
51
43
207
51
43
207
51
43
207
51
43
207
51
43
207
51
43
207
51
43
207
51
43
207
51
43
207
51
43
207
51
43
207
51
43
207
51
43
207
51
43
207
51
43
207
51
43
207
51
43
207
51
43
207
51
43
207
51
43
207
51
43
207
51
43
207
51
43
207
51
43
207
51
43
207
51
43
207
51
43
207
51
43
207
51
43
207
51
43
207
51
43
207
51
43
207
51
43
207
51
43
207
51
43
207
51
43
207
51
43
207
51
43
207
51
43
207
51
43
207
51
43
207
51
43
207
51
43
207
51
43
207
51
43
207
51
43
207
51
43
207
51
43
207
51
43
207
51
43
207
51
43
207
51
43
207
51
43
207
51
43
207
51
43
207
51
43
207
51
43
207
51
43
207
51
43
207
51
43
207
51
43
207
51
43
207
51
43
207
51
43
207
51
43
207
51
43
207
51
43
207
51
43
207
51
43
207
51
43
207
51
43
207
51
43
207
51
43
207
51
43
207
51
43
207
51
43
207
51
43
207
51
43
207
51
43
207
51
43
207
51
43
207
51
43
207
51
43
207
51
43
207
51
43
207
51
43
207
51
43
207
51
43
207
51
43
207
51
43
207
51
43
207
51
43
207
51
43
207
51
43
207
51
43
207
51
43
207
51
43
207
51
43
207
51
43
207
51
43
207
51
43
207
51
43
207
51
43
207
51
43
207
51
43
207
51
43
207
51
43
207
51
43
207
51
43
207
51
43
207
51
43
207
51
43
207
51
43
207
51
43
207
51
43
207
51
43
207
51
43
207
51
43
207
51
43
207
51
43
207
51
43
207
51
43
207
51
43
207
51
43
207
51
43
207
51
43
207
51
43
207
51
43
207
51
43
207
51
43
207
51
43
207
51
43
207
51
43
207
51
43
207
51
43
207
51
43
207
51
43
207
51
43
207
51
43
207
51
43
207
51
43
207
51
43
207
51
43
207
51
43
207
51
43
207
51
43
207
51
43
207
51
43
207
51
43
207
51
43
207
51
43
207
51
43
207
51
43
207
51
43
207
51
43
207
51
43
207
51
43
207
51
43
207
51
43
207
51
43
207
51
43
207
51
43
207
51
43
207
51
43
207
51
43
207
51
43
207
51
43
207
51
43
207
51
43
207
51
43
207
51
43
207
51
43
207
51
43
207
51
43
207
51
43
207
51
43
207
51
43
207
51
43
207
51
43
207
51
43
207
51
43
207
51
43
207
51
43
207
51
43
207
51
43
207
51
43
207
51
43
207
51
43
207
51
43
207
51
43
207
51
43
207
51
43
207
51
43
207
51
43
207
51
43
207
51
43
207
51
43
207
51
43
207
51
43
207
51
43
207
51
43
207
51
43
207
51
43
207
51
43
207
51
43
207
51
43
207
51
43
207
51
43
207
51
43
207
51
43
207
51
43
207
51
43
207
51
43
207
51
43
207
51
43
207
51
43
207
51
43
207
51
43
207
51
43
207
51
43
207
51
43
207
51
43
207
51
43
207
51
43
207
51
43
207
51
43
207
51
43
207
51
43
207
51
43
207
51
43
207
51
43
207
51
43
207
51
43
207
51
43
207
51
43
207
51
43
207
51
43
207
51
43
207
51
43
207
51
43
207
51
43
207
51
43
207
51
43
207
51
43
207
51
43
207
51
43
207
51
43
207
51
43
207
51
43
207
51
43
207
51
43
207
51
43
207
51
43
207
51
43
207
51
43
207
51
43
207
51
43
207
51
43
207
51
43
207
51
43
207
51
43
207
51
43
207
51
43
207
51
43
207
51
43
207
51
43
207
51
43
207
51
43
207
51
43
207
51
43
207
51
43
207
51
43
207
51
43
207
51
43
207
51
43
207
51
43
207
51
43
207
51
43
207
51
43
207
51
43
207
51
43
207
51
43
207
51
43
207
51
43
207
51
43
207
51
43
207
51
43
207
51
43
207
51
43
207
51
43
207
51
43
207
51
43
207
51
43
207
51
43
207
51
43
207
51
43
207
51
43
207
51
43
207
51
43
207
51
43
207
51
43
207
51
43
207
51
43
207
51
43
207
51
43
207
51
43
207
51
43
207
51
43
207
51
43
207
51
43
207
51
43
207
51
43
207
51
43
207
51
43
207
51
43
207
51
43
207
51
43
207
51
43
207
51
43
207
51
43
207
51
43
207
51
43
207
51
43
207
51
43
207
51
43
207
51
43
207
51
43
207
51
43
207
51
43
207
51
43
207
51
43
207
51
43
207
51
43
207
51
43
207
51
43
207
51
43
207
51
43
207
51
43
207
51
43
207
51
43
207
51
43
207
51
43
207
51
43
207
51
43
207
51
43
207
51
43
207
51
43
207
51
43
207
51
43
207
51
43
207
51
43
207
51
43
207
51
43
207
51
43
207
51
43
207
51
43
207
51
43
207
51
43
207
51
43
207
51
43
207
51
43
207
51
43
207
51
43
207
51
43
207
51
43
207
51
43
207
51
43
207
51
43
207
51
43
207
51
43
207
51
43
207
51
43
207
51
43
207
51
43
207
51
43
207
51
43
207
51
43
207
51
43
207
51
43
207
51
43
207
51
43
207
51
43
207
51
43
207
51
43
207
51
43
207
51
43
207
51
43
207
51
43
207
51
43
207
51
43
207
51
43
207
51
43
207
51
43
207
51
43
207
51
43
207
51
43
207
51
43
207
51
43
207
51
43
207
51
43
207
51
43
207
51
43
207
51
43
207
51
43
207
51
43
207
51
43
207
51
43
207
51
43
207
51
43
207
51
43
207
51
43
207
51
43
207
51
43
207
51
43
207
51
43
207
51
43
207
51
43
207
51
43
207
51
43
207
51
43
207
51
43
207
51
43
207
51
43
207
51
43
207
51
43
207
51
43
207
51
43
207
51
43
207
51
43
207
51
43
207
51
43
207
51
43
207
51
43
207
51
43
207
51
43
207
51
43
207
51
43
207
51
43
207
51
43
207
51
43
207
51
43
207
51
43
207
51
43
207
51
43
207
51
43
207
51
43
207
51
43
207
51
43
207
51
43
207
51
43
207
51
43
207
51
43
207
51
43
207
51
43
207
51
43
207
51
43
207
51
43
207
51
43
207
51
43
207
51
43
207
51
43
207
51
43
207
51
43
207
51
43
207
51
43
207
51
43
207
51
43
207
51
43
207
51
43
207
51
43
207
51
43
207
51
43
207
51
43
207
51
43
207
51
43
207
51
43
207
51
43
207
51
43
207
51
43
207
51
43
207
51
43
207
51
43
207
51
43
207
51
43
207
51
43
207
51
43
207
51
43
207
51
43
207
51
43
207
51
43
207
51
43
207
51
43
207
51
43
207
51
43
207
51
43
207
51
43
207
51
43
207
51
43
207
51
43
207
51
43
207
51
43
207
51
43
207
51
43
207
51
43
207
51
43
207
51
43
207
51
43
207
51
43
207
51
43
207
51
43
207
51
43
207
51
43
207
51
43
207
51
43
207
51
43
207
51
43
207
51
43
207
51
43
207
51
43
207
51
43
207
51
43
207
51
43
207
51
43
207
51
43
207
51
43
207
51
43
207
51
43
207
51
43
207
51
43
207
51
43
207
51
43
207
51
43
207
51
43
207
51
43
207
51
43
207
51
43
207
51
43
207
51
43
207
51
43
207
51
43
207
51
43
207
51
43
207
51
43
207
51
43
207
51
43
207
51
43
207
51
43
207
51
43
207
51
43
207
51
43
207
51
43
207
51
43
207
51
43
207
51
43
207
51
43
207
51
43
207
51
43
207
51
43
207
51
43
207
51
43
207
51
43
207
51
43
207
51
43
207
51
43
207
51
43
207
51
43
207
51
43
207
51
43
207
51
43
207
51
43
207
51
43
207
51
43
207
51
43
207
51
43
207
51
43
207
51
43
207
51
43
207
51
43
207
51
43
207
51
43
207
51
43
207
51
43
207
51
43
207
51
43
207
51
43
207
51
43
207
51
43
207
51
43
207
51
43
207
51
43
207
51
43
207
51
43
207
51
43
207
51
43
207
51
43
207
51
43
207
51
43
207
51
43
207
51
43
207
51
43
207
51
43
207
51
43
207
51
43
207
51
43
207
51
43
207
51
43
207
51
43
207
51
43
207
51
43
207
51
43
207
51
43
207
51
43
207
51
43
207
51
43
207
51
43
207
51
43
207
51
43
207
51
43
207
51
43
207
51
43
207
51
43
207
51
43
207
51
43
207
51
43
207
51
43
207
51
43
207
51
43
207
51
43
207
51
43
207
51
43
207
51
43
207
51
43
207
51
43
207
51
43
207
51
43
207
51
43
207
51
43
207
51
43
207
51
43
207
51
43
207
51
43
207
51
43
207
51
43
207
51
43
207
51
43
207
51
43
207
51
43
207
51
43
207
51
43
207
51
43
207
51
43
207
51
43
207
51
43
207
51
43
207
51
43
207
51
43
207
51
43
207
51
43
207
51
43
207
51
43
207
51
43
207
51
43
207
51
43
207
51
43
207
51
43
207
51
43
207
51
43
207
51
43
207
51
43
207
51
43
207
51
43
207
51
43
207
51
43
207
51
43
207
51
43
207
51
43
207
51
43
207
51
43
207
51
43
207
51
43
207
51
43
207
51
43
207
51
43
207
51
43
207
51
43
207
51
43
207
51
43
207
51
43
207
51
43
207
51
43
207
51
43
207
51
43
207
51
43
207
51
43
207
51
43
207
51
43
207
51
43
207
51
43
207
51
43
207
51
43
207
51
43
207
51
43
207
51
43
207
51
43
207
51
43
207
51
43
207
51
43
207
51
43
207
51
43
207
51
43
207
51
43
207
51
43
207
51
43
207
51
43
207
51
43
207
51
43
207
51
43
207
51
43
207
51
43
207
51
43
207
51
43
207
51
43
207
51
43
207
51
43
207
51
43
207
51
43
207
51
43
207
51
43
207
51
43
207
51
43
207
51
43
207
51
43
207
51
43
207
51
43
207
51
43
207
51
43
207
51
43
207
51
43
207
51
43
207
51
43
207
51
43
207
51
43
207
51
43
207
51
43
207
51
43
207
51
43
207
51
43
207
51
43
207
51
43
207
51
43
207
51
43
207
51
43
207
51
43
207
51
43
207
51
43
207
51
43
207
51
43
207
51
43
207
51
43
207
51
43
207
51
43
207
51
43
207
51
43
207
51
43
207
51
43
207
51
43
207
51
43
207
51
43
207
51
43
207
51
43
207
51
43
207
51
43
207
51
43
207
51
43
207
51
43
207
51
43
207
51
43
207
51
43
207
51
43
207
51
43
207
51
43
207
51
43
207
51
43
207
51
43
207
51
43
207
51
43
207
51
43
207
51
43
207
51
43
207
51
43
207
51
43
207
51
43
207
51
43
207
51
43
207
51
43
207
51
43
207
51
43
207
51
43
207
51
43
207
51
43
207
51
43
207
51
43
207
51
43
207
51
43
207
51
43
207
51
43
207
51
43
207
51
43
207
51
43
207
51
43
207
51
43
207
51
43
207
51
43
207
51
43
207
51
43
207
51
43
207
51
43
207
51
43
207
51
43
207
51
43
207
51
43
207
51
43
207
51
43
207
51
43
207
51
43
207
51
43
207
51
43
207
51
43
207
51
43
207
51
43
207
51
43
207
51
43
207
51
43
207
51
43
207
51
43
207
51
43
207
51
43
207
51
43
207
51
43
207
51
43
207
51
43
207
51
43
207
51
43
207
51
43
207
51
43
207
51
43
207
51
43
207
51
43
207
51
43
207
51
43
207
51
43
207
51
43
207
51
43
207
51
43
207
51
43
207
51
43
207
51
43
207
51
43
207
51
43
207
51
43
207
51
43
207
51
43
207
51
43
207
51
43
207
51
43
207
51
43
207
51
43
207
51
43
207
51
43
207
51
43
207
51
43
207
51
43
207
51
43
207
51
43
207
51
43
207
51
43
207
51
43
207
51
43
207
51
43
207
51
43
207
51
43
207
51
43
207
51
43
207
51
43
207
51
43
207
51
43
207
51
43
207
51
43
207
51
43
207
51
43
207
51
43
207
51
43
207
51
43
207
51
43
207
51
43
207
51
43
207
51
43
207
51
43
207
51
43
207
51
43
207
51
43
207
51
43
207
51
43
207
51
43
207
51
43
207
51
43
207
51
43
207
51
43
207
51
43
207
51
43
207
51
43
207
51
43
207
51
43
207
51
43
207
51
43
207
51
43
207
51
43
207
51
43
207
51
43
207
51
43
207
51
43
207
51
43
207
51
43
207
51
43
207
51
43
207
51
43
207
51
43
207
51
43
207
51
43
207
51
43
207
51
43
207
51
43
207
51
43
207
51
43
207
51
43
207
51
43
207
51
43
207
51
43
207
51
43
207
51
43
207
51
43
207
51
43
207
51
43
207
51
43
207
51
43
207
51
43
207
51
43
207
51
43
207
51
43
207
51
43
207
51
43
207
51
43
207
51
43
207
51
43
207
51
43
207
51
43
207
51
43
207
51
43
207
51
43
207
51
43
207
51
43
207
51
43
207
51
43
207
51
43
207
51
43
207
51
43
207
51
43
207
51
43
207
51
43
207
51
43
207
51
43
207
51
43
207
51
43
207
51
43
207
51
43
207
51
43
207
51
43
207
51
43
207
51
43
207
51
43
207
51
43
207
51
43
207
51
43
207
51
43
207
51
43
207
51
43
207
51
43
207
51
43
207
51
43
207
51
43
207
51
43
207
51
43
207
51
43
207
51
43
207
51
43
207
51
43
207
51
43
207
51
43
207
51
43
207
51
43
207
51
43
207
51
43
207
51
43
207
51
43
207
51
43
207
51
43
207
51
43
207
51
43
207
51
43
207
51
43
207
51
43
207
51
43
207
51
43
207
51
43
207
51
43
207
51
43
207
51
43
207
51
43
207
51
43
207
51
43
207
51
43
207
51
43
207
51
43
207
51
43
207
51
43
207
51
43
207
51
43
207
51
43
207
51
43
207
51
43
207
51
43
207
51
43
207
51
43
207
51
43
207
51
43
207
51
43
207
51
43
207
51
43
207
51
43
207
51
43
207
51
43
207
51
43
207
51
43
207
51
43
207
51
43
207
51
43
207
51
43
207
51
43
207
51
43
207
51
43
207
51
43
207
51
43
207
51
43
207
51
43
207
51
43
207
51
43
207
51
43
207
51
43
207
51
43
207
51
43
207
51
43
207
51
43
207
51
43
207
51
43
207
51
43
207
51
43
207
51
43
207
51
43
207
51
43
207
51
43
207
51
43
207
51
43
207
51
43
207
51
43
207
51
43
207
51
43
207
51
43
207
51
43
207
51
43
207
51
43
207
51
43
207
51
43
207
51
43
207
51
43
207
51
43
207
51
43
207
51
43
207
51
43
207
51
43
207
51
43
207
51
43
207
51
43
207
51
43
207
51
43
207
51
43
207
51
43
207
51
43
207
51
43
207
51
43
207
51
43
207
51
43
207
51
43
207
51
43
207
51
43
207
51
43
207
51
43
207
51
43
207
51
43
207
51
43
207
51
43
207
51
43
207
51
43
207
51
43
207
51
43
207
51
43
207
51
43
207
51
43
207
51
43
207
51
43
207
51
43
207
51
43
207
51
43
207
51
43
207
51
43
207
51
43
207
51
43
207
51
43
207
51
43
207
51
43
207
51
43
207
51
43
207
51
43
207
51
43
207
51
43
207
51
43
207
51
43
207
51
43
207
51
43
207
51
43
207
51
43
207
51
43
207
51
43
207
51
43
207
51
43
207
51
43
207
51
43
207
51
43
207
51
43
207
51
43
207
51
43
207
51
43
207
51
43
207
51
43
207
51
43
207
51
43
207
51
43
207
51
43
207
51
43
207
51
43
207
51
43
207
51
43
207
51
43
207
51
43
207
51
43
207
51
43
207
51
43
207
51
43
207
51
43
207
51
43
207
51
43
207
51
43
207
51
43
207
51
43
207
51
43
207
51
43
207
51
43
207
51
43
207
51
43
207
51
43
207
51
43
207
51
43
207
51
43
207
51
43
207
51
43
207
51
43
207
51
43
207
51
43
207
51
43
207
51
43
207
51
43
207
51
43
207
51
43
207
51
43
207
51
43
207
51
43
207
51
43
207
51
43
207
51
43
207
51
43
207
51
43
207
51
43
207
51
43
207
51
43
207
51
43
207
51
43
207
51
43
207
51
43
207
51
43
207
51
43
207
51
43
207
51
43
207
51
43
207
51
43
207
51
43
207
51
43
207
51
43
207
51
43
207
51
43
207
51
43
207
51
43
207
51
43
207
51
43
207
51
43
207
51
43
207
51
43
207
51
43
207
51
43
207
51
43
207
51
43
207
51
43
207
51
43
207
51
43
207
51
43
207
51
43
207
51
43
207
51
43
207
51
43
207
51
43
207
51
43
207
51
43
207
51
43
207
51
43
207
51
43
207
51
43
207
51
43
207
51
43
207
51
43
207
51
43
207
51
43
207
51
43
207
51
43
207
51
43
207
51
43
207
51
43
207
51
43
207
51
43
207
51
43
207
51
43
207
51
43
207
51
43
207
51
43
207
51
43
207
51
43
207
51
43
207
51
43
207
51
43
207
51
43
207
51
43
207
51
43
207
51
43
207
51
43
207
51
43
207
51
43
207
51
43
207
51
43
207
51
43
207
51
43
207
51
43
207
51
43
207
51
43
207
51
43
207
51
43
207
51
43
207
51
43
207
51
43
207
51
43
207
51
43
207
51
43
207
51
43
207
51
43
207
51
43
207
51
43
207
51
43
207
51
43
207
51
43
207
51
43
207
51
43
207
51
43
207
51
43
207
51
43
207
51
43
207
51
43
207
51
43
207
51
43
207
51
43
207
51
43
207
51
43
207
51
43
207
51
43
207
51
43
207
51
43
207
51
43
207
51
43
207
51
43
207
51
43
207
51
43
207
51
43
207
51
43
207
51
43
207
51
43
207
51
43
207
51
43
207
51
43
207
51
43
207
51
43
207
51
43
207
51
43
207
51
43
207
51
43
207
51
43
207
51
43
207
51
43
207
51
43
207
51
43
207
51
43
207
51
43
207
51
43
207
51
43
207
51
43
207
51
43
207
51
43
207
51
43
207
51
43
207
51
43
207
51
43
207
51
43
207
51
43
207
51
43
207
51
43
207
51
43
207
51
43
207
51
43
207
51
43
207
51
43
207
51
43
207
51
43
207
51
43
207
51
43
207
51
43
207
51
43
207
51
43
207
51
43
207
51
43
207
51
43
207
51
43
207
51
43
207
51
43
207
51
43
207
51
43
207
51
43
207
51
43
207
51
43
207
51
43
207
51
43
207
51
43
207
51
43
207
51
43
207
51
43
207
51
43
207
51
43
207
51
43
207
51
43
207
51
43
207
51
43
207
51
43
207
51
43
207
51
43
207
51
43
207
51
43
207
51
43
207
51
43
207
51
43
207
51
43
207
51
43
207
51
43
207
51
43
207
51
43
207
51
43
207
51
43
207
51
43
207
51
43
207
51
43
207
51
43
207
51
43
207
51
43
207
51
43
207
51
43
207
51
43
207
51
43
207
51
43
207
51
43
207
51
43
207
51
43
207
51
43
207
51
43
207
51
43
207
51
43
207
51
43
207
51
43
207
51
43
207
51
43
207
51
43
207
51
43
207
51
43
207
51
43
207
51
43
207
51
43
207
51
43
207
51
43
207
51
43
207
51
43
207
51
43
207
51
43
207
51
43
207
51
43
207
51
43
207
51
43
207
51
43
207
51
43
207
51
43
207
51
43
207
51
43
207
51
43
207
51
43
207
51
43
207
51
43
207
51
43
207
51
43
207
51
43
207
51
43
207
51
43
207
51
43
207
51
43
207
51
43
207
51
43
207
51
43
207
51
43
207
51
43
207
51
43
207
51
43
207
51
43
207
51
43
207
51
43
207
51
43
207
51
43
207
51
43
207
51
43
207
51
43
207
51
43
207
51
43
207
51
43
207
51
43
207
51
43
207
51
43
207
51
43
207
51
43
207
51
43
207
51
43
207
51
43
207
51
43
207
51
43
207
51
43
207
51
43
207
51
43
207
51
43
207
51
43
207
51
43
207
51
43
207
51
43
207
51
43
207
51
43
207
51
43
207
51
43
207
51
43
207
51
43
207
51
43
207
51
43
207
51
43
207
51
43
207
51
43
207
51
43
207
51
43
207
51
43
207
51
43
207
51
43
207
51
43
207
51
43
207
51
43
207
51
43
207
51
43
207
51
43
207
51
43
207
51
43
207
51
43
207
51
43
207
51
43
207
51
43
207
51
43
207
51
43
207
51
43
207
51
43
207
51
43
207
51
43
207
51
43
207
51
43
207
51
43
207
51
43
207
51
43
207
51
43
207
51
43
207
51
43
207
51
43
207
51
43
207
51
43
207
51
43
207
51
43
207
51
43
207
51
43
207
51
43
207
51
43
207
51
43
207
51
43
207
51
43
207
51
43
207
51
43
207
51
43
207
51
43
207
51
43
207
51
43
207
51
43
207
51
43
207
51
43
207
51
43
207
51
43
207
51
43
207
51
43
207
51
43
207
51
43
207
51
43
207
51
43
207
51
43
207
51
43
207
51
43
207
51
43
207
51
43
207
51
43
207
51
43
207
51
43
207
51
43
207
51
43
207
51
43
207
51
43
207
51
43
207
51
43
207
51
43
207
51
43
207
51
43
207
51
43
207
51
43
207
51
43
207
51
43
207
51
43
207
51
43
207
51
43
207
51
43
207
51
43
207
51
43
207
51
43
207
51
43
207
51
43
207
51
43
207
51
43
207
51
43
207
51
43
207
51
43
207
51
43
207
51
43
207
51
43
207
51
43
207
51
43
207
51
43
207
51
43
207
51
43
207
51
43
207
51
43
207
51
43
207
51
43
207
51
43
207
51
43
207
51
43
207
51
43
207
51
43
207
51
43
207
51
43
207
51
43
207
51
43
207
51
43
207
51
43
207
51
43
207
51
43
207
51
43
207
51
43
207
51
43
207
51
43
207
51
43
207
51
43
207
51
43
207
51
43
207
51
43
207
51
43
207
51
43
207
51
43
207
51
43
207
51
43
207
51
43
207
51
43
207
51
43
207
51
43
207
51
43
207
51
43
207
51
43
207
51
43
207
51
43
207
51
43
207
51
43
207
51
43
207
51
43
207
51
43
207
51
43
207
51
43
207
51
43
207
51
43
207
51
43
207
51
43
207
51
43
207
51
43
207
51
43
207
51
43
207
51
43
207
51
43
207
51
43
207
51
43
207
51
43
207
51
43
207
51
43
207
51
43
207
51
43
207
51
43
207
51
43
207
51
43
207
51
43
207
51
43
207
51
43
207
51
43
207
51
43
207
51
43
207
51
43
207
51
43
207
51
43
207
51
43
207
51
43
207
51
43
207
51
43
207
51
43
207
51
43
207
51
43
207
51
43
207
51
43
207
51
43
207
51
43
207
51
43
207
51
43
207
51
43
207
51
43
207
51
43
207
51
43
207
51
43
207
51
43
207
51
43
207
51
43
207
51
43
207
51
43
207
51
43
207
51
43
207
51
43
207
51
43
207
51
43
207
51
43
207
51
43
207
51
43
207
51
43
207
51
43
207
51
43
207
51
43
207
51
43
207
51
43
207
51
43
207
51
43
207
51
43
207
51
43
207
51
43
207
51
43
207
51
43
207
51
43
207
51
43
207
51
43
207
51
43
207
51
43
207
51
43
207
51
43
207
51
43
207
51
43
207
51
43
207
51
43
207
51
43
207
51
43
207
51
43
207
51
43
207
51
43
207
51
43
207
51
43
207
51
43
207
51
43
207
51
43
207
51
43
207
51
43
207
51
43
207
51
43
207
51
43
207
51
43
207
51
43
207
51
43
207
51
43
207
51
43
207
51
43
207
51
43
207
51
43
207
51
43
207
51
43
207
51
43
207
51
43
207
51
43
207
51
43
207
51
43
207
51
43
207
51
43
207
51
43
207
51
43
207
51
43
207
51
43
207
51
43
207
51
43
207
51
43
207
51
43
207
51
43
207
51
43
207
51
43
207
51
43
207
51
43
207
51
43
207
51
43
207
51
43
207
51
43
207
51
43
207
51
43
207
51
43
207
51
43
207
51
43
207
51
43
207
51
43
207
51
43
207
51
43
207
51
43
207
51
43
207
51
43
207
51
43
207
51
43
207
51
43
207
51
43
207
51
43
207
51
43
207
51
43
207
51
43
207
51
43
207
51
43
207
51
43
207
51
43
207
51
43
207
51
43
207
51
43
207
51
43
207
51
43
207
51
43
207
51
43
207
51
43
207
51
43
207
51
43
207
51
43
207
51
43
207
51
43
207
51
43
207
51
43
207
51
43
207
51
43
207
51
43
207
51
43
207
51
43
207
51
43
207
51
43
207
51
43
207
51
43
207
51
43
207
51
43
207
51
43
207
51
43
207
51
43
207
51
43
207
51
43
207
51
43
207
51
43
207
51
43
207
51
43
207
51
43
207
51
43
207
51
43
207
51
43
207
51
43
207
51
43
207
51
43
207
51
43
207
51
43
207
51
43
207
51
43
207
51
43
207
51
43
207
51
43
207
51
43
207
51
43
207
51
43
207
51
43
207
51
43
207
51
43
207
51
43
207
51
43
207
51
43
207
51
43
207
51
43
207
51
43
207
51
43
207
51
43
207
51
43
207
51
43
207
51
43
207
51
43
207
51
43
207
51
43
207
51
43
207
51
43
207
51
43
207
51
43
207
51
43
207
51
43
207
51
43
207
51
43
207
51
43
207
51
43
207
51
43
207
51
43
207
51
43
207
51
43
207
51
43
207
51
43
207
51
43
207
51
43
207
51
43
207
51
43
207
51
43
207
51
43
207
51
43
207
51
43
207
51
43
207
51
43
207
51
43
207
51
43
207
51
43
207
51
43
207
51
43
207
51
43
207
51
43
207
51
43
207
51
43
207
51
43
207
51
43
207
51
43
207
51
43
207
51
43
207
51
43
207
51
43
207
51
43
207
51
43
207
51
43
207
51
43
207
51
43
207
51
43
207
51
43
207
51
43
207
51
43
207
51
43
207
51
43
207
51
43
207
51
43
207
51
43
207
51
43
207
51
43
207
51
43
207
51
43
207
51
43
207
51
43
207
51
43
207
51
43
207
51
43
207
51
43
207
51
43
207
51
43
207
51
43
207
51
43
207
51
43
207
51
43
207
51
43
207
51
43
207
51
43
207
51
43
207
51
43
207
51
43
207
51
43
207
51
43
207
51
43
207
51
43
207
51
43
207
51
43
207
51
43
207
51
43
207
51
43
207
51
43
207
51
43
207
51
43
207
51
43
207
51
43
207
51
43
207
51
43
207
51
43
207
51
43
207
51
43
207
51
43
207
51
43
207
51
43
207
51
43
207
51
43
207
51
43
207
51
43
207
51
43
207
51
43
207
51
43
207
51
43
207
51
43
207
51
43
207
51
43
207
51
43
207
51
43
207
51
43
207
51
43
207
51
43
207
51
43
207
51
43
207
51
43
207
51
43
207
51
43
207
51
43
207
51
43
207
51
43
207
51
43
207
51
43
207
51
43
207
51
43
207
51
43
207
51
43
207
51
43
207
51
43
207
51
43
207
51
43
207
51
43
207
51
43
207
51
43
207
51
43
207
51
43
207
51
43
207
51
43
207
51
43
207
51
43
207
51
43
207
51
43
207
51
43
207
51
43
207
51
43
207
51
43
207
51
43
207
51
43
207
51
43
207
51
43
207
51
43
207
51
43
207
51
43
207
51
43
207
51
43
207
51
43
207
51
43
207
51
43
207
51
43
207
51
43
207
51
43
207
51
43
207
51
43
207
51
43
207
51
43
207
51
43
207
51
43
207
51
43
207
51
43
207
51
43
207
51
43
207
51
43
207
51
43
207
51
43
207
51
43
207
51
43
207
51
43
207
51
43
207
51
43
207
51
43
207
51
43
207
51
43
207
51
43
207
51
43
207
51
43
207
51
43
207
51
43
207
51
43
207
51
43
207
51
43
207
51
43
207
51
43
207
51
43
207
51
43
207
51
43
207
51
43
207
51
43
207
51
43
207
51
43
207
51
43
207
51
43
207
51
43
207
51
43
207
51
43
207
51
43
207
51
43
207
51
43
207
51
43
207
51
43
207
51
43
207
51
43
207
51
43
207
51
43
207
51
43
207
51
43
207
51
43
207
51
43
207
51
43
207
51
43
207
51
43
207
51
43
207
51
43
207
51
43
207
51
43
207
51
43
207
51
43
207
51
43
207
51
43
207
51
43
207
51
43
207
51
43
207
51
43
207
51
43
207
51
43
207
51
43
207
51
43
207
51
43
207
51
43
207
51
43
207
51
43
207
51
43
207
51
43
207
51
43
207
51
43
207
51
43
207
51
43
207
51
43
207
51
43
207
51
43
207
51
43
207
51
43
207
51
43
207
51
43
207
51
43
207
51
43
207
51
43
207
51
43
207
51
43
207
51
43
207
51
43
207
51
43
207
51
43
207
51
43
207
51
43
207
51
43
207
51
43
207
51
43
207
51
43
207
51
43
207
51
43
207
51
43
207
51
43
207
51
43
207
51
43
207
51
43
207
51
43
207
51
43
207
51
43
207
51
43
207
51
43
207
51
43
207
51
43
207
51
43
207
51
43
207
51
43
207
51
43
207
51
43
207
51
43
207
51
43
207
51
43
207
51
43
207
51
43
207
51
43
207
51
43
207
51
43
207
51
43
207
51
43
207
51
43
207
51
43
207
51
43
207
51
43
207
51
43
207
51
43
207
51
43
207
51
43
207
51
43
207
51
43
207
51
43
207
51
43
207
51
43
207
51
43
207
51
43
207
51
43
207
51
43
207
51
43
207
51
43
207
51
43
207
51
43
207
51
43
207
51
43
207
51
43
207
51
43
207
51
43
207
51
43
207
51
43
207
51
43
207
51
43
207
51
43
207
51
43
207
51
43
207
51
43
207
51
43
207
51
43
207
51
43
207
51
43
207
51
43
207
51
43
207
51
43
207
51
43
207
51
43
207
51
43
207
51
43
207
51
43
207
51
43
207
51
43
207
51
43
207
51
43
207
51
43
207
51
43
207
51
43
207
51
43
207
51
43
207
51
43
207
51
43
207
51
43
207
51
43
207
51
43
207
51
43
207
51
43
207
51
43
207
51
43
207
51
43
207
51
43
207
51
43
207
51
43
207
51
43
207
51
43
207
51
43
207
51
43
207
51
43
207
51
43
207
51
43
207
51
43
207
51
43
207
51
43
207
51
43
207
51
43
207
51
43
207
51
43
207
51
43
207
51
43
207
51
43
207
51
43
207
51
43
207
51
43
207
51
43
207
51
43
207
51
43
207
51
43
207
51
43
207
51
43
207
51
43
207
51
43
207
51
43
207
51
43
207
51
43
207
51
43
207
51
43
207
51
43
207
51
43
207
51
43
207
51
43
207
51
43
207
51
43
207
51
43
207
51
43
207
51
43
207
51
43
207
51
43
207
51
43
207
51
43
207
51
43
207
51
43
207
51
43
207
51
43
207
51
43
207
51
43
207
51
43
207
51
43
207
51
43
207
51
43
207
51
43
207
51
43
207
51
43
207
51
43
207
51
43
207
51
43
207
51
43
207
51
43
207
51
43
207
51
43
207
51
43
207
51
43
207
51
43
207
51
43
207
51
43
207
51
43
207
51
43
207
51
43
207
51
43
207
51
43
207
51
43
207
51
43
207
51
43
207
51
43
207
51
43
207
51
43
207
51
43
207
51
43
207
51
43
207
51
43
207
51
43
207
51
43
207
51
43
207
51
43
207
51
43
207
51
43
207
51
43
207
51
43
207
51
43
207
51
43
207
51
43
207
51
43
207
51
43
207
51
43
207
51
43
207
51
43
207
51
43
207
51
43
207
51
43
207
51
43
207
51
43
207
51
43
207
51
43
207
51
43
207
51
43
207
51
43
207
51
43
207
51
43
207
51
43
207
51
43
207
51
43
207
51
43
207
51
43
207
51
43
207
51
43
207
51
43
207
51
43
207
51
43
207
51
43
207
51
43
207
51
43
207
51
43
207
51
43
207
51
43
207
51
43
207
51
43
207
51
43
207
51
43
207
51
43
207
51
43
207
51
43
207
51
43
207
51
43
207
51
43
207
51
43
207
51
43
207
51
43
207
51
43
207
51
43
207
51
43
207
51
43
207
51
43
207
51
43
207
51
43
207
51
43
207
51
43
207
51
43
207
51
43
207
51
43
207
51
43
207
51
43
207
51
43
207
51
43
207
51
43
207
51
43
207
51
43
207
51
43
207
51
43
207
51
43
207
51
43
207
51
43
207
51
43
207
51
43
207
51
43
207
51
43
207
51
43
207
51
43
207
51
43
207
51
43
207
51
43
207
51
43
207
51
43
207
51
43
207
51
43
207
51
43
207
51
43
207
51
43
207
51
43
207
51
43
207
51
43
207
51
43
207
51
43
207
51
43
207
51
43
207
51
43
207
51
43
207
51
43
207
51
43
207
51
43
207
51
43
207
51
43
207
51
43
207
51
43
207
51
43
207
51
43
207
51
43
207
51
43
207
51
43
207
51
43
207
51
43
207
51
43
207
51
43
207
51
43
207
51
43
207
51
43
207
51
43
207
51
43
207
51
43
207
51
43
207
51
43
207
51
43
207
51
43
207
51
43
207
51
43
207
51
43
207
51
43
207
51
43
207
51
43
207
51
43
207
51
43
207
51
43
207
51
43
207
51
43
207
51
43
207
51
43
207
51
43
207
51
43
207
51
43
207
51
43
207
51
43
207
51
43
207
51
43
207
51
43
207
51
43
207
51
43
207
51
43
207
51
43
207
51
43
207
51
43
207
51
43
207
51
43
207
51
43
207
51
43
207
51
43
207
51
43
207
51
43
207
51
43
207
51
43
207
51
43
207
51
43
207
51
43
207
51
43
207
51
43
207
51
43
207
51
43
207
51
43
207
51
43
207
51
43
207
51
43
207
51
43
207
51
43
207
51
43
207
51
43
207
51
43
207
51
43
207
51
43
207
51
43
207
51
43
207
51
43
207
51
43
207
51
43
207
51
43
207
51
43
207
51
43
207
51
43
207
51
43
207
51
43
207
51
43
207
51
43
207
51
43
207
51
43
207
51
43
207
51
43
207
51
43
207
51
43
207
51
43
207
51
43
207
51
43
207
51
43
207
51
43
207
51
43
207
51
43
207
51
43
207
51
43
207
51
43
207
51
43
207
51
43
207
51
43
207
51
43
207
51
43
207
51
43
207
51
43
207
51
43
207
51
43
207
51
43
207
51
43
207
51
43
207
51
43
207
51
43
207
51
43
207
51
43
207
51
43
207
51
43
207
51
43
207
51
43
207
51
43
207
51
43
207
51
43
207
51
43
207
51
43
207
51
43
207
51
43
207
51
43
207
51
43
207
51
43
207
51
43
207
51
43
207
51
43
207
51
43
207
51
43
207
51
43
207
51
43
207
51
43
207
51
43
207
51
43
207
51
43
207
51
43
207
51
43
207
51
43
207
51
43
207
51
43
207
51
43
207
51
43
207
51
43
207
51
43
207
51
43
207
51
43
207
51
43
207
51
43
207
51
43
207
51
43
207
51
43
207
51
43
207
51
43
207
51
43
207
51
43
207
51
43
207
51
43
207
51
43
207
51
43
207
51
43
207
51
43
207
51
43
207
51
43
207
51
43
207
51
43
207
51
43
207
51
43
207
51
43
207
51
43
207
51
43
207
51
43
207
51
43
207
51
43
207
51
43
207
51
43
207
51
43
207
51
43
207
51
43
207
51
43
207
51
43
207
51
43
207
51
43
207
51
43
207
51
43
207
51
43
207
51
43
207
51
43
207
51
43
207
51
43
207
51
43
207
51
43
207
51
43
207
51
43
207
51
43
207
51
43
207
51
43
207
51
43
207
51
43
207
51
43
207
51
43
207
51
43
207
51
43
207
51
43
207
51
43
207
51
43
207
51
43
207
51
43
207
51
43
207
51
43
207
51
43
207
51
43
207
51
43
207
51
43
207
51
43
207
51
43
207
51
43
207
51
43
207
51
43
207
51
43
207
51
43
207
51
43
207
51
43
207
51
43
207
51
43
207
51
43
207
51
43
207
51
43
207
51
43
207
51
43
207
51
43
207
51
43
207
51
43
207
51
43
207
51
43
207
51
43
207
51
43
207
51
43
207
51
43
207
51
43
207
51
43
207
51
43
207
51
43
207
51
43
207
51
43
207
51
43
207
51
43
207
51
43
207
51
43
207
51
43
207
51
43
207
51
43
207
51
43
207
51
43
207
51
43
207
51
43
207
51
43
207
51
43
207
51
43
207
51
43
207
51
43
207
51
43
207
51
43
207
51
43
207
51
43
207
51
43
207
51
43
207
51
43
207
51
43
207
51
43
207
51
43
207
51
43
207
51
43
207
51
43
207
51
43
207
51
43
207
51
43
207
51
43
207
51
43
207
51
43
207
51
43
207
51
43
207
51
43
207
51
43
207
51
43
207
51
43
207
51
43
207
51
43
207
51
43
207
51
43
207
51
43
207
51
43
207
51
43
207
51
43
207
51
43
207
51
43
207
51
43
207
51
43
207
51
43
207
51
43
207
51
43
207
51
43
207
51
43
207
51
43
207
51
43
207
51
43
207
51
43
207
51
43
207
51
43
207
51
43
207
51
43
207
51
43
207
51
43
207
51
43
207
51
43
207
51
43
207
51
43
207
51
43
207
51
43
207
51
43
207
51
43
207
51
43
207
51
43
207
51
43
207
51
43
207
51
43
207
51
43
207
51
43
207
51
43
207
51
43
207
51
43
207
51
43
207
51
43
207
51
43
207
51
43
207
51
43
207
51
43
207
51
43
207
51
43
207
51
43
207
51
43
207
51
43
207
51
43
207
51
43
207
51
43
207
51
43
207
51
43
207
51
43
207
51
43
207
51
43
207
51
43
207
51
43
207
51
43
207
51
43
207
51
43
207
51
43
207
51
43
207
51
43
207
51
43
207
51
43
207
51
43
207
51
43
207
51
43
207
51
43
207
51
43
207
51
43
207
51
43
207
51
43
207
51
43
207
51
43
207
51
43
207
51
43
207
51
43
207
51
43
207
51
43
207
51
43
207
51
43
207
51
43
207
51
43
207
51
43
207
51
43
207
51
43
207
51
43
207
51
43
207
51
43
207
51
43
207
51
43
207
51
43
207
51
43
207
51
43
207
51
43
207
51
43
207
51
43
207
51
43
207
51
43
207
51
43
207
51
43
207
51
43
207
51
43
207
51
43
207
51
43
207
51
43
207
51
43
207
51
43
207
51
43
207
51
43
207
51
43
207
51
43
207
51
43
207
51
43
207
51
43
207
51
43
207
51
43
207
51
43
207
51
43
207
51
43
207
51
43
207
51
43
207
51
43
207
51
43
207
51
43
207
51
43
207
51
43
207
51
43
207
51
43
207
51
43
207
51
43
207
51
43
207
51
43
207
51
43
207
51
43
207
51
43
207
51
43
207
51
43
207
51
43
207
51
43
207
51
43
207
51
43
207
51
43
207
51
43
207
51
43
207
51
43
207
51
43
207
51
43
207
51
43
207
51
43
207
51
43
207
51
43
207
51
43
207
51
43
207
51
43
207
51
43
207
51
43
207
51
43
207
51
43
207
51
43
207
51
43
207
51
43
207
51
43
207
51
43
207
51
43
207
51
43
207
51
43
207
51
43
207
51
43
207
51
43
207
51
43
207
51
43
207
51
43
207
51
43
207
51
43
207
51
43
207
51
43
207
51
43
207
51
43
207
51
43
207
51
43
207
51
43
207
51
43
207
51
43
207
51
43
207
51
43
207
51
43
207
51
43
207
51
43
207
51
43
207
51
43
207
51
43
207
51
43
207
51
43
207
51
43
207
51
43
207
51
43
207
51
43
207
51
43
207
51
43
207
51
43
207
51
43
207
51
43
207
51
43
207
51
43
207
51
43
207
51
43
207
51
43
207
51
43
207
51
43
207
51
43
207
51
43
207
51
43
207
51
43
207
51
43
207
51
43
207
51
43
207
51
43
207
51
43
207
51
43
207
51
43
207
51
43
207
51
43
207
51
43
207
51
43
207
51
43
207
51
43
207
51
43
207
51
43
207
51
43
207
51
43
207
51
43
207
51
43
207
51
43
207
51
43
207
51
43
207
51
43
207
51
43
207
51
43
207
51
43
207
51
43
207
51
43
207
51
43
207
51
43
207
51
43
207
51
43
207
51
43
207
51
43
207
51
43
207
51
43
207
51
43
207
51
43
207
51
43
207
51
43
207
51
43
207
51
43
207
51
43
207
51
43
207
51
43
207
51
43
207
51
43
207
51
43
207
51
43
207
51
43
207
51
43
207
51
43
207
51
43
207
51
43
207
51
43
207
51
43
207
51
43
207
51
43
207
51
43
207
51
43
207
51
43
207
51
43
207
51
43
207
51
43
207
51
43
207
51
43
207
51
43
207
51
43
207
51
43
207
51
43
207
51
43
207
51
43
207
51
43
207
51
43
207
51
43
207
51
43
207
51
43
207
51
43
207
51
43
207
51
43
207
51
43
207
51
43
207
51
43
207
51
43
207
51
43
207
51
43
207
51
43
207
51
43
207
51
43
207
51
43
207
51
43
207
51
43
207
51
43
207
51
43
207
51
43
207
51
43
207
51
43
207
51
43
207
51
43
207
51
43
207
51
43
207
51
43
207
51
43
207
51
43
207
51
43
207
51
43
207
51
43
207
51
43
207
51
43
207
51
43
207
51
43
207
51
43
207
51
43
207
51
43
207
51
43
207
51
43
207
51
43
207
51
43
207
51
43
207
51
43
207
51
43
207
51
43
207
51
43
207
51
43
207
51
43
207
51
43
207
51
43
207
51
43
207
51
43
207
51
43
207
51
43
207
51
43
207
51
43
207
51
43
207
51
43
207
51
43
207
51
43
207
51
43
207
51
43
207
51
43
207
51
43
207
51
43
207
51
43
207
51
43
207
51
43
207
51
43
207
51
43
207
51
43
207
51
43
207
51
43
207
51
43
207
51
43
207
51
43
207
51
43
207
51
43
207
51
43
207
51
43
207
51
43
207
51
43
207
51
43
207
51
43
207
51
43
207
51
43
207
51
43
207
51
43
207
51
43
207
51
43
207
51
43
207
51
43
207
51
43
207
51
43
207
51
43
207
51
43
207
51
43
207
51
43
207
51
43
207
51
43
207
51
43
207
51
43
207
51
43
207
51
43
207
51
43
207
51
43
207
51
43
207
51
43
207
51
43
207
51
43
207
51
43
207
51
43
207
51
43
207
51
43
207
51
43
207
51
43
207
51
43
207
51
43
207
51
43
207
51
43
207
51
43
207
51
43
207
51
43
207
51
43
207
51
43
207
51
43
207
51
43
207
51
43
207
51
43
207
51
43
207
51
43
207
51
43
207
51
43
207
51
43
207
51
43
207
51
43
207
51
43
207
51
43
207
51
43
207
51
43
207
51
43
207
51
43
207
51
43
207
51
43
207
51
43
207
51
43
207
51
43
207
51
43
207
51
43
207
51
43
207
51
43
207
51
43
207
51
43
207
51
43
207
51
43
207
51
43
207
51
43
207
51
43
207
51
43
207
51
43
207
51
43
207
51
43
207
51
43
207
51
43
207
51
43
207
51
43
207
51
43
207
51
43
207
51
43
207
51
43
207
51
43
207
51
43
207
51
43
207
51
43
207
51
43
207
51
43
207
51
43
207
51
43
207
51
43
207
51
43
207
51
43
207
51
43
207
51
43
207
51
43
207
51
43
207
51
43
207
51
43
207
51
43
207
51
43
207
51
43
207
51
43
207
51
43
207
51
43
207
51
43
207
51
43
207
51
43
207
51
43
207
51
43
207
51
43
207
51
43
207
51
43
207
51
43
207
51
43
207
51
43
207
51
43
207
51
43
207
51
43
207
51
43
207
51
43
207
51
43
207
51
43
207
51
43
207
51
43
207
51
43
207
51
43
207
51
43
207
51
43
207
51
43
207
51
43
207
51
43
207
51
43
207
51
43
207
51
43
207
51
43
207
51
43
207
51
43
207
51
43
207
51
43
207
51
43
207
51
43
207
51
43
207
51
43
207
51
43
207
51
43
207
51
43
207
51
43
207
51
43
207
51
43
207
51
43
207
51
43
207
51
43
207
51
43
207
51
43
207
51
43
207
51
43
207
51
43
207
51
43
207
51
43
207
51
43
207
51
43
207
51
43
207
51
43
207
51
43
207
51
43
207
51
43
207
51
43
207
51
43
207
51
43
207
51
43
207
51
43
207
51
43
207
51
43
207
51
43
207
51
43
207
51
43
207
51
43
207
51
43
207
51
43
207
51
43
207
51
43
207
51
43
207
51
43
207
51
43
207
51
43
207
51
43
207
51
43
207
51
43
207
51
43
207
51
43
207
51
43
207
51
43
207
51
43
207
51
43
207
51
43
207
51
43
207
51
43
207
51
43
207
51
43
207
51
43
207
51
43
207
51
43
207
51
43
207
51
43
207
51
43
207
51
43
207
51
43
207
51
43
207
51
43
207
51
43
207
51
43
207
51
43
207
51
43
207
51
43
207
51
43
207
51
43
207
51
43
207
51
43
207
51
43
207
51
43
207
51
43
207
51
43
207
51
43
207
51
43
207
51
43
207
51
43
207
51
43
207
51
43
207
51
43
207
51
43
207
51
43
207
51
43
207
51
43
207
51
43
207
51
43
207
51
43
207
51
43
207
51
43
207
51
43
207
51
43
207
51
43
207
51
43
207
51
43
207
51
43
207
51
43
207
51
43
207
51
43
207
51
43
207
51
43
207
51
43
207
51
43
207
51
43
207
51
43
207
51
43
207
51
43
207
51
43
207
51
43
207
51
43
207
51
43
207
51
43
207
51
43
207
51
43
207
51
43
207
51
43
207
51
43
207
51
43
207
51
43
207
51
43
207
51
43
207
51
43
207
51
43
207
51
43
207
51
43
207
51
43
207
51
43
207
51
43
207
51
43
207
51
43
207
51
43
207
51
43
207
51
43
207
51
43
207
51
43
207
51
43
207
51
43
207
51
43
207
51
43
207
51
43
207
51
43
207
51
43
207
51
43
207
51
43
207
51
43
207
51
43
207
51
43
207
51
43
207
51
43
207
51
43
207
51
43
207
51
43
207
51
43
207
51
43
207
51
43
207
51
43
207
51
43
207
51
43
207
51
43
207
51
43
207
51
43
207
51
43
207
51
43
207
51
43
207
51
43
207
51
43
207
51
43
207
51
43
207
51
43
207
51
43
207
51
43
207
51
43
207
51
43
207
51
43
207
51
43
207
51
43
207
51
43
207
51
43
207
51
43
207
51
43
207
51
43
207
51
43
207
51
43
207
51
43
207
51
43
207
51
43
207
51
43
207
51
43
207
51
43
207
51
43
207
51
43
207
51
43
207
51
43
207
51
43
207
51
43
207
51
43
207
51
43
207
51
43
207
51
43
207
51
43
207
51
43
207
51
43
207
51
43
207
51
43
207
51
43
207
51
43
207
51
43
207
51
43
207
51
43
207
51
43
207
51
43
207
51
43
207
51
43
207
51
43
207
51
43
207
51
43
207
51
43
207
51
43
207
51
43
207
51
43
207
51
43
207
51
43
207
51
43
207
51
43
207
51
43
207
51
43
207
51
43
207
51
43
207
51
43
207
51
43
207
51
43
207
51
43
207
51
43
207
51
43
207
51
43
207
51
43
207
51
43
207
51
43
207
51
43
207
51
43
207
51
43
207
51
43
207
51
43
207
51
43
207
51
43
207
51
43
207
51
43
207
51
43
207
51
43
207
51
43
207
51
43
207
51
43
207
51
43
207
51
43
207
51
43
207
51
43
207
51
43
207
51
43
207
51
43
207
51
43
207
51
43
207
51
43
207
51
43
207
51
43
207
51
43
207
51
43
207
51
43
207
51
43
207
51
43
207
51
43
207
51
43
207
51
43
207
51
43
207
51
43
207
51
43
207
51
43
207
51
43
207
51
43
207
51
43
207
51
43
207
51
43
207
51
43
207
51
43
207
51
43
207
51
43
207
51
43
207
51
43
207
51
43
207
51
43
207
51
43
207
51
43
207
51
43
207
51
43
207
51
43
207
51
43
207
51
43
207
51
43
207
51
43
207
51
43
207
51
43
207
51
43
207
51
43
207
51
43
207
51
43
207
51
43
207
51
43
207
51
43
207
51
43
207
51
43
207
51
43
207
51
43
207
51
43
207
51
43
207
51
43
207
51
43
207
51
43
207
51
43
207
51
43
207
51
43
207
51
43
207
51
43
207
51
43
207
51
43
207
51
43
207
51
43
207
51
43
207
51
43
207
51
43
207
51
43
207
51
43
207
51
43
207
51
43
207
51
43
207
51
43
207
51
43
207
51
43
207
51
43
207
51
43
207
51
43
207
51
43
207
51
43
207
51
43
207
51
43
207
51
43
207
51
43
207
51
43
207
51
43
207
51
43
207
51
43
207
51
43
207
51
43
207
51
43
207
51
43
207
51
43
207
51
43
207
51
43
207
51
43
207
51
43
207
51
43
207
51
43
207
51
43
207
51
43
207
51
43
207
51
43
207
51
43
207
51
43
207
51
43
207
51
43
207
51
43
207
51
43
207
51
43
207
51
43
207
51
43
207
51
43
207
51
43
207
51
43
207
51
43
207
51
43
207
51
43
207
51
43
207
51
43
207
51
43
207
51
43
207
51
43
207
51
43
207
51
43
207
51
43
207
51
43
207
51
43
207
51
43
207
51
43
207
51
43
207
51
43
207
51
43
207
51
43
207
51
43
207
51
43
207
51
43
207
51
43
207
51
43
207
51
43
207
51
43
207
51
43
207
51
43
207
51
43
207
51
43
207
51
43
207
51
43
207
51
43
207
51
43
207
51
43
207
51
43
207
51
43
207
51
43
207
51
43
207
51
43
207
51
43
207
51
43
207
51
43
207
51
43
207
51
43
207
51
43
207
51
43
207
51
43
207
51
43
207
51
43
207
51
43
207
51
43
207
51
43
207
51
43
207
51
43
207
51
43
207
51
43
207
51
43
207
51
43
207
51
43
207
51
43
207
51
43
207
51
43
207
51
43
207
51
43
207
51
43
207
51
43
207
51
43
207
51
43
207
51
43
207
51
43
207
51
43
207
51
43
207
51
43
207
51
43
207
51
43
207
51
43
207
51
43
207
51
43
207
51
43
207
51
43
207
51
43
207
51
43
207
51
43
207
51
43
207
51
43
207
51
43
207
51
43
207
51
43
207
51
43
207
51
43
207
51
43
207
51
43
207
51
43
207
51
43
207
51
43
207
51
43
207
51
43
207
51
43
207
51
43
207
51
43
207
51
43
207
51
43
207
51
43
207
51
43
207
51
43
207
51
43
207
51
43
207
51
43
207
51
43
207
51
43
207
51
43
207
51
43
207
51
43
207
51
43
207
51
43
207
51
43
207
51
43
207
51
43
207
51
43
207
51
43
207
51
43
207
51
43
207
51
43
207
51
43
207
51
43
207
51
43
207
51
43
207
51
43
207
51
43
207
51
43
207
51
43
207
51
43
207
51
43
207
51
43
207
51
43
207
51
43
207
51
43
207
51
43
207
51
43
207
51
43
207
51
43
207
51
43
207
51
43
207
51
43
207
51
43
207
51
43
207
51
43
207
51
43
207
51
43
207
51
43
207
51
43
207
51
43
207
51
43
207
51
43
207
51
43
207
51
43
207
51
43
207
51
43
207
51
43
207
51
43
207
51
43
207
51
43
207
51
43
207
51
43
207
51
43
207
51
43
207
51
43
207
51
43
207
51
43
207
51
43
207
51
43
207
51
43
207
51
43
207
51
43
207
51
43
207
51
43
207
51
43
207
51
43
207
51
43
207
51
43
207
51
43
207
51
43
207
51
43
207
51
43
207
51
43
207
51
43
207
51
43
207
51
43
207
51
43
207
51
43
207
51
43
207
51
43
207
51
43
207
51
43
207
51
43
207
51
43
207
51
43
207
51
43
207
51
43
207
51
43
207
51
43
207
51
43
207
51
43
207
51
43
207
51
43
207
51
43
207
51
43
207
51
43
207
51
43
207
51
43
207
51
43
207
51
43
207
51
43
207
51
43
207
51
43
207
51
43
207
51
43
207
51
43
207
51
43
207
51
43
207
51
43
207
51
43
207
51
43
207
51
43
207
51
43
207
51
43
207
51
43
207
51
43
207
51
43
207
51
43
207
51
43
207
51
43
207
51
43
207
51
43
207
51
43
207
51
43
207
51
43
207
51
43
207
51
43
207
51
43
207
51
43
207
51
43
207
51
43
207
51
43
207
51
43
207
51
43
207
51
43
207
51
43
207
51
43
207
51
43
207
51
43
207
51
43
207
51
43
207
51
43
207
51
43
207
51
43
207
51
43
207
51
43
207
51
43
207
51
43
207
51
43
207
51
43
207
51
43
207
51
43
207
51
43
207
51
43
207
51
43
207
51
43
207
51
43
207
51
43
207
51
43
207
51
43
207
51
43
207
51
43
207
51
43
207
51
43
207
51
43
207
51
43
207
51
43
207
51
43
207
51
43
207
51
43
207
51
43
207
51
43
207
51
43
207
51
43
207
51
43
207
51
43
207
51
43
207
51
43
207
51
43
207
51
43
207
51
43
207
51
43
207
51
43
207
51
43
207
51
43
207
51
43
207
51
43
207
51
43
207
51
43
207
51
43
207
51
43
207
51
43
207
51
43
207
51
43
207
51
43
207
51
43
207
51
43
207
51
43
207
51
43
207
51
43
207
51
43
207
51
43
207
51
43
207
51
43
207
51
43
207
51
43
207
51
43
207
51
43
207
51
43
207
51
43
207
51
43
207
51
43
207
51
43
207
51
43
207
51
43
207
51
43
207
51
43
207
51
43
207
51
43
207
51
43
207
51
43
207
51
43
207
51
43
207
51
43
207
51
43
207
51
43
207
51
43
207
51
43
207
51
43
207
51
43
207
51
43
207
51
43
207
51
43
207
51
43
207
51
43
207
51
43
207
51
43
207
51
43
207
51
43
207
51
43
207
51
43
207
51
43
207
51
43
207
51
43
207
51
43
207
51
43
207
51
43
207
51
43
207
51
43
207
51
43
207
51
43
207
51
43
207
51
43
207
51
43
207
51
43
207
51
43
207
51
43
207
51
43
207
51
43
207
51
43
207
51
43
207
51
43
207
51
43
207
51
43
207
51
43
207
51
43
207
51
43
207
51
43
207
51
43
207
51
43
207
51
43
207
51
43
207
51
43
207
51
43
207
51
43
207
51
43
207
51
43
207
51
43
207
51
43
207
51
43
207
51
43
207
51
43
207
51
43
207
51
43
207
51
43
207
51
43
207
51
43
207
51
43
207
51
43
207
51
43
207
51
43
207
51
43
207
51
43
207
51
43
207
51
43
207
51
43
207
51
43
207
51
43
207
51
43
207
51
43
207
51
43
207
51
43
207
51
43
207
51
43
207
51
43
207
51
43
207
51
43
207
51
43
207
51
43
207
51
43
207
51
43
207
51
43
207
51
43
207
51
43
207
51
43
207
51
43
207
51
43
207
51
43
207
51
43
207
51
43
207
51
43
207
51
43
207
51
43
207
51
43
207
51
43
207
51
43
207
51
43
207
51
43
207
51
43
207
51
43
207
51
43
207
51
43
207
51
43
207
51
43
207
51
43
207
51
43
207
51
43
207
51
43
207
51
43
207
51
43
207
51
43
207
51
43
207
51
43
207
51
43
207
51
43
207
51
43
207
51
43
207
51
43
207
51
43
207
51
43
207
51
43
207
51
43
207
51
43
207
51
43
207
51
43
207
51
43
207
51
43
207
51
43
207
51
43
207
51
43
207
51
43
207
51
43
207
51
43
207
51
43
207
51
43
207
51
43
207
51
43
207
51
43
207
51
43
207
51
43
207
51
43
207
51
43
207
51
43
207
51
43
207
51
43
207
51
43
207
51
43
207
51
43
207
51
43
207
51
43
207
51
43
207
51
43
207
51
43
207
51
43
207
51
43
207
51
43
207
51
43
207
51
43
207
51
43
207
51
43
207
51
43
207
51
43
207
51
43
207
51
43
207
51
43
207
51
43
207
51
43
207
51
43
207
51
43
207
51
43
207
51
43
207
51
43
207
51
43
207
51
43
207
51
43
207
51
43
207
51
43
207
51
43
207
51
43
207
51
43
207
51
43
207
51
43
207
51
43
207
51
43
207
51
43
207
51
43
207
51
43
207
51
43
207
51
43
207
51
43
207
51
43
207
51
43
207
51
43
207
51
43
207
51
43
207
51
43
207
51
43
207
51
43
207
51
43
207
51
43
207
51
43
207
51
43
207
51
43
207
51
43
207
51
43
207
51
43
207
51
43
207
51
43
207
51
43
207
51
43
207
51
43
207
51
43
207
51
43
207
51
43
207
51
43
207
51
43
207
51
43
207
51
43
207
51
43
207
51
43
207
51
43
207
51
43
207
51
43
207
51
43
207
51
43
207
51
43
207
51
43
207
51
43
207
51
43
207
51
43
207
51
43
207
51
43
207
51
43
207
51
43
207
51
43
207
51
43
207
51
43
207
51
43
207
51
43
207
51
43
207
51
43
207
51
43
207
51
43
207
51
43
207
51
43
207
51
43
207
51
43
207
51
43
207
51
43
207
51
43
207
51
43
207
51
43
207
51
43
207
51
43
207
51
43
207
51
43
207
51
43
207
51
43
207
51
43
207
51
43
207
51
43
207
51
43
207
51
43
207
51
43
207
51
43
207
51
43
207
51
43
207
51
43
207
51
43
207
51
43
207
51
43
207
51
43
207
51
43
207
51
43
207
51
43
207
51
43
207
51
43
207
51
43
207
51
43
207
51
43
207
51
43
207
51
43
207
51
43
207
51
43
207
51
43
207
51
43
207
51
43
207
51
43
207
51
43
207
51
43
207
51
43
207
51
43
207
51
43
207
51
43
207
51
43
207
51
43
207
51
43
207
51
43
207
51
43
207
51
43
207
51
43
207
51
43
207
51
43
207
51
43
207
51
43
207
51
43
207
51
43
207
51
43
207
51
43
207
51
43
207
51
43
207
51
43
207
51
43
207
51
43
207
51
43
207
51
43
207
51
43
207
51
43
207
51
43
207
51
43
207
51
43
207
51
43
207
51
43
207
51
43
207
51
43
207
51
43
207
51
43
207
51
43
207
51
43
207
51
43
207
51
43
207
51
43
207
51
43
207
51
43
207
51
43
207
51
43
207
51
43
207
51
43
207
51
43
207
51
43
207
51
43
207
51
43
207
51
43
207
51
43
207
51
43
207
51
43
207
51
43
207
51
43
207
51
43
207
51
43
207
51
43
207
51
43
207
51
43
207
51
43
207
51
43
207
51
43
207
51
43
207
51
43
207
51
43
207
51
43
207
51
43
207
51
43
207
51
43
207
51
43
207
51
43
207
51
43
207
51
43
207
51
43
207
51
43
207
51
43
207
51
43
207
51
43
207
51
43
207
51
43
207
51
43
207
51
43
207
51
43
207
51
43
207
51
43
207
51
43
207
51
43
207
51
43
207
51
43
207
51
43
207
51
43
207
51
43
207
51
43
207
51
43
207
51
43
207
51
43
207
51
43
207
51
43
207
51
43
207
51
43
207
51
43
207
51
43
207
51
43
207
51
43
207
51
43
207
51
43
207
51
43
207
51
43
207
51
43
207
51
43
207
51
43
207
51
43
207
51
43
207
51
43
207
51
43
207
51
43
207
51
43
207
51
43
207
51
43
207
51
43
207
51
43
207
51
43
207
51
43
207
51
43
207
51
43
207
51
43
207
51
43
207
51
43
207
51
43
207
51
43
207
51
43
207
51
43
207
51
43
207
51
43
207
51
43
207
51
43
207
51
43
207
51
43
207
51
43
207
51
43
207
51
43
207
51
43
207
51
43
207
51
43
207
51
43
207
51
43
207
51
43
207
51
43
207
51
43
207
51
43
207
51
43
207
51
43
207
51
43
207
51
43
207
51
43
207
51
43
207
51
43
207
51
43
207
51
43
207
51
43
207
51
43
207
51
43
207
51
43
207
51
43
207
51
43
207
51
43
207
51
43
207
51
43
207
51
43
207
51
43
207
51
43
207
51
43
207
51
43
207
51
43
207
51
43
207
51
43
207
51
43
207
51
43
207
51
43
207
51
43
207
51
43
207
51
43
207
51
43
207
51
43
207
51
43
207
51
43
207
51
43
207
51
43
207
51
43
207
51
43
207
51
43
207
51
43
207
51
43
207
51
43
207
51
43
207
51
43
207
51
43
207
51
43
207
51
43
207
51
43
207
51
43
207
51
43
207
51
43
207
51
43
207
51
43
207
51
43
207
51
43
207
51
43
207
51
43
207
51
43
207
51
43
207
51
43
207
51
43
207
51
43
207
51
43
207
51
43
207
51
43
207
51
43
207
51
43
207
51
43
207
51
43
207
51
43
207
51
43
207
51
43
207
51
43
207
51
43
207
51
43
207
51
43
207
51
43
207
51
43
207
51
43
207
51
43
207
51
43
207
51
43
207
51
43
207
51
43
207
51
43
207
51
43
207
51
43
207
51
43
207
51
43
207
51
43
207
51
43
207
51
43
207
51
43
207
51
43
207
51
43
207
51
43
207
51
43
207
51
43
207
51
43
207
51
43
207
51
43
207
51
43
207
51
43
207
51
43
207
51
43
207
51
43
207
51
43
207
51
43
207
51
43
207
51
43
207
51
43
207
51
43
207
51
43
207
51
43
207
51
43
207
51
43
207
51
43
207
51
43
207
51
43
207
51
43
207
51
43
207
51
43
207
51
43
207
51
43
207
51
43
207
51
43
207
51
43
207
51
43
207
51
43
207
51
43
207
51
43
207
51
43
207
51
43
207
51
43
207
51
43
207
51
43
207
51
43
207
51
43
207
51
43
207
51
43
207
51
43
207
51
43
207
51
43
207
51
43
207
51
43
207
51
43
207
51
43
207
51
43
207
51
43
207
51
43
207
51
43
207
51
43
207
51
43
207
51
43
207
51
43
207
51
43
207
51
43
207
51
43
207
51
43
207
51
43
207
51
43
207
51
43
207
51
43
207
51
43
207
51
43
207
51
43
207
51
43
207
51
43
207
51
43
207
51
43
207
51
43
207
51
43
207
51
43
207
51
43
207
51
43
207
51
43
207
51
43
207
51
43
207
51
43
207
51
43
207
51
43
207
51
43
207
51
43
207
51
43
207
51
43
207
51
43
207
51
43
207
51
43
207
51
43
207
51
43
207
51
43
207
51
43
207
51
43
207
51
43
207
51
43
207
51
43
207
51
43
207
51
43
207
51
43
207
51
43
207
51
43
207
51
43
207
51
43
207
51
43
207
51
43
207
51
43
207
51
43
207
51
43
207
51
43
207
51
43
207
51
43
207
51
43
207
51
43
207
51
43
207
51
43
207
51
43
207
51
43
207
51
43
207
51
43
207
51
43
207
51
43
207
51
43
207
51
43
207
51
43
207
51
43
207
51
43
207
51
43
207
51
43
207
51
43
207
51
43
207
51
43
207
51
43
207
51
43
207
51
43
207
51
43
207
51
43
207
51
43
207
51
43
207
51
43
207
51
43
207
51
43
207
51
43
207
51
43
207
51
43
207
51
43
207
51
43
207
51
43
207
51
43
207
51
43
207
51
43
207
51
43
207
51
43
207
51
43
207
51
43
207
51
43
207
51
43
207
51
43
207
51
43
207
51
43
207
51
43
207
51
43
207
51
43
207
51
43
207
51
43
207
51
43
207
51
43
207
51
43
207
51
43
207
51
43
207
51
43
207
51
43
207
51
43
207
51
43
207
51
43
207
51
43
207
51
43
207
51
43
207
51
43
207
51
43
207
51
43
207
51
43
207
51
43
207
51
43
207
51
43
207
51
43
207
51
43
207
51
43
207
51
43
207
51
43
207
51
43
207
51
43
207
51
43
207
51
43
207
51
43
207
51
43
207
51
43
207
51
43
207
51
43
207
51
43
207
51
43
207
51
43
207
51
43
207
51
43
207
51
43
207
51
43
207
51
43
207
51
43
207
51
43
207
51
43
207
51
43
207
51
43
207
51
43
207
51
43
207
51
43
207
51
43
207
51
43
207
51
43
207
51
43
207
51
43
207
51
43
207
51
43
207
51
43
207
51
43
207
51
43
207
51
43
207
51
43
207
51
43
207
51
43
207
51
43
207
51
43
207
51
43
207
51
43
207
51
43
207
51
43
207
51
43
207
51
43
207
51
43
207
51
43
207
51
43
207
51
43
207
51
43
207
51
43
207
51
43
207
51
43
207
51
43
207
51
43
207
51
43
207
51
43
207
51
43
207
51
43
207
51
43
207
51
43
207
51
43
207
51
43
207
51
43
207
51
43
207
51
43
207
51
43
207
51
43
207
51
43
207
51
43
207
51
43
207
51
43
207
51
43
207
51
43
207
51
43
207
51
43
207
51
43
207
51
43
207
51
43
207
51
43
207
51
43
207
51
43
207
51
43
207
51
43
207
51
43
207
51
43
207
51
43
207
51
43
207
51
43
207
51
43
207
51
43
207
51
43
207
51
43
207
51
43
207
51
43
207
51
43
207
51
43
207
51
43
207
51
43
207
51
43
207
51
43
207
51
43
207
51
43
207
51
43
207
51
43
207
51
43
207
51
43
207
51
43
207
51
43
207
51
43
207
51
43
207
51
43
207
51
43
207
51
43
207
51
43
207
51
43
207
51
43
207
51
43
207
51
43
207
51
43
207
51
43
207
51
43
207
51
43
207
51
43
207
51
43
207
51
43
207
51
43
207
51
43
207
51
43
207
51
43
207
51
43
207
51
43
207
51
43
207
51
43
207
51
43
207
51
43
207
51
43
207
51
43
207
51
43
207
51
43
207
51
43
207
51
43
207
51
43
207
51
43
207
51
43
207
51
43
207
51
43
207
51
43
207
51
43
207
51
43
207
51
43
207
51
43
207
51
43
207
51
43
207
51
43
207
51
43
207
51
43
207
51
43
207
51
43
207
51
43
207
51
43
207
51
43
207
51
43
207
51
43
207
51
43
207
51
43
207
51
43
207
51
43
207
51
43
207
51
43
207
51
43
207
51
43
207
51
43
207
51
43
207
51
43
207
51
43
207
51
43
207
51
43
207
51
43
207
51
43
207
51
43
207
51
43
207
51
43
207
51
43
207
51
43
207
51
43
207
51
43
207
51
43
207
51
43
207
51
43
207
51
43
207
51
43
207
51
43
207
51
43
207
51
43
207
51
43
207
51
43
207
51
43
207
51
43
207
51
43
207
51
43
207
51
43
207
51
43
207
51
43
207
51
43
207
51
43
207
51
43
207
51
43
207
51
43
207
51
43
207
51
43
207
51
43
207
51
43
207
51
43
207
51
43
207
51
43
207
51
43
207
51
43
207
51
43
207
51
43
207
51
43
207
51
43
207
51
43
207
51
43
207
51
43
207
51
43
207
51
43
207
51
43
207
51
43
207
51
43
207
51
43
207
51
43
207
51
43
207
51
43
207
51
43
207
51
43
207
51
43
207
51
43
207
51
43
207
51
43
207
51
43
207
51
43
207
51
43
207
51
43
207
51
43
207
51
43
207
51
43
207
51
43
207
51
43
207
51
43
207
51
43
207
51
43
207
51
43
207
51
43
207
51
43
207
51
43
207
51
43
207
51
43
207
51
43
207
51
43
207
51
43
207
51
43
207
51
43
207
51
43
207
51
43
207
51
43
207
51
43
207
51
43
207
51
43
207
51
43
207
51
43
207
51
43
207
51
43
207
51
43
207
51
43
207
51
43
207
51
43
207
51
43
207
51
43
207
51
43
207
51
43
207
51
43
207
51
43
207
51
43
207
51
43
207
51
43
207
51
43
207
51
43
207
51
43
207
51
43
207
51
43
207
51
43
207
51
43
207
51
43
207
51
43
207
51
43
207
51
43
207
51
43
207
51
43
207
51
43
207
51
43
207
51
43
207
51
43
207
51
43
207
51
43
207
51
43
207
51
43
207
51
43
207
51
43
207
51
43
207
51
43
207
51
43
207
51
43
207
51
43
207
51
43
207
51
43
207
51
43
207
51
43
207
51
43
207
51
43
207
51
43
207
51
43
207
51
43
207
51
43
207
51
43
207
51
43
207
51
43
207
51
43
207
51
43
207
51
43
207
51
43
207
51
43
207
51
43
207
51
43
207
51
43
207
51
43
207
51
43
207
51
43
207
51
43
207
51
43
207
51
43
207
51
43
207
51
43
207
51
43
207
51
43
207
51
43
207
51
43
207
51
43
207
51
43
207
51
43
207
51
43
207
51
43
207
51
43
207
51
43
207
51
43
207
51
43
207
51
43
207
51
43
207
51
43
207
51
43
207
51
43
207
51
43
207
51
43
207
51
43
207
51
43
207
51
43
207
51
43
207
51
43
207
51
43
207
51
43
207
51
43
207
51
43
207
51
43
207
51
43
207
51
43
207
51
43
207
51
43
207
51
43
207
51
43
207
51
43
207
51
43
207
51
43
207
51
43
207
51
43
207
51
43
207
51
43
207
51
43
207
51
43
207
51
43
207
51
43
207
51
43
207
51
43
207
51
43
207
51
43
207
51
43
207
51
43
207
51
43
207
51
43
207
51
43
207
51
43
207
51
43
207
51
43
207
51
43
207
51
43
207
51
43
207
51
43
207
51
43
207
51
43
207
51
43
207
51
43
207
51
43
207
51
43
207
51
43
207
51
43
207
51
43
207
51
43
207
51
43
207
51
43
207
51
43
207
51
43
207
51
43
207
51
43
207
51
43
207
51
43
207
51
43
207
51
43
207
51
43
207
51
43
207
51
43
207
51
43
207
51
43
207
51
43
207
51
43
207
51
43
207
51
43
207
51
43
207
51
43
207
51
43
207
51
43
207
51
43
207
51
43
207
51
43
207
51
43
207
51
43
207
51
43
207
51
43
207
51
43
207
51
43
207
51
43
207
51
43
207
51
43
207
51
43
207
51
43
207
51
43
207
51
43
207
51
43
207
51
43
207
51
43
207
51
43
207
51
43
207
51
43
207
51
43
207
51
43
207
51
43
207
51
43
207
51
43
207
51
43
207
51
43
207
51
43
207
51
43
207
51
43
207
51
43
207
51
43
207
51
43
207
51
43
207
51
43
207
51
43
207
51
43
207
51
43
207
51
43
207
51
43
207
51
43
207
51
43
207
51
43
207
51
43
207
51
43
207
51
43
207
51
43
207
51
43
207
51
43
207
51
43
207
51
43
207
51
43
207
51
43
207
51
43
207
51
43
207
51
43
207
51
43
207
51
43
207
51
43
207
51
43
207
51
43
207
51
43
207
51
43
207
51
43
207
51
43
207
51
43
207
51
43
207
51
43
207
51
43
207
51
43
207
51
43
207
51
43
207
51
43
207
51
43
207
51
43
207
51
43
207
51
43
207
51
43
207
51
43
207
51
43
207
51
43
207
51
43
207
51
43
207
51
43
207
51
43
207
51
43
207
51
43
207
51
43
207
51
43
207
51
43
207
51
43
207
51
43
207
51
43
207
51
43
207
51
43
207
51
43
207
51
43
207
51
43
207
51
43
207
51
43
207
51
43
207
51
43
207
51
43
207
51
43
207
51
43
207
51
43
207
51
43
207
51
43
207
51
43
207
51
43
207
51
43
207
51
43
207
51
43
207
51
43
207
51
43
207
51
43
207
51
43
207
51
43
207
51
43
207
51
43
207
51
43
207
51
43
207
51
43
207
51
43
207
51
43
207
51
43
207
51
43
207
51
43
207
51
43
207
51
43
207
51
43
207
51
43
207
51
43
207
51
43
207
51
43
207
51
43
207
51
43
207
51
43
207
51
43
207
51
43
207
51
43
207
51
43
207
51
43
207
51
43
207
51
43
207
51
43
207
51
43
207
51
43
207
51
43
207
51
43
207
51
43
207
51
43
207
51
43
207
51
43
207
51
43
207
51
43
207
51
43
207
51
43
207
51
43
207
51
43
207
51
43
207
51
43
207
51
43
207
51
43
207
51
43
207
51
43
207
51
43
207
51
43
207
51
43
207
51
43
207
51
43
207
51
43
207
51
43
207
51
43
207
51
43
207
51
43
207
51
43
207
51
43
207
51
43
207
51
43
207
51
43
207
51
43
207
51
43
207
51
43
207
51
43
207
51
43
207
51
43
207
51
43
207
51
43
207
51
43
207
51
43
207
51
43
207
51
43
207
51
43
207
51
43
207
51
43
207
51
43
207
51
43
207
51
43
207
51
43
207
51
43
207
51
43
207
51
43
207
51
43
207
51
43
207
51
43
207
51
43
207
51
43
207
51
43
207
51
43
207
51
43
207
51
43
207
51
43
207
51
43
207
51
43
207
51
43
207
51
43
207
51
43
207
51
43
207
51
43
207
51
43
207
51
43
207
51
43
207
51
43
207
51
43
207
51
43
207
51
43
207
51
43
207
51
43
207
51
43
207
51
43
207
51
43
207
51
43
207
51
43
207
51
43
207
51
43
207
51
43
207
51
43
207
51
43
207
51
43
207
51
43
207
51
43
207
51
43
207
51
43
207
51
43
207
51
43
207
51
43
207
51
43
207
51
43
207
51
43
207
51
43
207
51
43
207
51
43
207
51
43
207
51
43
207
51
43
207
51
43
207
51
43
207
51
43
207
51
43
207
51
43
207
51
43
207
51
43
207
51
43
207
51
43
207
51
43
207
51
43
207
51
43
207
51
43
207
51
43
207
51
43
207
51
43
207
51
43
207
51
43
207
51
43
207
51
43
207
51
43
207
51
43
207
51
43
207
51
43
207
51
43
207
51
43
207
51
43
207
51
43
207
51
43
207
51
43
207
51
43
207
51
43
207
51
43
207
51
43
207
51
43
207
51
43
207
51
43
207
51
43
207
51
43
207
51
43
207
51
43
207
51
43
207
51
43
207
51
43
207
51
43
207
51
43
207
51
43
207
51
43
207
51
43
207
51
43
207
51
43
207
51
43
207
51
43
207
51
43
207
51
43
207
51
43
207
51
43
207
51
43
207
51
43
207
51
43
207
51
43
207
51
43
207
51
43
207
51
43
207
51
43
207
51
43
207
51
43
207
51
43
207
51
43
207
51
43
207
51
43
207
51
43
207
51
43
207
51
43
207
51
43
207
51
43
207
51
43
207
51
43
207
51
43
207
51
43
207
51
43
207
51
43
207
51
43
207
51
43
207
51
43
207
51
43
207
51
43
207
51
43
207
51
43
207
51
43
207
51
43
207
51
43
207
51
43
207
51
43
207
51
43
207
51
43
207
51
43
207
51
43
207
51
43
207
51
43
207
51
43
207
51
43
207
51
43
207
51
43
207
51
43
207
51
43
207
51
43
207
51
43
207
51
43
207
51
43
207
51
43
207
51
43
207
51
43
207
51
43
207
51
43
207
51
43
207
51
43
207
51
43
207
51
43
207
51
43
207
51
43
207
51
43
207
51
43
207
51
43
207
51
43
207
51
43
207
51
43
207
51
43
207
51
43
207
51
43
207
51
43
207
51
43
207
51
43
207
51
43
207
51
43
207
51
43
207
51
43
207
51
43
207
51
43
207
51
43
207
51
43
207
51
43
207
51
43
207
51
43
207
51
43
207
51
43
207
51
43
207
51
43
207
51
43
207
51
43
207
51
43
207
51
43
207
51
43
207
51
43
207
51
43
207
51
43
207
51
43
207
51
43
207
51
43
207
51
43
207
51
43
207
51
43
207
51
43
207
51
43
207
51
43
207
51
43
207
51
43
207
51
43
207
51
43
207
51
43
207
51
43
207
51
43
207
51
43
207
51
43
207
51
43
207
51
43
207
51
43
207
51
43
207
51
43
207
51
43
207
51
43
207
51
43
207
51
43
207
51
43
207
51
43
207
51
43
207
51
43
207
51
43
207
51
43
207
51
43
207
51
43
207
51
43
207
51
43
207
51
43
207
51
43
207
51
43
207
51
43
207
51
43
207
51
43
207
51
43
207
51
43
207
51
43
207
51
43
207
51
43
207
51
43
207
51
43
207
51
43
207
51
43
207
51
43
207
51
43
207
51
43
207
51
43
207
51
43
207
51
43
207
51
43
207
51
43
207
51
43
207
51
43
207
51
43
207
51
43
207
51
43
207
51
43
207
51
43
207
51
43
207
51
43
207
51
43
207
51
43
207
51
43
207
51
43
207
51
43
207
51
43
207
51
43
207
51
43
207
51
43
207
51
43
207
51
43
207
51
43
207
51
43
207
51
43
207
51
43
207
51
43
207
51
43
207
51
43
207
51
43
207
51
43
207
51
43
207
51
43
207
51
43
207
51
43
207
51
43
207
51
43
207
51
43
207
51
43
207
51
43
207
51
43
207
51
43
207
51
43
207
51
43
207
51
43
207
51
43
207
51
43
207
51
43
207
51
43
207
51
43
207
51
43
207
51
43
207
51
43
207
51
43
207
51
43
207
51
43
207
51
43
207
51
43
207
51
43
207
51
43
207
51
43
207
51
43
207
51
43
207
51
43
207
51
43
207
51
43
207
51
43
207
51
43
207
51
43
207
51
43
207
51
43
207
51
43
207
51
43
207
51
43
207
51
43
207
51
43
207
51
43
207
51
43
207
51
43
207
51
43
207
51
43
207
51
43
207
51
43
207
51
43
207
51
43
207
51
43
207
51
43
207
51
43
207
51
43
207
51
43
207
51
43
207
51
43
207
51
43
207
51
43
207
51
43
207
51
43
207
51
43
207
51
43
207
51
43
207
51
43
207
51
43
207
51
43
207
51
43
207
51
43
207
51
43
207
51
43
207
51
43
207
51
43
207
51
43
207
51
43
207
51
43
207
51
43
207
51
43
207
51
43
207
51
43
207
51
43
207
51
43
207
51
43
207
51
43
207
51
43
207
51
43
207
51
43
207
51
43
207
51
43
207
51
43
207
51
43
207
51
43
207
51
43
207
51
43
207
51
43
207
51
43
207
51
43
207
51
43
207
51
43
207
51
43
207
51
43
207
51
43
207
51
43
207
51
43
207
51
43
207
51
43
207
51
43
207
51
43
207
51
43
207
51
43
207
51
43
207
51
43
207
51
43
207
51
43
207
51
43
207
51
43
207
51
43
207
51
43
207
51
43
207
51
43
207
51
43
207
51
43
207
51
43
207
51
43
207
51
43
207
51
43
207
51
43
207
51
43
207
51
43
207
51
43
207
51
43
207
51
43
207
51
43
207
51
43
207
51
43
207
51
43
207
51
43
207
51
43
207
51
43
207
51
43
207
51
43
207
51
43
207
51
43
207
51
43
207
51
43
207
51
43
207
51
43
207
51
43
207
51
43
207
51
43
207
51
43
207
51
43
207
51
43
207
51
43
207
51
43
207
51
43
207
51
43
207
51
43
207
51
43
207
51
43
207
51
43
207
51
43
207
51
43
207
51
43
207
51
43
207
51
43
207
51
43
207
51
43
207
51
43
207
51
43
207
51
43
207
51
43
207
51
43
207
51
43
207
51
43
207
51
43
207
51
43
207
51
43
207
51
43
207
51
43
207
51
43
207
51
43
207
51
43
207
51
43
207
51
43
207
51
43
207
51
43
207
51
43
207
51
43
207
51
43
207
51
43
207
51
43
207
51
43
207
51
43
207
51
43
207
51
43
207
51
43
207
51
43
207
51
43
207
51
43
207
51
43
207
51
43
207
51
43
207
51
43
207
51
43
207
51
43
207
51
43
207
51
43
207
51
43
207
51
43
207
51
43
207
51
43
207
51
43
207
51
43
207
51
43
207
51
43
207
51
43
207
51
43
207
51
43
207
51
43
207
51
43
207
51
43
207
51
43
207
51
43
207
51
43
207
51
43
207
51
43
207
51
43
207
51
43
207
51
43
207
51
43
207
51
43
207
51
43
207
51
43
207
51
43
207
51
43
207
51
43
207
51
43
207
51
43
207
51
43
207
51
43
207
51
43
207
51
43
207
51
43
207
51
43
207
51
43
207
51
43
207
51
43
207
51
43
207
51
43
207
51
43
207
51
43
207
51
43
207
51
43
207
51
43
207
51
43
207
51
43
207
51
43
207
51
43
207
51
43
207
51
43
207
51
43
207
51
43
207
51
43
207
51
43
207
51
43
207
51
43
207
51
43
207
51
43
207
51
43
207
51
43
207
51
43
207
51
43
207
51
43
207
51
43
207
51
43
207
51
43
207
51
43
207
51
43
207
51
43
207
51
43
207
51
43
207
51
43
207
51
43
207
51
43
207
51
43
207
51
43
207
51
43
207
51
43
207
51
43
207
51
43
207
51
43
207
51
43
207
51
43
207
51
43
207
51
43
207
51
43
207
51
43
207
51
43
207
51
43
207
51
43
207
51
43
207
51
43
207
51
43
207
51
43
207
51
43
207
51
43
207
51
43
207
51
43
207
51
43
207
51
43
207
51
43
207
51
43
207
51
43
207
51
43
207
51
43
207
51
43
207
51
43
207
51
43
207
51
43
207
51
43
207
51
43
207
51
43
207
51
43
207
51
43
207
51
43
207
51
43
207
51
43
207
51
43
207
51
43
207
51
43
207
51
43
207
51
43
207
51
43
207
51
43
207
51
43
207
51
43
207
51
43
207
51
43
207
51
43
207
51
43
207
51
43
207
51
43
207
51
43
207
51
43
207
51
43
207
51
43
207
51
43
207
51
43
207
51
43
207
51
43
207
51
43
207
51
43
207
51
43
207
51
43
207
51
43
207
51
43
207
51
43
207
51
43
207
51
43
207
51
43
207
51
43
207
51
43
207
51
43
207
51
43
207
51
43
207
51
43
207
51
43
207
51
43
207
51
43
207
51
43
207
51
43
207
51
43
207
51
43
207
51
43
207
51
43
207
51
43
207
51
43
207
51
43
207
51
43
207
51
43
207
51
43
207
51
43
207
51
43
207
51
43
207
51
43
207
51
43
207
51
43
207
51
43
207
51
43
207
51
43
207
51
43
207
51
43
207
51
43
207
51
43
207
51
43
207
51
43
207
51
43
207
51
43
207
51
43
207
51
43
207
51
43
207
51
43
207
51
43
207
51
43
207
51
43
207
51
43
207
51
43
207
51
43
207
51
43
207
51
43
207
51
43
207
51
43
207
51
43
207
51
43
207
51
43
207
51
43
207
51
43
207
51
43
207
51
43
207
51
43
207
51
43
207
51
43
207
51
43
207
51
43
207
51
43
207
51
43
207
51
43
207
51
43
207
51
43
207
51
43
207
51
43
207
51
43
207
51
43
207
51
43
207
51
43
207
51
43
207
51
43
207
51
43
207
51
43
207
51
43
207
51
43
207
51
43
207
51
43
207
51
43
207
51
43
207
51
43
207
51
43
207
51
43
207
51
43
207
51
43
207
51
43
207
51
43
207
51
43
207
51
43
207
51
43
207
51
43
207
51
43
207
51
43
207
51
43
207
51
43
207
51
43
207
51
43
207
51
43
207
51
43
207
51
43
207
51
43
207
51
43
207
51
43
207
51
43
207
51
43
207
51
43
207
51
43
207
51
43
207
51
43
207
51
43
207
51
43
207
51
43
207
51
43
207
51
43
207
51
43
207
51
43
207
51
43
207
51
43
207
51
43
207
51
43
207
51
43
207
51
43
207
51
43
207
51
43
207
51
43
207
51
43
207
51
43
207
51
43
207
51
43
207
51
43
207
51
43
207
51
43
207
51
43
207
51
43
207
51
43
207
51
43
207
51
43
207
51
43
207
51
43
207
51
43
207
51
43
207
51
43
207
51
43
207
51
43
207
51
43
207
51
43
207
51
43
207
51
43
207
51
43
207
51
43
207
51
43
207
51
43
207
51
43
207
51
43
207
51
43
207
51
43
207
51
43
207
51
43
207
51
43
207
51
43
207
51
43
207
51
43
207
51
43
207
51
43
207
51
43
207
51
43
207
51
43
207
51
43
207
51
43
207
51
43
207
51
43
207
51
43
207
51
43
207
51
43
207
51
43
207
51
43
207
51
43
207
51
43
207
51
43
207
51
43
207
51
43
207
51
43
207
51
43
207
51
43
207
51
43
207
51
43
207
51
43
207
51
43
207
51
43
207
51
43
207
51
43
207
51
43
207
51
43
207
51
43
207
51
43
207
51
43
207
51
43
207
51
43
207
51
43
207
51
43
207
51
43
207
51
43
207
51
43
207
51
43
207
51
43
207
51
43
207
51
43
207
51
43
207
51
43
207
51
43
207
51
43
207
51
43
207
51
43
207
51
43
207
51
43
207
51
43
207
51
43
207
51
43
207
51
43
207
51
43
207
51
43
207
51
43
207
51
43
207
51
43
207
51
43
207
51
43
207
51
43
207
51
43
207
51
43
207
51
43
207
51
43
207
51
43
207
51
43
207
51
43
207
51
43
207
51
43
207
51
43
207
51
43
207
51
43
207
51
43
207
51
43
207
51
43
207
51
43
207
51
43
207
51
43
207
51
43
207
51
43
207
51
43
207
51
43
207
51
43
207
51
43
207
51
43
207
51
43
207
51
43
207
51
43
207
51
43
207
51
43
207
51
43
207
51
43
207
51
43
207
51
43
207
51
43
207
51
43
207
51
43
207
51
43
207
51
43
207
51
43
207
51
43
207
51
43
207
51
43
207
51
43
207
51
43
207
51
43
207
51
43
207
51
43
207
51
43
207
51
43
207
51
43
207
51
43
207
51
43
207
51
43
207
51
43
207
51
43
207
51
43
207
51
43
207
51
43
207
51
43
207
51
43
207
51
43
207
51
43
207
51
43
207
51
43
207
51
43
207
51
43
207
51
43
207
51
43
207
51
43
207
51
43
207
51
43
207
51
43
207
51
43
207
51
43
207
51
43
207
51
43
207
51
43
207
51
43
207
51
43
207
51
43
207
51
43
207
51
43
207
51
43
207
51
43
207
51
43
207
51
43
207
51
43
207
51
43
207
51
43
207
51
43
207
51
43
207
51
43
207
51
43
207
51
43
207
51
43
207
51
43
207
51
43
207
51
43
207
51
43
207
51
43
207
51
43
207
51
43
207
51
43
207
51
43
207
51
43
207
51
43
207
51
43
207
51
43
207
51
43
207
51
43
207
51
43
207
51
43
207
51
43
207
51
43
207
51
43
207
51
43
207
51
43
207
51
43
207
51
43
207
51
43
207
51
43
207
51
43
207
51
43
207
51
43
207
51
43
207
51
43
207
51
43
207
51
43
207
51
43
207
51
43
207
51
43
207
51
43
207
51
43
207
51
43
207
51
43
207
51
43
207
51
43
207
51
43
207
51
43
207
51
43
207
51
43
207
51
43
207
51
43
207
51
43
207
51
43
207
51
43
207
51
43
207
51
43
207
51
43
207
51
43
207
51
43
207
51
43
207
51
43
207
51
43
207
51
43
207
51
43
207
51
43
207
51
43
207
51
43
207
51
43
207
51
43
207
51
43
207
51
43
207
51
43
207
51
43
207
51
43
207
51
43
207
51
43
207
51
43
207
51
43
207
51
43
207
51
43
207
51
43
207
51
43
207
51
43
207
51
43
207
51
43
207
51
43
207
51
43
207
51
43
207
51
43
207
51
43
207
51
43
207
51
43
207
51
43
207
51
43
207
51
43
207
51
43
207
51
43
207
51
43
207
51
43
207
51
43
207
51
43
207
51
43
207
51
43
207
51
43
207
51
43
207
51
43
207
51
43
207
51
43
207
51
43
207
51
43
207
51
43
207
51
43
207
51
43
207
51
43
207
51
43
207
51
43
207
51
43
207
51
43
207
51
43
207
51
43
207
51
43
207
51
43
207
51
43
207
51
43
207
51
43
207
51
43
207
51
43
207
51
43
207
51
43
207
51
43
207
51
43
207
51
43
207
51
43
207
51
43
207
51
43
207
51
43
207
51
43
207
51
43
207
51
43
207
51
43
207
51
43
207
51
43
207
51
43
207
51
43
207
51
43
207
51
43
207
51
43
207
51
43
207
51
43
207
51
43
207
51
43
207
51
43
207
51
43
207
51
43
207
51
43
207
51
43
207
51
43
207
51
43
207
51
43
207
51
43
207
51
43
207
51
43
207
51
43
207
51
43
207
51
43
207
51
43
207
51
43
207
51
43
207
51
43
207
51
43
207
51
43
207
51
43
207
51
43
207
51
43
207
51
43
207
51
43
207
51
43
207
51
43
207
51
43
207
51
43
207
51
43
207
51
43
207
51
43
207
51
43
207
51
43
207
51
43
207
51
43
207
51
43
207
51
43
207
51
43
207
51
43
207
51
43
207
51
43
207
51
43
207
51
43
207
51
43
207
51
43
207
51
43
207
51
43
207
51
43
207
51
43
207
51
43
207
51
43
207
51
43
207
51
43
207
51
43
207
51
43
207
51
43
207
51
43
207
51
43
207
51
43
207
51
43
207
51
43
207
51
43
207
51
43
207
51
43
207
51
43
207
51
43
207
51
43
207
51
43
207
51
43
207
51
43
207
51
43
207
51
43
207
51
43
207
51
43
207
51
43
207
51
43
207
51
43
207
51
43
207
51
43
207
51
43
207
51
43
207
51
43
207
51
43
207
51
43
207
51
43
207
51
43
207
51
43
207
51
43
207
51
43
207
51
43
207
51
43
207
51
43
207
51
43
207
51
43
207
51
43
207
51
43
207
51
43
207
51
43
207
51
43
207
51
43
207
51
43
207
51
43
207
51
43
207
51
43
207
51
43
207
51
43
207
51
43
207
51
43
207
51
43
207
51
43
207
51
43
207
51
43
207
51
43
207
51
43
207
51
43
207
51
43
207
51
43
207
51
43
207
51
43
207
51
43
207
51
43
207
51
43
207
51
43
207
51
43
207
51
43
207
51
43
207
51
43
207
51
43
207
51
43
207
51
43
207
51
43
207
51
43
207
51
43
207
51
43
207
51
43
207
51
43
207
51
43
207
51
43
207
51
43
207
51
43
207
51
43
207
51
43
207
51
43
207
51
43
207
51
43
207
51
43
207
51
43
207
51
43
207
51
43
207
51
43
207
51
43
207
51
43
207
51
43
207
51
43
207
51
43
207
51
43
207
51
43
207
51
43
207
51
43
207
51
43
207
51
43
207
51
43
207
51
43
207
51
43
207
51
43
207
51
43
207
51
43
207
51
43
207
51
43
207
51
43
207
51
43
207
51
43
207
51
43
207
51
43
207
51
43
207
51
43
207
51
43
207
51
43
207
51
43
207
51
43
207
51
43
207
51
43
207
51
43
207
51
43
207
51
43
207
51
43
207
51
43
207
51
43
207
51
43
207
51
43
207
51
43
207
51
43
207
51
43
207
51
43
207
51
43
207
51
43
207
51
43
207
51
43
207
51
43
207
51
43
207
51
43
207
51
43
207
51
43
207
51
43
207
51
43
207
51
43
207
51
43
207
51
43
207
51
43
207
51
43
207
51
43
207
51
43
207
51
43
207
51
43
207
51
43
207
51
43
207
51
43
207
51
43
207
51
43
207
51
43
207
51
43
207
51
43
207
51
43
207
51
43
207
51
43
207
51
43
207
51
43
207
51
43
207
51
43
207
51
43
207
51
43
207
51
43
207
51
43
207
51
43
207
51
43
207
51
43
207
51
43
207
51
43
207
51
43
207
51
43
207
51
43
207
51
43
207
51
43
207
51
43
207
51
43
207
51
43
207
51
43
207
51
43
207
51
43
207
51
43
207
51
43
207
51
43
207
51
43
207
51
43
207
51
43
207
51
43
207
51
43
207
51
43
207
51
43
207
51
43
207
51
43
207
51
43
207
51
43
207
51
43
207
51
43
207
51
43
207
51
43
207
51
43
207
51
43
207
51
43
207
51
43
207
51
43
207
51
43
207
51
43
207
51
43
207
51
43
207
51
43
207
51
43
207
51
43
207
51
43
207
51
43
207
51
43
207
51
43
207
51
43
207
51
43
207
51
43
207
51
43
207
51
43
207
51
43
207
51
43
207
51
43
207
51
43
207
51
43
207
51
43
207
51
43
207
51
43
207
51
43
207
51
43
207
51
43
207
51
43
207
51
43
207
51
43
207
51
43
207
51
43
207
51
43
207
51
43
207
51
43
207
51
43
207
51
43
207
51
43
207
51
43
207
51
43
207
51
43
207
51
43
207
51
43
207
51
43
207
51
43
207
51
43
207
51
43
207
51
43
207
51
43
207
51
43
207
51
43
207
51
43
207
51
43
207
51
43
207
51
43
207
51
43
207
51
43
207
51
43
207
51
43
207
51
43
207
51
43
207
51
43
207
51
43
207
51
43
207
51
43
207
51
43
207
51
43
207
51
43
207
51
43
207
51
43
207
51
43
207
51
43
207
51
43
207
51
43
207
51
43
207
51
43
207
51
43
207
51
43
207
51
43
207
51
43
207
51
43
207
51
43
207
51
43
207
51
43
207
51
43
207
51
43
207
51
43
207
51
43
207
51
43
207
51
43
207
51
43
207
51
43
207
51
43
207
51
43
207
51
43
207
51
43
207
51
43
207
51
43
207
51
43
207
51
43
207
51
43
207
51
43
207
51
43
207
51
43
207
51
43
207
51
43
207
51
43
207
51
43
207
51
43
207
51
43
207
51
43
207
51
43
207
51
43
207
51
43
207
51
43
207
51
43
207
51
43
207
51
43
207
51
43
207
51
43
207
51
43
207
51
43
207
51
43
207
51
43
207
51
43
207
51
43
207
51
43
207
51
43
207
51
43
207
51
43
207
51
43
207
51
43
207
51
43
207
51
43
207
51
43
207
51
43
207
51
43
207
51
43
207
51
43
207
51
43
207
51
43
207
51
43
207
51
43
207
51
43
207
51
43
207
51
43
207
51
43
207
51
43
207
51
43
207
51
43
207
51
43
207
51
43
207
51
43
207
51
43
207
51
43
207
51
43
207
51
43
207
51
43
207
51
43
207
51
43
207
51
43
207
51
43
207
51
43
207
51
43
207
51
43
207
51
43
207
51
43
207
51
43
207
51
43
207
51
43
207
51
43
207
51
43
207
51
43
207
51
43
207
51
43
207
51
43
207
51
43
207
51
43
207
51
43
207
51
43
207
51
43
207
51
43
207
51
43
207
51
43
207
51
43
207
51
43
207
51
43
207
51
43
207
51
43
207
51
43
207
51
43
207
51
43
207
51
43
207
51
43
207
51
43
207
51
43
207
51
43
207
51
43
207
51
43
207
51
43
207
51
43
207
51
43
207
51
43
207
51
43
207
51
43
207
51
43
207
51
43
207
51
43
207
51
43
207
51
43
207
51
43
207
51
43
207
51
43
207
51
43
207
51
43
207
51
43
207
51
43
207
51
43
207
51
43
207
51
43
207
51
43
207
51
43
207
51
43
207
51
43
207
51
43
207
51
43
207
51
43
207
51
43
207
51
43
207
51
43
207
51
43
207
51
43
207
51
43
207
51
43
207
51
43
207
51
43
207
51
43
207
51
43
207
51
43
207
51
43
207
51
43
207
51
43
207
51
43
207
51
43
207
51
43
207
51
43
207
51
43
207
51
43
207
51
43
207
51
43
207
51
43
207
51
43
207
51
43
207
51
43
207
51
43
207
51
43
207
51
43
207
51
43
207
51
43
207
51
43
207
51
43
207
51
43
207
51
43
207
51
43
207
51
43
207
51
43
207
51
43
207
51
43
207
51
43
207
51
43
207
51
43
207
51
43
207
51
43
207
51
43
207
51
43
207
51
43
207
51
43
207
51
43
207
51
43
207
51
43
207
51
43
207
51
43
207
51
43
207
51
43
207
51
43
207
51
43
207
51
43
207
51
43
207
51
43
207
51
43
207
51
43
207
51
43
207
51
43
207
51
43
207
51
43
207
51
43
207
51
43
207
51
43
207
51
43
207
51
43
207
51
43
207
51
43
207
51
43
207
51
43
207
51
43
207
51
43
207
51
43
207
51
43
207
51
43
207
51
43
207
51
43
207
51
43
207
51
43
207
51
43
207
51
43
207
51
43
207
51
43
207
51
43
207
51
43
207
51
43
207
51
43
207
51
43
207
51
43
207
51
43
207
51
43
207
51
43
207
51
43
207
51
43
207
51
43
207
51
43
207
51
43
207
51
43
207
51
43
207
51
43
207
51
43
207
51
43
207
51
43
207
51
43
207
51
43
207
51
43
207
51
43
207
51
43
207
51
43
207
51
43
207
51
43
207
51
43
207
51
43
207
51
43
207
51
43
207
51
43
207
51
43
207
51
43
207
51
43
207
51
43
207
51
43
207
51
43
207
51
43
207
51
43
207
51
43
207
51
43
207
51
43
207
51
43
207
51
43
207
51
43
207
51
43
207
51
43
207
51
43
207
51
43
207
51
43
207
51
43
207
51
43
207
51
43
207
51
43
207
51
43
207
51
43
207
51
43
207
51
43
207
51
43
207
51
43
207
51
43
207
51
43
207
51
43
207
51
43
207
51
43
207
51
43
207
51
43
207
51
43
207
51
43
207
51
43
207
51
43
207
51
43
207
51
43
207
51
43
207
51
43
207
51
43
207
51
43
207
51
43
207
51
43
207
51
43
207
51
43
207
51
43
207
51
43
207
51
43
207
51
43
207
51
43
207
51
43
207
51
43
207
51
43
207
51
43
207
51
43
207
51
43
207
51
43
207
51
43
207
51
43
207
51
43
207
51
43
207
51
43
207
51
43
207
51
43
207
51
43
207
51
43
207
51
43
207
51
43
207
51
43
207
51
43
207
51
43
207
51
43
207
51
43
207
51
43
207
51
43
207
51
43
207
51
43
207
51
43
207
51
43
207
51
43
207
51
43
207
51
43
207
51
43
207
51
43
207
51
43
207
51
43
207
51
43
207
51
43
207
51
43
207
51
43
207
51
43
207
51
43
207
51
43
207
51
43
207
51
43
207
51
43
207
51
43
207
51
43
207
51
43
207
51
43
207
51
43
207
51
43
207
51
43
207
51
43
207
51
43
207
51
43
207
51
43
207
51
43
207
51
43
207
51
43
207
51
43
207
51
43
207
51
43
207
51
43
207
51
43
207
51
43
207
51
43
207
51
43
207
51
43
207
51
43
207
51
43
207
51
43
207
51
43
207
51
43
207
51
43
207
51
43
207
51
43
207
51
43
207
51
43
207
51
43
207
51
43
207
51
43
207
51
43
207
51
43
207
51
43
207
51
43
207
51
43
207
51
43
207
51
43
207
51
43
207
51
43
207
51
43
207
51
43
207
51
43
207
51
43
207
51
43
207
51
43
207
51
43
207
51
43
207
51
43
207
51
43
207
51
43
207
51
43
207
51
43
207
51
43
207
51
43
207
51
43
207
51
43
207
51
43
207
51
43
207
51
43
207
51
43
207
51
43
207
51
43
207
51
43
207
51
43
207
51
43
207
51
43
207
51
43
207
51
43
207
51
43
207
51
43
207
51
43
207
51
43
207
51
43
207
51
43
207
51
43
207
51
43
207
51
43
207
51
43
207
51
43
207
51
43
207
51
43
207
51
43
207
51
43
207
51
43
207
51
43
207
51
43
207
51
43
207
51
43
207
51
43
207
51
43
207
51
43
207
51
43
207
51
43
207
51
43
207
51
43
207
51
43
207
51
43
207
51
43
207
51
43
207
51
43
207
51
43
207
51
43
207
51
43
207
51
43
207
51
43
207
51
43
207
51
43
207
51
43
207
51
43
207
51
43
207
51
43
207
51
43
207
51
43
207
51
43
207
51
43
207
51
43
207
51
43
207
51
43
207
51
43
207
51
43
207
51
43
207
51
43
207
51
43
207
51
43
207
51
43
207
51
43
207
51
43
207
51
43
207
51
43
207
51
43
207
51
43
207
51
43
207
51
43
207
51
43
207
51
43
207
51
43
207
51
43
207
51
43
207
51
43
207
51
43
207
51
43
207
51
43
207
51
43
207
51
43
207
51
43
207
51
43
207
51
43
207
51
43
207
51
43
207
51
43
207
51
43
207
51
43
207
51
43
207
51
43
207
51
43
207
51
43
207
51
43
207
51
43
207
51
43
207
51
43
207
51
43
207
51
43
207
51
43
207
51
43
207
51
43
207
51
43
207
51
43
207
51
43
207
51
43
207
51
43
207
51
43
207
51
43
207
51
43
207
51
43
207
51
43
207
51
43
207
51
43
207
51
43
207
51
43
207
51
43
207
51
43
207
51
43
207
51
43
207
51
43
207
51
43
207
51
43
207
51
43
207
51
43
207
51
43
207
51
43
207
51
43
207
51
43
207
51
43
207
51
43
207
51
43
207
51
43
207
51
43
207
51
43
207
51
43
207
51
43
207
51
43
207
51
43
207
51
43
207
51
43
207
51
43
207
51
43
207
51
43
207
51
43
207
51
43
207
51
43
207
51
43
207
51
43
207
51
43
207
51
43
207
51
43
207
51
43
207
51
43
207
51
43
207
51
43
207
51
43
207
51
43
207
51
43
207
51
43
207
51
43
207
51
43
207
51
43
207
51
43
207
51
43
207
51
43
207
51
43
207
51
43
207
51
43
207
51
43
207
51
43
207
51
43
207
51
43
207
51
43
207
51
43
207
51
43
207
51
43
207
51
43
207
51
43
207
51
43
207
51
43
207
51
43
207
51
43
207
51
43
207
51
43
207
51
43
207
51
43
207
51
43
207
51
43
207
51
43
207
51
43
207
51
43
207
51
43
207
51
43
207
51
43
207
51
43
207
51
43
207
51
43
207
51
43
207
51
43
207
51
43
207
51
43
207
51
43
207
51
43
207
51
43
207
51
43
207
51
43
207
51
43
207
51
43
207
51
43
207
51
43
207
51
43
207
51
43
207
51
43
207
51
43
207
51
43
207
51
43
207
51
43
207
51
43
207
51
43
207
51
43
207
51
43
207
51
43
207
51
43
207
51
43
207
51
43
207
51
43
207
51
43
207
51
43
207
51
43
207
51
43
207
51
43
207
51
43
207
51
43
207
51
43
207
51
43
207
51
43
207
51
43
207
51
43
207
51
43
207
51
43
207
51
43
207
51
43
207
51
43
207
51
43
207
51
43
207
51
43
207
51
43
207
51
43
207
51
43
207
51
43
207
51
43
207
51
43
207
51
43
207
51
43
207
51
43
207
51
43
207
51
43
207
51
43
207
51
43
207
51
43
207
51
43
207
51
43
207
51
43
207
51
43
207
51
43
207
51
43
207
51
43
207
51
43
207
51
43
207
51
43
207
51
43
207
51
43
207
51
43
207
51
43
207
51
43
207
51
43
207
51
43
207
51
43
207
51
43
207
51
43
207
51
43
207
51
43
207
51
43
207
51
43
207
51
43
207
51
43
207
51
43
207
51
43
207
51
43
207
51
43
207
51
43
207
51
43
207
51
43
207
51
43
207
51
43
207
51
43
207
51
43
207
51
43
207
51
43
207
51
43
207
51
43
207
51
43
207
51
43
207
51
43
207
51
43
207
51
43
207
51
43
207
51
43
207
51
43
207
51
43
207
51
43
207
51
43
207
51
43
207
51
43
207
51
43
207
51
43
207
51
43
207
51
43
207
51
43
207
51
43
207
51
43
207
51
43
207
51
43
207
51
43
207
51
43
207
51
43
207
51
43
207
51
43
207
51
43
207
51
43
207
51
43
207
51
43
207
51
43
207
51
43
207
51
43
207
51
43
207
51
43
207
51
43
207
51
43
207
51
43
207
51
43
207
51
43
207
51
43
207
51
43
207
51
43
207
51
43
207
51
43
207
51
43
207
51
43
207
51
43
207
51
43
207
51
43
207
51
43
207
51
43
207
51
43
207
51
43
207
51
43
207
51
43
207
51
43
207
51
43
207
51
43
207
51
43
207
51
43
207
51
43
207
51
43
207
51
43
207
51
43
207
51
43
207
51
43
207
51
43
207
51
43
207
51
43
207
51
43
207
51
43
207
51
43
207
51
43
207
51
43
207
51
43
207
51
43
207
51
43
207
51
43
207
51
43
207
51
43
207
51
43
207
51
43
207
51
43
207
51
43
207
51
43
207
51
43
207
51
43
207
51
43
207
51
43
207
51
43
207
51
43
207
51
43
207
51
43
207
51
43
207
51
43
207
51
43
207
51
43
207
51
43
207
51
43
207
51
43
207
51
43
207
51
43
207
51
43
207
51
43
207
51
43
207
51
43
207
51
43
207
51
43
207
51
43
207
51
43
207
51
43
207
51
43
207
51
43
207
51
43
207
51
43
207
51
43
207
51
43
207
51
43
207
51
43
207
51
43
207
51
43
207
51
43
207
51
43
207
51
43
207
51
43
207
51
43
207
51
43
207
51
43
207
51
43
207
51
43
207
51
43
207
51
43
207
51
43
207
51
43
207
51
43
207
51
43
207
51
43
207
51
43
207
51
43
207
51
43
207
51
43
207
51
43
207
51
43
207
51
43
207
51
43
207
51
43
207
51
43
207
51
43
207
51
43
207
51
43
207
51
43
207
51
43
207
51
43
207
51
43
207
51
43
207
51
43
207
51
43
207
51
43
207
51
43
207
51
43
207
51
43
207
51
43
207
51
43
207
51
43
207
51
43
207
51
43
207
51
43
207
51
43
207
51
43
207
51
43
207
51
43
207
51
43
207
51
43
207
51
43
207
51
43
207
51
43
207
51
43
207
51
43
207
51
43
207
51
43
207
51
43
207
51
43
207
51
43
207
51
43
207
51
43
207
51
43
207
51
43
207
51
43
207
51
43
207
51
43
207
51
43
207
51
43
207
51
43
207
51
43
207
51
43
207
51
43
207
51
43
207
51
43
207
51
43
207
51
43
207
51
43
207
51
43
207
51
43
207
51
43
207
51
43
207
51
43
207
51
43
207
51
43
207
51
43
207
51
43
207
51
43
207
51
43
207
51
43
207
51
43
207
51
43
207
51
43
207
51
43
207
51
43
207
51
43
207
51
43
207
51
43
207
51
43
207
51
43
207
51
43
207
51
43
207
51
43
207
51
43
207
51
43
207
51
43
207
51
43
207
51
43
207
51
43
207
51
43
207
51
43
207
51
43
207
51
43
207
51
43
207
51
43
207
51
43
207
51
43
207
51
43
207
51
43
207
51
43
207
51
43
207
51
43
207
51
43
207
51
43
207
51
43
207
51
43
207
51
43
207
51
43
207
51
43
207
51
43
207
51
43
207
51
43
207
51
43
207
51
43
207
51
43
207
51
43
207
51
43
207
51
43
207
51
43
207
51
43
207
51
43
207
51
43
207
51
43
207
51
43
207
51
43
207
51
43
207
51
43
207
51
43
207
51
43
207
51
43
207
51
43
207
51
43
207
51
43
207
51
43
207
51
43
207
51
43
207
51
43
207
51
43
207
51
43
207
51
43
207
51
43
207
51
43
207
51
43
207
51
43
207
51
43
207
51
43
207
51
43
207
51
43
207
51
43
207
51
43
207
51
43
207
51
43
207
51
43
207
51
43
207
51
43
207
51
43
207
51
43
207
51
43
207
51
43
207
51
43
207
51
43
207
51
43
207
51
43
207
51
43
207
51
43
207
51
43
207
51
43
207
51
43
207
51
43
207
51
43
207
51
43
207
51
43
207
51
43
207
51
43
207
51
43
207
51
43
207
51
43
207
51
43
207
51
43
207
51
43
207
51
43
207
51
43
207
51
43
207
51
43
207
51
43
207
51
43
207
51
43
207
51
43
207
51
43
207
51
43
207
51
43
207
51
43
207
51
43
207
51
43
207
51
43
207
51
43
207
51
43
207
51
43
207
51
43
207
51
43
207
51
43
207
51
43
207
51
43
207
51
43
207
51
43
207
51
43
207
51
43
207
51
43
207
51
43
207
51
43
207
51
43
207
51
43
207
51
43
207
51
43
207
51
43
207
51
43
207
51
43
207
51
43
207
51
43
207
51
43
207
51
43
207
51
43
207
51
43
207
51
43
207
51
43
207
51
43
207
51
43
207
51
43
207
51
43
207
51
43
207
51
43
207
51
43
207
51
43
207
51
43
207
51
43
207
51
43
207
51
43
207
51
43
207
51
43
207
51
43
207
51
43
207
51
43
207
51
43
207
51
43
207
51
43
207
51
43
207
51
43
207
51
43
207
51
43
207
51
43
207
51
43
207
51
43
207
51
43
207
51
43
207
51
43
207
51
43
207
51
43
207
51
43
207
51
43
207
51
43
207
51
43
207
51
43
207
51
43
207
51
43
207
51
43
207
51
43
207
51
43
207
51
43
207
51
43
207
51
43
207
51
43
207
51
43
207
51
43
207
51
43
207
51
43
207
51
43
207
51
43
207
51
43
207
51
43
207
51
43
207
51
43
207
51
43
207
51
43
207
51
43
207
51
43
207
51
43
207
51
43
207
51
43
207
51
43
207
51
43
207
51
43
207
51
43
207
51
43
207
51
43
207
51
43
207
51
43
207
51
43
207
51
43
207
51
43
207
51
43
207
51
43
207
51
43
207
51
43
207
51
43
207
51
43
207
51
43
207
51
43
207
51
43
207
51
43
207
51
43
207
51
43
207
51
43
207
51
43
207
51
43
207
51
43
207
51
43
207
51
43
207
51
43
207
51
43
207
51
43
207
51
43
207
51
43
207
51
43
207
51
43
207
51
43
207
51
43
207
51
43
207
51
43
207
51
43
207
51
43
207
51
43
207
51
43
207
51
43
207
51
43
207
51
43
207
51
43
207
51
43
207
51
43
207
51
43
207
51
43
207
51
43
207
51
43
207
51
43
207
51
43
207
51
43
207
51
43
207
51
43
207
51
43
207
51
43
207
51
43
207
51
43
207
51
43
207
51
43
207
51
43
207
51
43
207
51
43
207
51
43
207
51
43
207
51
43
207
51
43
207
51
43
207
51
43
207
51
43
207
51
43
207
51
43
207
51
43
207
51
43
207
51
43
207
51
43
207
51
43
207
51
43
207
51
43
207
51
43
207
51
43
207
51
43
207
51
43
207
51
43
207
51
43
207
51
43
207
51
43
207
51
43
207
51
43
207
51
43
207
51
43
207
51
43
207
51
43
207
51
43
207
51
43
207
51
43
207
51
43
207
51
43
207
51
43
207
51
43
207
51
43
207
51
43
207
51
43
207
51
43
207
51
43
207
51
43
207
51
43
207
51
43
207
51
43
207
51
43
207
51
43
207
51
43
207
51
43
207
51
43
207
51
43
207
51
43
207
51
43
207
51
43
207
51
43
207
51
43
207
51
43
207
51
43
207
51
43
207
51
43
207
51
43
207
51
43
207
51
43
207
51
43
207
51
43
207
51
43
207
51
43
207
51
43
207
51
43
207
51
43
207
51
43
207
51
43
207
51
43
207
51
43
207
51
43
207
51
43
207
51
43
207
51
43
207
51
43
207
51
43
207
51
43
207
51
43
207
51
43
207
51
43
207
51
43
207
51
43
207
51
43
207
51
43
207
51
43
207
51
43
207
51
43
207
51
43
207
51
43
207
51
43
207
51
43
207
51
43
207
51
43
207
51
43
207
51
43
207
51
43
207
51
43
207
51
43
207
51
43
207
51
43
207
51
43
207
51
43
207
51
43
207
51
43
207
51
43
207
51
43
207
51
43
207
51
43
207
51
43
207
51
43
207
51
43
207
51
43
207
51
43
207
51
43
207
51
43
207
51
43
207
51
43
207
51
43
207
51
43
207
51
43
207
51
43
207
51
43
207
51
43
207
51
43
207
51
43
207
51
43
207
51
43
207
51
43
207
51
43
207
51
43
207
51
43
207
51
43
207
51
43
207
51
43
207
51
43
207
51
43
207
51
43
207
51
43
207
51
43
207
51
43
207
51
43
207
51
43
207
51
43
207
51
43
207
51
43
207
51
43
207
51
43
207
51
43
207
51
43
207
51
43
207
51
43
207
51
43
207
51
43
207
51
43
207
51
43
207
51
43
207
51
43
207
51
43
207
51
43
207
51
43
207
51
43
207
51
43
207
51
43
207
51
43
207
51
43
207
51
43
207
51
43
207
51
43
207
51
43
207
51
43
207
51
43
207
51
43
207
51
43
207
51
43
207
51
43
207
51
43
207
51
43
207
51
43
207
51
43
207
51
43
207
51
43
207
51
43
207
51
43
207
51
43
207
51
43
207
51
43
207
51
43
207
51
43
207
51
43
207
51
43
207
51
43
207
51
43
207
51
43
207
51
43
207
51
43
207
51
43
207
51
43
207
51
43
207
51
43
207
51
43
207
51
43
207
51
43
207
51
43
207
51
43
207
51
43
207
51
43
207
51
43
207
51
43
207
51
43
207
51
43
207
51
43
207
51
43
207
51
43
207
51
43
207
51
43
207
51
43
207
51
43
207
51
43
207
51
43
207
51
43
207
51
43
207
51
43
207
51
43
207
51
43
207
51
43
207
51
43
207
51
43
207
51
43
207
51
43
207
51
43
207
51
43
207
51
43
207
51
43
207
51
43
207
51
43
207
51
43
207
51
43
207
51
43
207
51
43
207
51
43
207
51
43
207
51
43
207
51
43
207
51
43
207
51
43
207
51
43
207
51
43
207
51
43
207
51
43
207
51
43
207
51
43
207
51
43
207
51
43
207
51
43
207
51
43
207
51
43
207
51
43
207
51
43
207
51
43
207
51
43
207
51
43
207
51
43
207
51
43
207
51
43
207
51
43
207
51
43
207
51
43
207
51
43
207
51
43
207
51
43
207
51
43
207
51
43
207
51
43
207
51
43
207
51
43
207
51
43
207
51
43
207
51
43
207
51
43
207
51
43
207
51
43
207
51
43
207
51
43
207
51
43
207
51
43
207
51
43
207
51
43
207
51
43
207
51
43
207
51
43
207
51
43
207
51
43
207
51
43
207
51
43
207
51
43
207
51
43
207
51
43
207
51
43
207
51
43
207
51
43
207
51
43
207
51
43
207
51
43
207
51
43
207
51
43
207
51
43
207
51
43
207
51
43
207
51
43
207
51
43
207
51
43
207
51
43
207
51
43
207
51
43
207
51
43
207
51
43
207
51
43
207
51
43
207
51
43
207
51
43
207
51
43
207
51
43
207
51
43
207
51
43
207
51
43
207
51
43
207
51
43
207
51
43
207
51
43
207
51
43
207
51
43
207
51
43
207
51
43
207
51
43
207
51
43
207
51
43
207
51
43
207
51
43
207
51
43
207
51
43
207
51
43
207
51
43
207
51
43
207
51
43
207
51
43
207
51
43
207
51
43
207
51
43
207
51
43
207
51
43
207
51
43
207
51
43
207
51
43
207
51
43
207
51
43
207
51
43
207
51
43
207
51
43
207
51
43
207
51
43
207
51
43
207
51
43
207
51
43
207
51
43
207
51
43
207
51
43
207
51
43
207
51
43
207
51
43
207
51
43
207
51
43
207
51
43
207
51
43
207
51
43
207
51
43
207
51
43
207
51
43
207
51
43
207
51
43
207
51
43
207
51
43
207
51
43
207
51
43
207
51
43
207
51
43
207
51
43
207
51
43
207
51
43
207
51
43
207
51
43
207
51
43
207
51
43
207
51
43
207
51
43
207
51
43
207
51
43
207
51
43
207
51
43
207
51
43
207
51
43
207
51
43
207
51
43
207
51
43
207
51
43
207
51
43
207
51
43
207
51
43
207
51
43
207
51
43
207
51
43
207
51
43
207
51
43
207
51
43
207
51
43
207
51
43
207
51
43
207
51
43
207
51
43
207
51
43
207
51
43
207
51
43
207
51
43
207
51
43
207
51
43
207
51
43
207
51
43
207
51
43
207
51
43
207
51
43
207
51
43
207
51
43
207
51
43
207
51
43
207
51
43
207
51
43
207
51
43
207
51
43
207
51
43
207
51
43
207
51
43
207
51
43
207
51
43
207
51
43
207
51
43
207
51
43
207
51
43
207
51
43
207
51
43
207
51
43
207
51
43
207
51
43
207
51
43
207
51
43
207
51
43
207
51
43
207
51
43
207
51
43
207
51
43
207
51
43
207
51
43
207
51
43
207
51
43
207
51
43
207
51
43
207
51
43
207
51
43
207
51
43
207
51
43
207
51
43
207
51
43
207
51
43
207
51
43
207
51
43
207
51
43
207
51
43
207
51
43
207
51
43
207
51
43
207
51
43
207
51
43
207
51
43
207
51
43
207
51
43
207
51
43
207
51
43
207
51
43
207
51
43
207
51
43
207
51
43
207
51
43
207
51
43
207
51
43
207
51
43
207
51
43
207
51
43
207
51
43
207
51
43
207
51
43
207
51
43
207
51
43
207
51
43
207
51
43
207
51
43
207
51
43
207
51
43
207
51
43
207
51
43
207
51
43
207
51
43
207
51
43
207
51
43
207
51
43
207
51
43
207
51
43
207
51
43
207
51
43
207
51
43
207
51
43
207
51
43
207
51
43
207
51
43
207
51
43
207
51
43
207
51
43
207
51
43
207
51
43
207
51
43
207
51
43
207
51
43
207
51
43
207
51
43
207
51
43
207
51
43
207
51
43
207
51
43
207
51
43
207
51
43
207
51
43
207
51
43
207
51
43
207
51
43
207
51
43
207
51
43
207
51
43
207
51
43
207
51
43
207
51
43
207
51
43
207
51
43
207
51
43
207
51
43
207
51
43
207
51
43
207
51
43
207
51
43
207
51
43
207
51
43
207
51
43
207
51
43
207
51
43
207
51
43
207
51
43
207
51
43
207
51
43
207
51
43
207
51
43
207
51
43
207
51
43
207
51
43
207
51
43
207
51
43
207
51
43
207
51
43
207
51
43
207
51
43
207
51
43
207
51
43
207
51
43
207
51
43
207
51
43
207
51
43
207
51
43
207
51
43
207
51
43
207
51
43
207
51
43
207
51
43
207
51
43
207
51
43
207
51
43
207
51
43
207
51
43
207
51
43
207
51
43
207
51
43
207
51
43
207
51
43
207
51
43
207
51
43
207
51
43
207
51
43
207
51
43
207
51
43
207
51
43
207
51
43
207
51
43
207
51
43
207
51
43
207
51
43
207
51
43
207
51
43
207
51
43
207
51
43
207
51
43
207
51
43
207
51
43
207
51
43
207
51
43
207
51
43
207
51
43
207
51
43
207
51
43
207
51
43
207
51
43
207
51
43
207
51
43
207
51
43
207
51
43
207
51
43
207
51
43
207
51
43
207
51
43
207
51
43
207
51
43
207
51
43
207
51
43
207
51
43
207
51
43
207
51
43
207
51
43
207
51
43
207
51
43
207
51
43
207
51
43
207
51
43
207
51
43
207
51
43
207
51
43
207
51
43
207
51
43
207
51
43
207
51
43
207
51
43
207
51
43
207
51
43
207
51
43
207
51
43
207
51
43
207
51
43
207
51
43
207
51
43
207
51
43
207
51
43
207
51
43
207
51
43
207
51
43
207
51
43
207
51
43
207
51
43
207
51
43
207
51
43
207
51
43
207
51
43
207
51
43
207
51
43
207
51
43
207
51
43
207
51
43
207
51
43
207
51
43
207
51
43
207
51
43
207
51
43
207
51
43
207
51
43
207
51
43
207
51
43
207
51
43
207
51
43
207
51
43
207
51
43
207
51
43
207
51
43
207
51
43
207
51
43
207
51
43
207
51
43
207
51
43
207
51
43
207
51
43
207
51
43
207
51
43
207
51
43
207
51
43
207
51
43
207
51
43
207
51
43
207
51
43
207
51
43
207
51
43
207
51
43
207
51
43
207
51
43
207
51
43
207
51
43
207
51
43
207
51
43
207
51
43
207
51
43
207
51
43
207
51
43
207
51
43
207
51
43
207
51
43
207
51
43
207
51
43
207
51
43
207
51
43
207
51
43
207
51
43
207
51
43
207
51
43
207
51
43
207
51
43
207
51
43
207
51
43
207
51
43
207
51
43
207
51
43
207
51
43
207
51
43
207
51
43
207
51
43
207
51
43
207
51
43
207
51
43
207
51
43
207
51
43
207
51
43
207
51
43
207
51
43
207
51
43
207
51
43
207
51
43
207
51
43
207
51
43
207
51
43
207
51
43
207
51
43
207
51
43
207
51
43
207
51
43
207
51
43
207
51
43
207
51
43
207
51
43
207
51
43
207
51
43
207
51
43
207
51
43
207
51
43
207
51
43
207
51
43
207
51
43
207
51
43
207
51
43
207
51
43
207
51
43
207
51
43
207
51
43
207
51
43
207
51
43
207
51
43
207
51
43
207
51
43
207
51
43
207
51
43
207
51
43
207
51
43
207
51
43
207
51
43
207
51
43
207
51
43
207
51
43
207
51
43
207
51
43
207
51
43
207
51
43
207
51
43
207
51
43
207
51
43
207
51
43
207
51
43
207
51
43
207
51
43
207
51
43
207
51
43
207
51
43
207
51
43
207
51
43
207
51
43
207
51
43
207
51
43
207
51
43
207
51
43
207
51
43
207
51
43
207
51
43
207
51
43
207
51
43
207
51
43
207
51
43
207
51
43
207
51
43
207
51
43
207
51
43
207
51
43
207
51
43
207
51
43
207
51
43
207
51
43
207
51
43
207
51
43
207
51
43
207
51
43
207
51
43
207
51
43
207
51
43
207
51
43
207
51
43
207
51
43
207
51
43
207
51
43
207
51
43
207
51
43
207
51
43
207
51
43
207
51
43
207
51
43
207
51
43
207
51
43
207
51
43
207
51
43
207
51
43
207
51
43
207
51
43
207
51
43
207
51
43
207
51
43
207
51
43
207
51
43
207
51
43
207
51
43
207
51
43
207
51
43
207
51
43
207
51
43
207
51
43
207
51
43
207
51
43
207
51
43
207
51
43
207
51
43
207
51
43
207
51
43
207
51
43
207
51
43
207
51
43
207
51
43
207
51
43
207
51
43
207
51
43
207
51
43
207
51
43
207
51
43
207
51
43
207
51
43
207
51
43
207
51
43
207
51
43
207
51
43
207
51
43
207
51
43
207
51
43
207
51
43
207
51
43
207
51
43
207
51
43
207
51
43
207
51
43
207
51
43
207
51
43
207
51
43
207
51
43
207
51
43
207
51
43
207
51
43
207
51
43
207
51
43
207
51
43
207
51
43
207
51
43
207
51
43
207
51
43
207
51
43
207
51
43
207
51
43
207
51
43
207
51
43
207
51
43
207
51
43
207
51
43
207
51
43
207
51
43
207
51
43
207
51
43
207
51
43
207
51
43
207
51
43
207
51
43
207
51
43
207
51
43
207
51
43
207
51
43
207
51
43
207
51
43
207
51
43
207
51
43
207
51
43
207
51
43
207
51
43
207
51
43
207
51
43
207
51
43
207
51
43
207
51
43
207
51
43
207
51
43
207
51
43
207
51
43
207
51
43
207
51
43
207
51
43
207
51
43
207
51
43
207
51
43
207
51
43
207
51
43
207
51
43
207
51
43
207
51
43
207
51
43
207
51
43
207
51
43
207
51
43
207
51
43
207
51
43
207
51
43
207
51
43
207
51
43
207
51
43
207
51
43
207
51
43
207
51
43
207
51
43
207
51
43
207
51
43
207
51
43
207
51
43
207
51
43
207
51
43
207
51
43
207
51
43
207
51
43
207
51
43
207
51
43
207
51
43
207
51
43
207
51
43
207
51
43
207
51
43
207
51
43
207
51
43
207
51
43
207
51
43
207
51
43
207
51
43
207
51
43
207
51
43
207
51
43
207
51
43
207
51
43
207
51
43
207
51
43
207
51
43
207
51
43
207
51
43
207
51
43
207
51
43
207
51
43
207
51
43
207
51
43
207
51
43
207
51
43
207
51
43
207
51
43
207
51
43
207
51
43
207
51
43
207
51
43
207
51
43
207
51
43
207
51
43
207
51
43
207
51
43
207
51
43
207
51
43
207
51
43
207
51
43
207
51
43
207
51
43
207
51
43
207
51
43
207
51
43
207
51
43
207
51
43
207
51
43
207
51
43
207
51
43
207
51
43
207
51
43
207
51
43
207
51
43
207
51
43
207
51
43
207
51
43
207
51
43
207
51
43
207
51
43
207
51
43
207
51
43
207
51
43
207
51
43
207
51
43
207
51
43
207
51
43
207
51
43
207
51
43
207
51
43
207
51
43
207
51
43
207
51
43
207
51
43
207
51
43
207
51
43
207
51
43
207
51
43
207
51
43
207
51
43
207
51
43
207
51
43
207
51
43
207
51
43
207
51
43
207
51
43
207
51
43
207
51
43
207
51
43
207
51
43
207
51
43
207
51
43
207
51
43
207
51
43
207
51
43
207
51
43
207
51
43
207
51
43
207
51
43
207
51
43
207
51
43
207
51
43
207
51
43
207
51
43
207
51
43
207
51
43
207
51
43
207
51
43
207
51
43
207
51
43
207
51
43
207
51
43
207
51
43
207
51
43
207
51
43
207
51
43
207
51
43
207
51
43
207
51
43
207
51
43
207
51
43
207
51
43
207
51
43
207
51
43
207
51
43
207
51
43
207
51
43
207
51
43
207
51
43
207
51
43
207
51
43
207
51
43
207
51
43
207
51
43
207
51
43
207
51
43
207
51
43
207
51
43
207
51
43
207
51
43
207
51
43
207
51
43
207
51
43
207
51
43
207
51
43
207
51
43
207
51
43
207
51
43
207
51
43
207
51
43
207
51
43
207
51
43
207
51
43
207
51
43
207
51
43
207
51
43
207
51
43
207
51
43
207
51
43
207
51
43
207
51
43
207
51
43
207
51
43
207
51
43
207
51
43
207
51
43
207
51
43
207
51
43
207
51
43
207
51
43
207
51
43
207
51
43
207
51
43
207
51
43
207
51
43
207
51
43
207
51
43
207
51
43
207
51
43
207
51
43
207
51
43
207
51
43
207
51
43
207
51
43
207
51
43
207
51
43
207
51
43
207
51
43
207
51
43
207
51
43
207
51
43
207
51
43
207
51
43
207
51
43
207
51
43
207
51
43
207
51
43
207
51
43
207
51
43
207
51
43
207
51
43
207
51
43
207
51
43
207
51
43
207
51
43
207
51
43
207
51
43
207
51
43
207
51
43
207
51
43
207
51
43
207
51
43
207
51
43
207
51
43
207
51
43
207
51
43
207
51
43
207
51
43
207
51
43
207
51
43
207
51
43
207
51
43
207
51
43
207
51
43
207
51
43
207
51
43
207
51
43
207
51
43
207
51
43
207
51
43
207
51
43
207
51
43
207
51
43
207
51
43
207
51
43
207
51
43
207
51
43
207
51
43
207
51
43
207
51
43
207
51
43
207
51
43
207
51
43
207
51
43
207
51
43
207
51
43
207
51
43
207
51
43
207
51
43
207
51
43
207
51
43
207
51
43
207
51
43
207
51
43
207
51
43
207
51
43
207
51
43
207
51
43
207
51
43
207
51
43
207
51
43
207
51
43
207
51
43
207
51
43
207
51
43
207
51
43
207
51
43
207
51
43
207
51
43
207
51
43
207
51
43
207
51
43
207
51
43
207
51
43
207
51
43
207
51
43
207
51
43
207
51
43
207
51
43
207
51
43
207
51
43
207
51
43
207
51
43
207
51
43
207
51
43
207
51
43
207
51
43
207
51
43
207
51
43
207
51
43
207
51
43
207
51
43
207
51
43
207
51
43
207
51
43
207
51
43
207
51
43
207
51
43
207
51
43
207
51
43
207
51
43
207
51
43
207
51
43
207
51
43
207
51
43
207
51
43
207
51
43
207
51
43
207
51
43
207
51
43
207
51
43
207
51
43
207
51
43
207
51
43
207
51
43
207
51
43
207
51
43
207
51
43
207
51
43
207
51
43
207
51
43
207
51
43
207
51
43
207
51
43
207
51
43
207
51
43
207
51
43
207
51
43
207
51
43
207
51
43
207
51
43
207
51
43
207
51
43
207
51
43
207
51
43
207
51
43
207
51
43
207
51
43
207
51
43
207
51
43
207
51
43
207
51
43
207
51
43
207
51
43
207
51
43
207
51
43
207
51
43
207
51
43
207
51
43
207
51
43
207
51
43
207
51
43
207
51
43
207
51
43
207
51
43
207
51
43
207
51
43
207
51
43
207
51
43
207
51
43
207
51
43
207
51
43
207
51
43
207
51
43
207
51
43
207
51
43
207
51
43
207
51
43
207
51
43
207
51
43
207
51
43
207
51
43
207
51
43
207
51
43
207
51
43
207
51
43
207
51
43
207
51
43
207
51
43
207
51
43
207
51
43
207
51
43
207
51
43
207
51
43
207
51
43
207
51
43
207
51
43
207
51
43
207
51
43
207
51
43
207
51
43
207
51
43
207
51
43
207
51
43
207
51
43
207
51
43
207
51
43
207
51
43
207
51
43
207
51
43
207
51
43
207
51
43
207
51
43
207
51
43
207
51
43
207
51
43
207
51
43
207
51
43
207
51
43
207
51
43
207
51
43
207
51
43
207
51
43
207
51
43
207
51
43
207
51
43
207
51
43
207
51
43
207
51
43
207
51
43
207
51
43
207
51
43
207
51
43
207
51
43
207
51
43
207
51
43
207
51
43
207
51
43
207
51
43
207
51
43
207
51
43
207
51
43
207
51
43
207
51
43
207
51
43
207
51
43
207
51
43
207
51
43
207
51
43
207
51
43
207
51
43
207
51
43
207
51
43
207
51
43
207
51
43
207
51
43
207
51
43
207
51
43
207
51
43
207
51
43
207
51
43
207
51
43
207
51
43
207
51
43
207
51
43
207
51
43
207
51
43
207
51
43
207
51
43
207
51
43
207
51
43
207
51
43
207
51
43
207
51
43
207
51
43
207
51
43
207
51
43
207
51
43
207
51
43
207
51
43
207
51
43
207
51
43
207
51
43
207
51
43
207
51
43
207
51
43
207
51
43
207
51
43
207
51
43
207
51
43
207
51
43
207
51
43
207
51
43
207
51
43
207
51
43
207
51
43
207
51
43
207
51
43
207
51
43
207
51
43
207
51
43
207
51
43
207
51
43
207
51
43
207
51
43
207
51
43
207
51
43
207
51
43
207
51
43
207
51
43
207
51
43
207
51
43
207
51
43
207
51
43
207
51
43
207
51
43
207
51
43
207
51
43
207
51
43
207
51
43
207
51
43
207
51
43
207
51
43
207
51
43
207
51
43
207
51
43
207
51
43
207
51
43
207
51
43
207
51
43
207
51
43
207
51
43
207
51
43
207
51
43
207
51
43
207
51
43
207
51
43
207
51
43
207
51
43
207
51
43
207
51
43
207
51
43
207
51
43
207
51
43
207
51
43
207
51
43
207
51
43
207
51
43
207
51
43
207
51
43
207
51
43
207
51
43
207
51
43
207
51
43
207
51
43
207
51
43
207
51
43
207
51
43
207
51
43
207
51
43
207
51
43
207
51
43
207
51
43
207
51
43
207
51
43
207
51
43
207
51
43
207
51
43
207
51
43
207
51
43
207
51
43
207
51
43
207
51
43
207
51
43
207
51
43
207
51
43
207
51
43
207
51
43
207
51
43
207
51
43
207
51
43
207
51
43
207
51
43
207
51
43
207
51
43
207
51
43
207
51
43
207
51
43
207
51
43
207
51
43
207
51
43
207
51
43
207
51
43
207
51
43
207
51
43
207
51
43
207
51
43
207
51
43
207
51
43
207
51
43
207
51
43
207
51
43
207
51
43
207
51
43
207
51
43
207
51
43
207
51
43
207
51
43
207
51
43
207
51
43
207
51
43
207
51
43
207
51
43
207
51
43
207
51
43
207
51
43
207
51
43
207
51
43
207
51
43
207
51
43
207
51
43
207
51
43
207
51
43
207
51
43
207
51
43
207
51
43
207
51
43
207
51
43
207
51
43
207
51
43
207
51
43
207
51
43
207
51
43
207
51
43
207
51
43
207
51
43
207
51
43
207
51
43
207
51
43
207
51
43
207
51
43
207
51
43
207
51
43
207
51
43
207
51
43
207
51
43
207
51
43
207
51
43
207
51
43
207
51
43
207
51
43
207
51
43
207
51
43
207
51
43
207
51
43
207
51
43
207
51
43
207
51
43
207
51
43
207
51
43
207
51
43
207
51
43
207
51
43
207
51
43
207
51
43
207
51
43
207
51
43
207
51
43
207
51
43
207
51
43
207
51
43
207
51
43
207
51
43
207
51
43
207
51
43
207
51
43
207
51
43
207
51
43
207
51
43
207
51
43
207
51
43
207
51
43
207
51
43
207
51
43
207
51
43
207
51
43
207
51
43
207
51
43
207
51
43
207
51
43
207
51
43
207
51
43
207
51
43
207
51
43
207
51
43
207
51
43
207
51
43
207
51
43
207
51
43
207
51
43
207
51
43
207
51
43
207
51
43
207
51
43
207
51
43
207
51
43
207
51
43
207
51
43
207
51
43
207
51
43
207
51
43
207
51
43
207
51
43
207
51
43
207
51
43
207
51
43
207
51
43
207
51
43
207
51
43
207
51
43
207
51
43
207
51
43
207
51
43
207
51
43
207
51
43
207
51
43
207
51
43
207
51
43
207
51
43
207
51
43
207
51
43
207
51
43
207
51
43
207
51
43
207
51
43
207
51
43
207
51
43
207
51
43
207
51
43
207
51
43
207
51
43
207
51
43
207
51
43
207
51
43
207
51
43
207
51
43
207
51
43
207
51
43
207
51
43
207
51
43
207
51
43
207
51
43
207
51
43
207
51
43
207
51
43
207
51
43
207
51
43
207
51
43
207
51
43
207
51
43
207
51
43
207
51
43
207
51
43
207
51
43
207
51
43
207
51
43
207
51
43
207
51
43
207
51
43
207
51
43
207
51
43
207
51
43
207
51
43
207
51
43
207
51
43
207
51
43
207
51
43
207
51
43
207
51
43
207
51
43
207
51
43
207
51
43
207
51
43
207
51
43
207
51
43
207
51
43
207
51
43
207
51
43
207
51
43
207
51
43
207
51
43
207
51
43
207
51
43
207
51
43
207
51
43
207
51
43
207
51
43
207
51
43
207
51
43
207
51
43
207
51
43
207
51
43
207
51
43
207
51
43
207
51
43
207
51
43
207
51
43
207
51
43
207
51
43
207
51
43
207
51
43
207
51
43
207
51
43
207
51
43
207
51
43
207
51
43
207
51
43
207
51
43
207
51
43
207
51
43
207
51
43
207
51
43
207
51
43
207
51
43
207
51
43
207
51
43
207
51
43
207
51
43
207
51
43
207
51
43
207
51
43
207
51
43
207
51
43
207
51
43
207
51
43
207
51
43
207
51
43
207
51
43
207
51
43
207
51
43
207
51
43
207
51
43
207
51
43
207
51
43
207
51
43
207
51
43
207
51
43
207
51
43
207
51
43
207
51
43
207
51
43
207
51
43
207
51
43
207
51
43
207
51
43
207
51
43
207
51
43
207
51
43
207
51
43
207
51
43
207
51
43
207
51
43
207
51
43
207
51
43
207
51
43
207
51
43
207
51
43
207
51
43
207
51
43
207
51
43
207
51
43
207
51
43
207
51
43
207
51
43
207
51
43
207
51
43
207
51
43
207
51
43
207
51
43
207
51
43
207
51
43
207
51
43
207
51
43
207
51
43
207
51
43
207
51
43
207
51
43
207
51
43
207
51
43
207
51
43
207
51
43
207
51
43
207
51
43
207
51
43
207
51
43
207
51
43
207
51
43
207
51
43
207
51
43
207
51
43
207
51
43
207
51
43
207
51
43
207
51
43
207
51
43
207
51
43
207
51
43
207
51
43
207
51
43
207
51
43
207
51
43
207
51
43
207
51
43
207
51
43
207
51
43
207
51
43
207
51
43
207
51
43
207
51
43
207
51
43
207
51
43
207
51
43
207
51
43
207
51
43
207
51
43
207
51
43
207
51
43
207
51
43
207
51
43
207
51
43
207
51
43
207
51
43
207
51
43
207
51
43
207
51
43
207
51
43
207
51
43
207
51
43
207
51
43
207
51
43
207
51
43
207
51
43
207
51
43
207
51
43
207
51
43
207
51
43
207
51
43
207
51
43
207
51
43
207
51
43
207
51
43
207
51
43
207
51
43
207
51
43
207
51
43
207
51
43
207
51
43
207
51
43
207
51
43
207
51
43
207
51
43
207
51
43
207
51
43
207
51
43
207
51
43
207
51
43
207
51
43
207
51
43
207
51
43
207
51
43
207
51
43
207
51
43
207
51
43
207
51
43
207
51
43
207
51
43
207
51
43
207
51
43
207
51
43
207
51
43
207
51
43
207
51
43
207
51
43
207
51
43
207
51
43
207
51
43
207
51
43
207
51
43
207
51
43
207
51
43
207
51
43
207
51
43
207
51
43
207
51
43
207
51
43
207
51
43
207
51
43
207
51
43
207
51
43
207
51
43
207
51
43
207
51
43
207
51
43
207
51
43
207
51
43
207
51
43
207
51
43
207
51
43
207
51
43
207
51
43
207
51
43
207
51
43
207
51
43
207
51
43
207
51
43
207
51
43
207
51
43
207
51
43
207
51
43
207
51
43
207
51
43
207
51
43
207
51
43
207
51
43
207
51
43
207
51
43
207
51
43
207
51
43
207
51
43
207
51
43
207
51
43
207
51
43
207
51
43
207
51
43
207
51
43
207
51
43
207
51
43
207
51
43
207
51
43
207
51
43
207
51
43
207
51
43
207
51
43
207
51
43
207
51
43
207
51
43
207
51
43
207
51
43
207
51
43
207
51
43
207
51
43
207
51
43
207
51
43
207
51
43
207
51
43
207
51
43
207
51
43
207
51
43
207
51
43
207
51
43
207
51
43
207
51
43
207
51
43
207
51
43
207
51
43
207
51
43
207
51
43
207
51
43
207
51
43
207
51
43
207
51
43
207
51
43
207
51
43
207
51
43
207
51
43
207
51
43
207
51
43
207
51
43
207
51
43
207
51
43
207
51
43
207
51
43
207
51
43
207
51
43
207
51
43
207
51
43
207
51
43
207
51
43
207
51
43
207
51
43
207
51
43
207
51
43
207
51
43
207
51
43
207
51
43
207
51
43
207
51
43
207
51
43
207
51
43
207
51
43
207
51
43
207
51
43
207
51
43
207
51
43
207
51
43
207
51
43
207
51
43
207
51
43
207
51
43
207
51
43
207
51
43
207
51
43
207
51
43
207
51
43
207
51
43
207
51
43
207
51
43
207
51
43
207
51
43
207
51
43
207
51
43
207
51
43
207
51
43
207
51
43
207
51
43
207
51
43
207
51
43
207
51
43
207
51
43
207
51
43
207
51
43
207
51
43
207
51
43
207
51
43
207
51
43
207
51
43
207
51
43
207
51
43
207
51
43
207
51
43
207
51
43
207
51
43
207
51
43
207
51
43
207
51
43
207
51
43
207
51
43
207
51
43
207
51
43
207
51
43
207
51
43
207
51
43
207
51
43
207
51
43
207
51
43
207
51
43
207
51
43
207
51
43
207
51
43
207
51
43
207
51
43
207
51
43
207
51
43
207
51
43
207
51
43
207
51
43
207
51
43
207
51
43
207
51
43
207
51
43
207
51
43
207
51
43
207
51
43
207
51
43
207
51
43
207
51
43
207
51
43
207
51
43
207
51
43
207
51
43
207
51
43
207
51
43
207
51
43
207
51
43
207
51
43
207
51
43
207
51
43
207
51
43
207
51
43
207
51
43
207
51
43
207
51
43
207
51
43
207
51
43
207
51
43
207
51
43
207
51
43
207
51
43
207
51
43
207
51
43
207
51
43
207
51
43
207
51
43
207
51
43
207
51
43
207
51
43
207
51
43
207
51
43
207
51
43
207
51
43
207
51
43
207
51
43
207
51
43
207
51
43
207
51
43
207
51
43
207
51
43
207
51
43
207
51
43
207
51
43
207
51
43
207
51
43
207
51
43
207
51
43
207
51
43
207
51
43
207
51
43
207
51
43
207
51
43
207
51
43
207
51
43
207
51
43
207
51
43
207
51
43
207
51
43
207
51
43
207
51
43
207
51
43
207
51
43
207
51
43
207
51
43
207
51
43
207
51
43
207
51
43
207
51
43
207
51
43
207
51
43
207
51
43
207
51
43
207
51
43
207
51
43
207
51
43
207
51
43
207
51
43
207
51
43
207
51
43
207
51
43
207
51
43
207
51
43
207
51
43
207
51
43
207
51
43
207
51
43
207
51
43
207
51
43
207
51
43
207
51
43
207
51
43
207
51
43
207
51
43
207
51
43
207
51
43
207
51
43
207
51
43
207
51
43
207
51
43
207
51
43
207
51
43
207
51
43
207
51
43
207
51
43
207
51
43
207
51
43
207
51
43
207
51
43
207
51
43
207
51
43
207
51
43
207
51
43
207
51
43
207
51
43
207
51
43
207
51
43
207
51
43
207
51
43
207
51
43
207
51
43
207
51
43
207
51
43
207
51
43
207
51
43
207
51
43
207
51
43
207
51
43
207
51
43
207
51
43
207
51
43
207
51
43
207
51
43
207
51
43
207
51
43
207
51
43
207
51
43
207
51
43
207
51
43
207
51
43
207
51
43
207
51
43
207
51
43
207
51
43
207
51
43
207
51
43
207
51
43
207
51
43
207
51
43
207
51
43
207
51
43
207
51
43
207
51
43
207
51
43
207
51
43
207
51
43
207
51
43
207
51
43
207
51
43
207
51
43
207
51
43
207
51
43
207
51
43
207
51
43
207
51
43
207
51
43
207
51
43
207
51
43
207
51
43
207
51
43
207
51
43
207
51
43
207
51
43
207
51
43
207
51
43
207
51
43
207
51
43
207
51
43
207
51
43
207
51
43
207
51
43
207
51
43
207
51
43
207
51
43
207
51
43
207
51
43
207
51
43
207
51
43
207
51
43
207
51
43
207
51
43
207
51
43
207
51
43
207
51
43
207
51
43
207
51
43
207
51
43
207
51
43
207
51
43
207
51
43
207
51
43
207
51
43
207
51
43
207
51
43
207
51
43
207
51
43
207
51
43
207
51
43
207
51
43
207
51
43
207
51
43
207
51
43
207
51
43
207
51
43
207
51
43
207
51
43
207
51
43
207
51
43
207
51
43
207
51
43
207
51
43
207
51
43
207
51
43
207
51
43
207
51
43
207
51
43
207
51
43
207
51
43
207
51
43
207
51
43
207
51
43
207
51
43
207
51
43
207
51
43
207
51
43
207
51
43
207
51
43
207
51
43
207
51
43
207
51
43
207
51
43
207
51
43
207
51
43
207
51
43
207
51
43
207
51
43
207
51
43
207
51
43
207
51
43
207
51
43
207
51
43
207
51
43
207
51
43
207
51
43
207
51
43
207
51
43
207
51
43
207
51
43
207
51
43
207
51
43
207
51
43
207
51
43
207
51
43
207
51
43
207
51
43
207
51
43
207
51
43
207
51
43
207
51
43
207
51
43
207
51
43
207
51
43
207
51
43
207
51
43
207
51
43
207
51
43
207
51
43
207
51
43
207
51
43
207
51
43
207
51
43
207
51
43
207
51
43
207
51
43
207
51
43
207
51
43
207
51
43
207
51
43
207
51
43
207
51
43
207
51
43
207
51
43
207
51
43
207
51
43
207
51
43
207
51
43
207
51
43
207
51
43
207
51
43
207
51
43
207
51
43
207
51
43
207
51
43
207
51
43
207
51
43
207
51
43
207
51
43
207
51
43
207
51
43
207
51
43
207
51
43
207
51
43
207
51
43
207
51
43
207
51
43
207
51
43
207
51
43
207
51
43
207
51
43
207
51
43
207
51
43
207
51
43
207
51
43
207
51
43
207
51
43
207
51
43
207
51
43
207
51
43
207
51
43
207
51
43
207
51
43
207
51
43
207
51
43
207
51
43
207
51
43
207
51
43
207
51
43
207
51
43
207
51
43
207
51
43
207
51
43
207
51
43
207
51
43
207
51
43
207
51
43
207
51
43
207
51
43
207
51
43
207
51
43
207
51
43
207
51
43
207
51
43
207
51
43
207
51
43
207
51
43
207
51
43
207
51
43
207
51
43
207
51
43
207
51
43
207
51
43
207
51
43
207
51
43
207
51
43
207
51
43
207
51
43
207
51
43
207
51
43
207
51
43
207
51
43
207
51
43
207
51
43
207
51
43
207
51
43
207
51
43
207
51
43
207
51
43
207
51
43
207
51
43
207
51
43
207
51
43
207
51
43
207
51
43
207
51
43
207
51
43
207
51
43
207
51
43
207
51
43
207
51
43
207
51
43
207
51
43
207
51
43
207
51
43
207
51
43
207
51
43
207
51
43
207
51
43
207
51
43
207
51
43
207
51
43
207
51
43
207
51
43
207
51
43
207
51
43
207
51
43
207
51
43
207
51
43
207
51
43
207
51
43
207
51
43
207
51
43
207
51
43
207
51
43
207
51
43
207
51
43
207
51
43
207
51
43
207
51
43
207
51
43
207
51
43
207
51
43
207
51
43
207
51
43
207
51
43
207
51
43
207
51
43
207
51
43
207
51
43
207
51
43
207
51
43
207
51
43
207
51
43
207
51
43
207
51
43
207
51
43
207
51
43
207
51
43
207
51
43
207
51
43
207
51
43
207
51
43
207
51
43
207
51
43
207
51
43
207
51
43
207
51
43
207
51
43
207
51
43
207
51
43
207
51
43
207
51
43
207
51
43
207
51
43
207
51
43
207
51
43
207
51
43
207
51
43
207
51
43
207
51
43
207
51
43
207
51
43
207
51
43
207
51
43
207
51
43
207
51
43
207
51
43
207
51
43
207
51
43
207
51
43
207
51
43
207
51
43
207
51
43
207
51
43
207
51
43
207
51
43
207
51
43
207
51
43
207
51
43
207
51
43
207
51
43
207
51
43
207
51
43
207
51
43
207
51
43
207
51
43
207
51
43
207
51
43
207
51
43
207
51
43
207
51
43
207
51
43
207
51
43
207
51
43
207
51
43
207
51
43
207
51
43
207
51
43
207
51
43
207
51
43
207
51
43
207
51
43
207
51
43
207
51
43
207
51
43
207
51
43
207
51
43
207
51
43
207
51
43
207
51
43
207
51
43
207
51
43
207
51
43
207
51
43
207
51
43
207
51
43
207
51
43
207
51
43
207
51
43
207
51
43
207
51
43
207
51
43
207
51
43
207
51
43
207
51
43
207
51
43
207
51
43
207
51
43
207
51
43
207
51
43
207
51
43
207
51
43
207
51
43
207
51
43
207
51
43
207
51
43
207
51
43
207
51
43
207
51
43
207
51
43
207
51
43
207
51
43
207
51
43
207
51
43
207
51
43
207
51
43
207
51
43
207
51
43
207
51
43
207
51
43
207
51
43
207
51
43
207
51
43
207
51
43
207
51
43
207
51
43
207
51
43
207
51
43
207
51
43
207
51
43
207
51
43
207
51
43
207
51
43
207
51
43
207
51
43
207
51
43
207
51
43
207
51
43
207
51
43
207
51
43
207
51
43
207
51
43
207
51
43
207
51
43
207
51
43
207
51
43
207
51
43
207
51
43
207
51
43
207
51
43
207
51
43
207
51
43
207
51
43
207
51
43
207
51
43
207
51
43
207
51
43
207
51
43
207
51
43
207
51
43
207
51
43
207
51
43
207
51
43
207
51
43
207
51
43
207
51
43
207
51
43
207
51
43
207
51
43
207
51
43
207
51
43
207
51
43
207
51
43
207
51
43
207
51
43
207
51
43
207
51
43
207
51
43
207
51
43
207
51
43
207
51
43
207
51
43
207
51
43
207
51
43
207
51
43
207
51
43
207
51
43
207
51
43
207
51
43
207
51
43
207
51
43
207
51
43
207
51
43
207
51
43
207
51
43
207
51
43
207
51
43
207
51
43
207
51
43
207
51
43
207
51
43
207
51
43
207
51
43
207
51
43
207
51
43
207
51
43
207
51
43
207
51
43
207
51
43
207
51
43
207
51
43
207
51
43
207
51
43
207
51
43
207
51
43
207
51
43
207
51
43
207
51
43
207
51
43
207
51
43
207
51
43
207
51
43
207
51
43
207
51
43
207
51
43
207
51
43
207
51
43
207
51
43
207
51
43
207
51
43
207
51
43
207
51
43
207
51
43
207
51
43
207
51
43
207
51
43
207
51
43
207
51
43
207
51
43
207
51
43
207
51
43
207
51
43
207
51
43
207
51
43
207
51
43
207
51
43
207
51
43
207
51
43
207
51
43
207
51
43
207
51
43
207
51
43
207
51
43
207
51
43
207
51
43
207
51
43
207
51
43
207
51
43
207
51
43
207
51
43
207
51
43
207
51
43
207
51
43
207
51
43
207
51
43
207
51
43
207
51
43
207
51
43
207
51
43
207
51
43
207
51
43
207
51
43
207
51
43
207
51
43
207
51
43
207
51
43
207
51
43
207
51
43
207
51
43
207
51
43
207
51
43
207
51
43
207
51
43
207
51
43
207
51
43
207
51
43
207
51
43
207
51
43
207
51
43
207
51
43
207
51
43
207
51
43
207
51
43
207
51
43
207
51
43
207
51
43
207
51
43
207
51
43
207
51
43
207
51
43
207
51
43
207
51
43
207
51
43
207
51
43
207
51
43
207
51
43
207
51
43
207
51
43
207
51
43
207
51
43
207
51
43
207
51
43
207
51
43
207
51
43
207
51
43
207
51
43
207
51
43
207
51
43
207
51
43
207
51
43
207
51
43
207
51
43
207
51
43
207
51
43
207
51
43
207
51
43
207
51
43
207
51
43
207
51
43
207
51
43
207
51
43
207
51
43
207
51
43
207
51
43
207
51
43
207
51
43
207
51
43
207
51
43
207
51
43
207
51
43
207
51
43
207
51
43
207
51
43
207
51
43
207
51
43
207
51
43
207
51
43
207
51
43
207
51
43
207
51
43
207
51
43
207
51
43
207
51
43
207
51
43
207
51
43
207
51
43
207
51
43
207
51
43
207
51
43
207
51
43
207
51
43
207
51
43
207
51
43
207
51
43
207
51
43
207
51
43
207
51
43
207
51
43
207
51
43
207
51
43
207
51
43
207
51
43
207
51
43
207
51
43
207
51
43
207
51
43
207
51
43
207
51
43
207
51
43
207
51
43
207
51
43
207
51
43
207
51
43
207
51
43
207
51
43
207
51
43
207
51
43
207
51
43
207
51
43
207
51
43
207
51
43
207
51
43
207
51
43
207
51
43
207
51
43
207
51
43
207
51
43
207
51
43
207
51
43
207
51
43
207
51
43
207
51
43
207
51
43
207
51
43
207
51
43
207
51
43
207
51
43
207
51
43
207
51
43
207
51
43
207
51
43
207
51
43
207
51
43
207
51
43
207
51
43
207
51
43
207
51
43
207
51
43
207
51
43
207
51
43
207
51
43
207
51
43
207
51
43
207
51
43
207
51
43
207
51
43
207
51
43
207
51
43
207
51
43
207
51
43
207
51
43
207
51
43
207
51
43
207
51
43
207
51
43
207
51
43
207
51
43
207
51
43
207
51
43
207
51
43
207
51
43
207
51
43
207
51
43
207
51
43
207
51
43
207
51
43
207
51
43
207
51
43
207
51
43
207
51
43
207
51
43
207
51
43
207
51
43
207
51
43
207
51
43
207
51
43
207
51
43
207
51
43
207
51
43
207
51
43
207
51
43
207
51
43
207
51
43
207
51
43
207
51
43
207
51
43
207
51
43
207
51
43
207
51
43
207
51
43
207
51
43
207
51
43
207
51
43
207
51
43
207
51
43
207
51
43
207
51
43
207
51
43
207
51
43
207
51
43
207
51
43
207
51
43
207
51
43
207
51
43
207
51
43
207
51
43
207
51
43
207
51
43
207
51
43
207
51
43
207
51
43
207
51
43
207
51
43
207
51
43
207
51
43
207
51
43
207
51
43
207
51
43
207
51
43
207
51
43
207
51
43
207
51
43
207
51
43
207
51
43
207
51
43
207
51
43
207
51
43
207
51
43
207
51
43
207
51
43
207
51
43
207
51
43
207
51
43
207
51
43
207
51
43
207
51
43
207
51
43
207
51
43
207
51
43
207
51
43
207
51
43
207
51
43
207
51
43
207
51
43
207
51
43
207
51
43
207
51
43
207
51
43
207
51
43
207
51
43
207
51
43
207
51
43
207
51
43
207
51
43
207
51
43
207
51
43
207
51
43
207
51
43
207
51
43
207
51
43
207
51
43
207
51
43
207
51
43
207
51
43
207
51
43
207
51
43
207
51
43
207
51
43
207
51
43
207
51
43
207
51
43
207
51
43
207
51
43
207
51
43
207
51
43
207
51
43
207
51
43
207
51
43
207
51
43
207
51
43
207
51
43
207
51
43
207
51
43
207
51
43
207
51
43
207
51
43
207
51
43
207
51
43
207
51
43
207
51
43
207
51
43
207
51
43
207
51
43
207
51
43
207
51
43
207
51
43
207
51
43
207
51
43
207
51
43
207
51
43
207
51
43
207
51
43
207
51
43
207
51
43
207
51
43
207
51
43
207
51
43
207
51
43
207
51
43
207
51
43
207
51
43
207
51
43
207
51
43
207
51
43
207
51
43
207
51
43
207
51
43
207
51
43
207
51
43
207
51
43
207
51
43
207
51
43
207
51
43
207
51
43
207
51
43
207
51
43
207
51
43
207
51
43
207
51
43
207
51
43
207
51
43
207
51
43
207
51
43
207
51
43
207
51
43
207
51
43
207
51
43
207
51
43
207
51
43
207
51
43
207
51
43
207
51
43
207
51
43
207
51
43
207
51
43
207
51
43
207
51
43
207
51
43
207
51
43
207
51
43
207
51
43
207
51
43
207
51
43
207
51
43
207
51
43
207
51
43
207
51
43
207
51
43
207
51
43
207
51
43
207
51
43
207
51
43
207
51
43
207
51
43
207
51
43
207
51
43
207
51
43
207
51
43
207
51
43
207
51
43
207
51
43
207
51
43
207
51
43
207
51
43
207
51
43
207
51
43
207
51
43
207
51
43
207
51
43
207
51
43
207
51
43
207
51
43
207
51
43
207
51
43
207
51
43
207
51
43
207
51
43
207
51
43
207
51
43
207
51
43
207
51
43
207
51
43
207
51
43
207
51
43
207
51
43
207
51
43
207
51
43
207
51
43
207
51
43
207
51
43
207
51
43
207
51
43
207
51
43
207
51
43
207
51
43
207
51
43
207
51
43
207
51
43
207
51
43
207
51
43
207
51
43
207
51
43
207
51
43
207
51
43
207
51
43
207
51
43
207
51
43
207
51
43
207
51
43
207
51
43
207
51
43
207
51
43
207
51
43
207
51
43
207
51
43
207
51
43
207
51
43
207
51
43
207
51
43
207
51
43
207
51
43
207
51
43
207
51
43
207
51
43
207
51
43
207
51
43
207
51
43
207
51
43
207
51
43
207
51
43
207
51
43
207
51
43
207
51
43
207
51
43
207
51
43
207
51
43
207
51
43
207
51
43
207
51
43
207
51
43
207
51
43
207
51
43
207
51
43
207
51
43
207
51
43
207
51
43
207
51
43
207
51
43
207
51
43
207
51
43
207
51
43
207
51
43
207
51
43
207
51
43
207
51
43
207
51
43
207
51
43
207
51
43
207
51
43
207
51
43
207
51
43
207
51
43
207
51
43
207
51
43
207
51
43
207
51
43
207
51
43
207
51
43
207
51
43
207
51
43
207
51
43
207
51
43
207
51
43
207
51
43
207
51
43
207
51
43
207
51
43
207
51
43
207
51
43
207
51
43
207
51
43
207
51
43
207
51
43
207
51
43
207
51
43
207
51
43
207
51
43
207
51
43
207
51
43
207
51
43
207
51
43
207
51
43
207
51
43
207
51
43
207
51
43
207
51
43
207
51
43
207
51
43
207
51
43
207
51
43
207
51
43
207
51
43
207
51
43
207
51
43
207
51
43
207
51
43
207
51
43
207
51
43
207
51
43
207
51
43
207
51
43
207
51
43
207
51
43
207
51
43
207
51
43
207
51
43
207
51
43
207
51
43
207
51
43
207
51
43
207
51
43
207
51
43
207
51
43
207
51
43
207
51
43
207
51
43
207
51
43
207
51
43
207
51
43
207
51
43
207
51
43
207
51
43
207
51
43
207
51
43
207
51
43
207
51
43
207
51
43
207
51
43
207
51
43
207
51
43
207
51
43
207
51
43
207
51
43
207
51
43
207
51
43
207
51
43
207
51
43
207
51
43
207
51
43
207
51
43
207
51
43
207
51
43
207
51
43
207
51
43
207
51
43
207
51
43
207
51
43
207
51
43
207
51
43
207
51
43
207
51
43
207
51
43
207
51
43
207
51
43
207
51
43
207
51
43
207
51
43
207
51
43
207
51
43
207
51
43
207
51
43
207
51
43
207
51
43
207
51
43
207
51
43
207
51
43
207
51
43
207
51
43
207
51
43
207
51
43
207
51
43
207
51
43
207
51
43
207
51
43
207
51
43
207
51
43
207
51
43
207
51
43
207
51
43
207
51
43
207
51
43
207
51
43
207
51
43
207
51
43
207
51
43
207
51
43
207
51
43
207
51
43
207
51
43
207
51
43
207
51
43
207
51
43
207
51
43
207
51
43
207
51
43
207
51
43
207
51
43
207
51
43
207
51
43
207
51
43
207
51
43
207
51
43
207
51
43
207
51
43
207
51
43
207
51
43
207
51
43
207
51
43
207
51
43
207
51
43
207
51
43
207
51
43
207
51
43
207
51
43
207
51
43
207
51
43
207
51
43
207
51
43
207
51
43
207
51
43
207
51
43
207
51
43
207
51
43
207
51
43
207
51
43
207
51
43
207
51
43
207
51
43
207
51
43
207
51
43
207
51
43
207
51
43
207
51
43
207
51
43
207
51
43
207
51
43
207
51
43
207
51
43
207
51
43
207
51
43
207
51
43
207
51
43
207
51
43
207
51
43
207
51
43
207
51
43
207
51
43
207
51
43
207
51
43
207
51
43
207
51
43
207
51
43
207
51
43
207
51
43
207
51
43
207
51
43
207
51
43
207
51
43
207
51
43
207
51
43
207
51
43
207
51
43
207
51
43
207
51
43
207
51
43
207
51
43
207
51
43
207
51
43
207
51
43
207
51
43
207
51
43
207
51
43
207
51
43
207
51
43
207
51
43
207
51
43
207
51
43
207
51
43
207
51
43
207
51
43
207
51
43
207
51
43
207
51
43
207
51
43
207
51
43
207
51
43
207
51
43
207
51
43
207
51
43
207
51
43
207
51
43
207
51
43
207
51
43
207
51
43
207
51
43
207
51
43
207
51
43
207
51
43
207
51
43
207
51
43
207
51
43
207
51
43
207
51
43
207
51
43
207
51
43
207
51
43
207
51
43
207
51
43
207
51
43
207
51
43
207
51
43
207
51
43
207
51
43
207
51
43
207
51
43
207
51
43
207
51
43
207
51
43
207
51
43
207
51
43
207
51
43
207
51
43
207
51
43
207
51
43
207
51
43
207
51
43
207
51
43
207
51
43
207
51
43
207
51
43
207
51
43
207
51
43
207
51
43
207
51
43
207
51
43
207
51
43
207
51
43
207
51
43
207
51
43
207
51
43
207
51
43
207
51
43
207
51
43
207
51
43
207
51
43
207
51
43
207
51
43
207
51
43
207
51
43
207
51
43
207
51
43
207
51
43
207
51
43
207
51
43
207
51
43
207
51
43
207
51
43
207
51
43
207
51
43
207
51
43
207
51
43
207
51
43
207
51
43
207
51
43
207
51
43
207
51
43
207
51
43
207
51
43
207
51
43
207
51
43
207
51
43
207
51
43
207
51
43
207
51
43
207
51
43
207
51
43
207
51
43
207
51
43
207
51
43
207
51
43
207
51
43
207
51
43
207
51
43
207
51
43
207
51
43
207
51
43
207
51
43
207
51
43
207
51
43
207
51
43
207
51
43
207
51
43
207
51
43
207
51
43
207
51
43
207
51
43
207
51
43
207
51
43
207
51
43
207
51
43
207
51
43
207
51
43
207
51
43
207
51
43
207
51
43
207
51
43
207
51
43
207
51
43
207
51
43
207
51
43
207
51
43
207
51
43
207
51
43
207
51
43
207
51
43
207
51
43
207
51
43
207
51
43
207
51
43
207
51
43
207
51
43
207
51
43
207
51
43
207
51
43
207
51
43
207
51
43
207
51
43
207
51
43
207
51
43
207
51
43
207
51
43
207
51
43
207
51
43
207
51
43
207
51
43
207
51
43
207
51
43
207
51
43
207
51
43
207
51
43
207
51
43
207
51
43
207
51
43
207
51
43
207
51
43
207
51
43
207
51
43
207
51
43
207
51
43
207
51
43
207
51
43
207
51
43
207
51
43
207
51
43
207
51
43
207
51
43
207
51
43
207
51
43
207
51
43
207
51
43
207
51
43
207
51
43
207
51
43
207
51
43
207
51
43
207
51
43
207
51
43
207
51
43
207
51
43
207
51
43
207
51
43
207
51
43
207
51
43
207
51
43
207
51
43
207
51
43
207
51
43
207
51
43
207
51
43
207
51
43
207
51
43
207
51
43
207
51
43
207
51
43
207
51
43
207
51
43
207
51
43
207
51
43
207
51
43
207
51
43
207
51
43
207
51
43
207
51
43
207
51
43
207
51
43
207
51
43
207
51
43
207
51
43
207
51
43
207
51
43
207
51
43
207
51
43
207
51
43
207
51
43
207
51
43
207
51
43
207
51
43
207
51
43
207
51
43
207
51
43
207
51
43
207
51
43
207
51
43
207
51
43
207
51
43
207
51
43
207
51
43
207
51
43
207
51
43
207
51
43
207
51
43
207
51
43
207
51
43
207
51
43
207
51
43
207
51
43
207
51
43
207
51
43
207
51
43
207
51
43
207
51
43
207
51
43
207
51
43
207
51
43
207
51
43
207
51
43
207
51
43
207
51
43
207
51
43
207
51
43
207
51
43
207
51
43
207
51
43
207
51
43
207
51
43
207
51
43
207
51
43
207
51
43
207
51
43
207
51
43
207
51
43
207
51
43
207
51
43
207
51
43
207
51
43
207
51
43
207
51
43
207
51
43
207
51
43
207
51
43
207
51
43
207
51
43
207
51
43
207
51
43
207
51
43
207
51
43
207
51
43
207
51
43
207
51
43
207
51
43
207
51
43
207
51
43
207
51
43
207
51
43
207
51
43
207
51
43
207
51
43
207
51
43
207
51
43
207
51
43
207
51
43
207
51
43
207
51
43
207
51
43
207
51
43
207
51
43
207
51
43
207
51
43
207
51
43
207
51
43
207
51
43
207
51
43
207
51
43
207
51
43
207
51
43
207
51
43
207
51
43
207
51
43
207
51
43
207
51
43
207
51
43
207
51
43
207
51
43
207
51
43
207
51
43
207
51
43
207
51
43
207
51
43
207
51
43
207
51
43
207
51
43
207
51
43
207
51
43
207
51
43
207
51
43
207
51
43
207
51
43
207
51
43
207
51
43
207
51
43
207
51
43
207
51
43
207
51
43
207
51
43
207
51
43
207
51
43
207
51
43
207
51
43
207
51
43
207
51
43
207
51
43
207
51
43
207
51
43
207
51
43
207
51
43
207
51
43
207
51
43
207
51
43
207
51
43
207
51
43
207
51
43
207
51
43
207
51
43
207
51
43
207
51
43
207
51
43
207
51
43
207
51
43
207
51
43
207
51
43
207
51
43
207
51
43
207
51
43
207
51
43
207
51
43
207
51
43
207
51
43
207
51
43
207
51
43
207
51
43
207
51
43
207
51
43
207
51
43
207
51
43
207
51
43
207
51
43
207
51
43
207
51
43
207
51
43
207
51
43
207
51
43
207
51
43
207
51
43
207
51
43
207
51
43
207
51
43
207
51
43
207
51
43
207
51
43
207
51
43
207
51
43
207
51
43
207
51
43
207
51
43
207
51
43
207
51
43
207
51
43
207
51
43
207
51
43
207
51
43
207
51
43
207
51
43
207
51
43
207
51
43
207
51
43
207
51
43
207
51
43
207
51
43
207
51
43
207
51
43
207
51
43
207
51
43
207
51
43
207
51
43
207
51
43
207
51
43
207
51
43
207
51
43
207
51
43
207
51
43
207
51
43
207
51
43
207
51
43
207
51
43
207
51
43
207
51
43
207
51
43
207
51
43
207
51
43
207
51
43
207
51
43
207
51
43
207
51
43
207
51
43
207
51
43
207
51
43
207
51
43
207
51
43
207
51
43
207
51
43
207
51
43
207
51
43
207
51
43
207
51
43
207
51
43
207
51
43
207
51
43
207
51
43
207
51
43
207
51
43
207
51
43
207
51
43
207
51
43
207
51
43
207
51
43
207
51
43
207
51
43
207
51
43
207
51
43
207
51
43
207
51
43
207
51
43
207
51
43
207
51
43
207
51
43
207
51
43
207
51
43
207
51
43
207
51
43
207
51
43
207
51
43
207
51
43
207
51
43
207
51
43
207
51
43
207
51
43
207
51
43
207
51
43
207
51
43
207
51
43
207
51
43
207
51
43
207
51
43
207
51
43
207
51
43
207
51
43
207
51
43
207
51
43
207
51
43
207
51
43
207
51
43
207
51
43
207
51
43
207
51
43
207
51
43
207
51
43
207
51
43
207
51
43
207
51
43
207
51
43
207
51
43
207
51
43
207
51
43
207
51
43
207
51
43
207
51
43
207
51
43
207
51
43
207
51
43
207
51
43
207
51
43
207
51
43
207
51
43
207
51
43
207
51
43
207
51
43
207
51
43
207
51
43
207
51
43
207
51
43
207
51
43
207
51
43
207
51
43
207
51
43
207
51
43
207
51
43
207
51
43
207
51
43
207
51
43
207
51
43
207
51
43
207
51
43
207
51
43
207
51
43
207
51
43
207
51
43
207
51
43
207
51
43
207
51
43
207
51
43
207
51
43
207
51
43
207
51
43
207
51
43
207
51
43
207
51
43
207
51
43
207
51
43
207
51
43
207
51
43
207
51
43
207
51
43
207
51
43
207
51
43
207
51
43
207
51
43
207
51
43
207
51
43
207
51
43
207
51
43
207
51
43
207
51
43
207
51
43
207
51
43
207
51
43
207
51
43
207
51
43
207
51
43
207
51
43
207
51
43
207
51
43
207
51
43
207
51
43
207
51
43
207
51
43
207
51
43
207
51
43
207
51
43
207
51
43
207
51
43
207
51
43
207
51
43
207
51
43
207
51
43
207
51
43
207
51
43
207
51
43
207
51
43
207
51
43
207
51
43
207
51
43
207
51
43
207
51
43
207
51
43
207
51
43
207
51
43
207
51
43
207
51
43
207
51
43
207
51
43
207
51
43
207
51
43
207
51
43
207
51
43
207
51
43
207
51
43
207
51
43
207
51
43
207
51
43
207
51
43
207
51
43
207
51
43
207
51
43
207
51
43
207
51
43
207
51
43
207
51
43
207
51
43
207
51
43
207
51
43
207
51
43
207
51
43
207
51
43
207
51
43
207
51
43
207
51
43
207
51
43
207
51
43
207
51
43
207
51
43
207
51
43
207
51
43
207
51
43
207
51
43
207
51
43
207
51
43
207
51
43
207
51
43
207
51
43
207
51
43
207
51
43
207
51
43
207
51
43
207
51
43
207
51
43
207
51
43
207
51
43
207
51
43
207
51
43
207
51
43
207
51
43
207
51
43
207
51
43
207
51
43
207
51
43
207
51
43
207
51
43
207
51
43
207
51
43
207
51
43
207
51
43
207
51
43
207
51
43
207
51
43
207
51
43
207
51
43
207
51
43
207
51
43
207
51
43
207
51
43
207
51
43
207
51
43
207
51
43
207
51
43
207
51
43
207
51
43
207
51
43
207
51
43
207
51
43
207
51
43
207
51
43
207
51
43
207
51
43
207
51
43
207
51
43
207
51
43
207
51
43
207
51
43
207
51
43
207
51
43
207
51
43
207
51
43
207
51
43
207
51
43
207
51
43
207
51
43
207
51
43
207
51
43
207
51
43
207
51
43
207
51
43
207
51
43
207
51
43
207
51
43
207
51
43
207
51
43
207
51
43
207
51
43
207
51
43
207
51
43
207
51
43
207
51
43
207
51
43
207
51
43
207
51
43
207
51
43
207
51
43
207
51
43
207
51
43
207
51
43
207
51
43
207
51
43
207
51
43
207
51
43
207
51
43
207
51
43
207
51
43
207
51
43
207
51
43
207
51
43
207
51
43
207
51
43
207
51
43
207
51
43
207
51
43
207
51
43
207
51
43
207
51
43
207
51
43
207
51
43
207
51
43
207
51
43
207
51
43
207
51
43
207
51
43
207
51
43
207
51
43
207
51
43
207
51
43
207
51
43
207
51
43
207
51
43
207
51
43
207
51
43
207
51
43
207
51
43
207
51
43
207
51
43
207
51
43
207
51
43
207
51
43
207
51
43
207
51
43
207
51
43
207
51
43
207
51
43
207
51
43
207
51
43
207
51
43
207
51
43
207
51
43
207
51
43
207
51
43
207
51
43
207
51
43
207
51
43
207
51
43
207
51
43
207
51
43
207
51
43
207
51
43
207
51
43
207
51
43
207
51
43
207
51
43
207
51
43
207
51
43
207
51
43
207
51
43
207
51
43
207
51
43
207
51
43
207
51
43
207
51
43
207
51
43
207
51
43
207
51
43
207
51
43
207
51
43
207
51
43
207
51
43
207
51
43
207
51
43
207
51
43
207
51
43
207
51
43
207
51
43
207
51
43
207
51
43
207
51
43
207
51
43
207
51
43
207
51
43
207
51
43
207
51
43
207
51
43
207
51
43
207
51
43
207
51
43
207
51
43
207
51
43
207
51
43
207
51
43
207
51
43
207
51
43
207
51
43
207
51
43
207
51
43
207
51
43
207
51
43
207
51
43
207
51
43
207
51
43
207
51
43
207
51
43
207
51
43
207
51
43
207
51
43
207
51
43
207
51
43
207
51
43
207
51
43
207
51
43
207
51
43
207
51
43
207
51
43
207
51
43
207
51
43
207
51
43
207
51
43
207
51
43
207
51
43
207
51
43
207
51
43
207
51
43
207
51
43
207
51
43
207
51
43
207
51
43
207
51
43
207
51
43
207
51
43
207
51
43
207
51
43
207
51
43
207
51
43
207
51
43
207
51
43
207
51
43
207
51
43
207
51
43
207
51
43
207
51
43
207
51
43
207
51
43
207
51
43
207
51
43
207
51
43
207
51
43
207
51
43
207
51
43
207
51
43
207
51
43
207
51
43
207
51
43
207
51
43
207
51
43
207
51
43
207
51
43
207
51
43
207
51
43
207
51
43
207
51
43
207
51
43
207
51
43
207
51
43
207
51
43
207
51
43
207
51
43
207
51
43
207
51
43
207
51
43
207
51
43
207
51
43
207
51
43
207
51
43
207
51
43
207
51
43
207
51
43
207
51
43
207
51
43
207
51
43
207
51
43
207
51
43
207
51
43
207
51
43
207
51
43
207
51
43
207
51
43
207
51
43
207
51
43
207
51
43
207
51
43
207
51
43
207
51
43
207
51
43
207
51
43
207
51
43
207
51
43
207
51
43
207
51
43
207
51
43
207
51
43
207
51
43
207
51
43
207
51
43
207
51
43
207
51
43
207
51
43
207
51
43
207
51
43
207
51
43
207
51
43
207
51
43
207
51
43
207
51
43
207
51
43
207
51
43
207
51
43
207
51
43
207
51
43
207
51
43
207
51
43
207
51
43
207
51
43
207
51
43
207
51
43
207
51
43
207
51
43
207
51
43
207
51
43
207
51
43
207
51
43
207
51
43
207
51
43
207
51
43
207
51
43
207
51
43
207
51
43
207
51
43
207
51
43
207
51
43
207
51
43
207
51
43
207
51
43
207
51
43
207
51
43
207
51
43
207
51
43
207
51
43
207
51
43
207
51
43
207
51
43
207
51
43
207
51
43
207
51
43
207
51
43
207
51
43
207
51
43
207
51
43
207
51
43
207
51
43
207
51
43
207
51
43
207
51
43
207
51
43
207
51
43
207
51
43
207
51
43
207
51
43
207
51
43
207
51
43
207
51
43
207
51
43
207
51
43
207
51
43
207
51
43
207
51
43
207
51
43
207
51
43
207
51
43
207
51
43
207
51
43
207
51
43
207
51
43
207
51
43
207
51
43
207
51
43
207
51
43
207
51
43
207
51
43
207
51
43
207
51
43
207
51
43
207
51
43
207
51
43
207
51
43
207
51
43
207
51
43
207
51
43
207
51
43
207
51
43
207
51
43
207
51
43
207
51
43
207
51
43
207
51
43
207
51
43
207
51
43
207
51
43
207
51
43
207
51
43
207
51
43
207
51
43
207
51
43
207
51
43
207
51
43
207
51
43
207
51
43
207
51
43
207
51
43
207
51
43
207
51
43
207
51
43
207
51
43
207
51
43
207
51
43
207
51
43
207
51
43
207
51
43
207
51
43
207
51
43
207
51
43
207
51
43
207
51
43
207
51
43
207
51
43
207
51
43
207
51
43
207
51
43
207
51
43
207
51
43
207
51
43
207
51
43
207
51
43
207
51
43
207
51
43
207
51
43
207
51
43
207
51
43
207
51
43
207
51
43
207
51
43
207
51
43
207
51
43
207
51
43
207
51
43
207
51
43
207
51
43
207
51
43
207
51
43
207
51
43
207
51
43
207
51
43
207
51
43
207
51
43
207
51
43
207
51
43
207
51
43
207
51
43
207
51
43
207
51
43
207
51
43
207
51
43
207
51
43
207
51
43
207
51
43
207
51
43
207
51
43
207
51
43
207
51
43
207
51
43
207
51
43
207
51
43
207
51
43
207
51
43
207
51
43
207
51
43
207
51
43
207
51
43
207
51
43
207
51
43
207
51
43
207
51
43
207
51
43
207
51
43
207
51
43
207
51
43
207
51
43
207
51
43
207
51
43
207
51
43
207
51
43
207
51
43
207
51
43
207
51
43
207
51
43
207
51
43
207
51
43
207
51
43
207
51
43
207
51
43
207
51
43
207
51
43
207
51
43
207
51
43
207
51
43
207
51
43
207
51
43
207
51
43
207
51
43
207
51
43
207
51
43
207
51
43
207
51
43
207
51
43
207
51
43
207
51
43
207
51
43
207
51
43
207
51
43
207
51
43
207
51
43
207
51
43
207
51
43
207
51
43
207
51
43
207
51
43
207
51
43
207
51
43
207
51
43
207
51
43
207
51
43
207
51
43
207
51
43
207
51
43
207
51
43
207
51
43
207
51
43
207
51
43
207
51
43
207
51
43
207
51
43
207
51
43
207
51
43
207
51
43
207
51
43
207
51
43
207
51
43
207
51
43
207
51
43
207
51
43
207
51
43
207
51
43
207
51
43
207
51
43
207
51
43
207
51
43
207
51
43
207
51
43
207
51
43
207
51
43
207
51
43
207
51
43
207
51
43
207
51
43
207
51
43
207
51
43
207
51
43
207
51
43
207
51
43
207
51
43
207
51
43
207
51
43
207
51
43
207
51
43
207
51
43
207
51
43
207
51
43
207
51
43
207
51
43
207
51
43
207
51
43
207
51
43
207
51
43
207
51
43
207
51
43
207
51
43
207
51
43
207
51
43
207
51
43
207
51
43
207
51
43
207
51
43
207
51
43
207
51
43
207
51
43
207
51
43
207
51
43
207
51
43
207
51
43
207
51
43
207
51
43
207
51
43
207
51
43
207
51
43
207
51
43
207
51
43
207
51
43
207
51
43
207
51
43
207
51
43
207
51
43
207
51
43
207
51
43
207
51
43
207
51
43
207
51
43
207
51
43
207
51
43
207
51
43
207
51
43
207
51
43
207
51
43
207
51
43
207
51
43
207
51
43
207
51
43
207
51
43
207
51
43
207
51
43
207
51
43
207
51
43
207
51
43
207
51
43
207
51
43
207
51
43
207
51
43
207
51
43
207
51
43
207
51
43
207
51
43
207
51
43
207
51
43
207
51
43
207
51
43
207
51
43
207
51
43
207
51
43
207
51
43
207
51
43
207
51
43
207
51
43
207
51
43
207
51
43
207
51
43
207
51
43
207
51
43
207
51
43
207
51
43
207
51
43
207
51
43
207
51
43
207
51
43
207
51
43
207
51
43
207
51
43
207
51
43
207
51
43
207
51
43
207
51
43
207
51
43
207
51
43
207
51
43
207
51
43
207
51
43
207
51
43
207
51
43
207
51
43
207
51
43
207
51
43
207
51
43
207
51
43
207
51
43
207
51
43
207
51
43
207
51
43
207
51
43
207
51
43
207
51
43
207
51
43
207
51
43
207
51
43
207
51
43
207
51
43
207
51
43
207
51
43
207
51
43
207
51
43
207
51
43
207
51
43
207
51
43
207
51
43
207
51
43
207
51
43
207
51
43
207
51
43
207
51
43
207
51
43
207
51
43
207
51
43
207
51
43
207
51
43
207
51
43
207
51
43
207
51
43
207
51
43
207
51
43
207
51
43
207
51
43
207
51
43
207
51
43
207
51
43
207
51
43
207
51
43
207
51
43
207
51
43
207
51
43
207
51
43
207
51
43
207
51
43
207
51
43
207
51
43
207
51
43
207
51
43
207
51
43
207
51
43
207
51
43
207
51
43
207
51
43
207
51
43
207
51
43
207
51
43
207
51
43
207
51
43
207
51
43
207
51
43
207
51
43
207
51
43
207
51
43
207
51
43
207
51
43
207
51
43
207
51
43
207
51
43
207
51
43
207
51
43
207
51
43
207
51
43
207
51
43
207
51
43
207
51
43
207
51
43
207
51
43
207
51
43
207
51
43
207
51
43
207
51
43
207
51
43
207
51
43
207
51
43
207
51
43
207
51
43
207
51
43
207
51
43
207
51
43
207
51
43
207
51
43
207
51
43
207
51
43
207
51
43
207
51
43
207
51
43
207
51
43
207
51
43
207
51
43
207
51
43
207
51
43
207
51
43
207
51
43
207
51
43
207
51
43
207
51
43
207
51
43
207
51
43
207
51
43
207
51
43
207
51
43
207
51
43
207
51
43
207
51
43
207
51
43
207
51
43
207
51
43
207
51
43
207
51
43
207
51
43
207
51
43
207
51
43
207
51
43
207
51
43
207
51
43
207
51
43
207
51
43
207
51
43
207
51
43
207
51
43
207
51
43
207
51
43
207
51
43
207
51
43
207
51
43
207
51
43
207
51
43
207
51
43
207
51
43
207
51
43
207
51
43
207
51
43
207
51
43
207
51
43
207
51
43
207
51
43
207
51
43
207
51
43
207
51
43
207
51
43
207
51
43
207
51
43
207
51
43
207
51
43
207
51
43
207
51
43
207
51
43
207
51
43
207
51
43
207
51
43
207
51
43
207
51
43
207
51
43
207
51
43
207
51
43
207
51
43
207
51
43
207
51
43
207
51
43
207
51
43
207
51
43
207
51
43
207
51
43
207
51
43
207
51
43
207
51
43
207
51
43
207
51
43
207
51
43
207
51
43
207
51
43
207
51
43
207
51
43
207
51
43
207
51
43
207
51
43
207
51
43
207
51
43
207
51
43
207
51
43
207
51
43
207
51
43
207
51
43
207
51
43
207
51
43
207
51
43
207
51
43
207
51
43
207
51
43
207
51
43
207
51
43
207
51
43
207
51
43
207
51
43
207
51
43
207
51
43
207
51
43
207
51
43
207
51
43
207
51
43
207
51
43
207
51
43
207
51
43
207
51
43
207
51
43
207
51
43
207
51
43
207
51
43
207
51
43
207
51
43
207
51
43
207
51
43
207
51
43
207
51
43
207
51
43
207
51
43
207
51
43
207
51
43
207
51
43
207
51
43
207
51
43
207
51
43
207
51
43
207
51
43
207
51
43
207
51
43
207
51
43
207
51
43
207
51
43
207
51
43
207
51
43
207
51
43
207
51
43
207
51
43
207
51
43
207
51
43
207
51
43
207
51
43
207
51
43
207
51
43
207
51
43
207
51
43
207
51
43
207
51
43
207
51
43
207
51
43
207
51
43
207
51
43
207
51
43
207
51
43
207
51
43
207
51
43
207
51
43
207
51
43
207
51
43
207
51
43
207
51
43
207
51
43
207
51
43
207
51
43
207
51
43
207
51
43
207
51
43
207
51
43
207
51
43
207
51
43
207
51
43
207
51
43
207
51
43
207
51
43
207
51
43
207
51
43
207
51
43
207
51
43
207
51
43
207
51
43
207
51
43
207
51
43
207
51
43
207
51
43
207
51
43
207
51
43
207
51
43
207
51
43
207
51
43
207
51
43
207
51
43
207
51
43
207
51
43
207
51
43
207
51
43
207
51
43
207
51
43
207
51
43
207
51
43
207
51
43
207
51
43
207
51
43
207
51
43
207
51
43
207
51
43
207
51
43
207
51
43
207
51
43
207
51
43
207
51
43
207
51
43
207
51
43
207
51
43
207
51
43
207
51
43
207
51
43
207
51
43
207
51
43
207
51
43
207
51
43
207
51
43
207
51
43
207
51
43
207
51
43
207
51
43
207
51
43
207
51
43
207
51
43
207
51
43
207
51
43
207
51
43
207
51
43
207
51
43
207
51
43
207
51
43
207
51
43
207
51
43
207
51
43
207
51
43
207
51
43
207
51
43
207
51
43
207
51
43
207
51
43
207
51
43
207
51
43
207
51
43
207
51
43
207
51
43
207
51
43
207
51
43
207
51
43
207
51
43
207
51
43
207
51
43
207
51
43
207
51
43
207
51
43
207
51
43
207
51
43
207
51
43
207
51
43
207
51
43
207
51
43
207
51
43
207
51
43
207
51
43
207
51
43
207
51
43
207
51
43
207
51
43
207
51
43
207
51
43
207
51
43
207
51
43
207
51
43
207
51
43
207
51
43
207
51
43
207
51
43
207
51
43
207
51
43
207
51
43
207
51
43
207
51
43
207
51
43
207
51
43
207
51
43
207
51
43
207
51
43
207
51
43
207
51
43
207
51
43
207
51
43
207
51
43
207
51
43
207
51
43
207
51
43
207
51
43
207
51
43
207
51
43
207
51
43
207
51
43
207
51
43
207
51
43
207
51
43
207
51
43
207
51
43
207
51
43
207
51
43
207
51
43
207
51
43
207
51
43
207
51
43
207
51
43
207
51
43
207
51
43
207
51
43
207
51
43
207
51
43
207
51
43
207
51
43
207
51
43
207
51
43
207
51
43
207
51
43
207
51
43
207
51
43
207
51
43
207
51
43
207
51
43
207
51
43
207
51
43
207
51
43
207
51
43
207
51
43
207
51
43
207
51
43
207
51
43
207
51
43
207
51
43
207
51
43
207
51
43
207
51
43
207
51
43
207
51
43
207
51
43
207
51
43
207
51
43
207
51
43
207
51
43
207
51
43
207
51
43
207
51
43
207
51
43
207
51
43
207
51
43
207
51
43
207
51
43
207
51
43
207
51
43
207
51
43
207
51
43
207
51
43
207
51
43
207
51
43
207
51
43
207
51
43
207
51
43
207
51
43
207
51
43
207
51
43
207
51
43
207
51
43
207
51
43
207
51
43
207
51
43
207
51
43
207
51
43
207
51
43
207
51
43
207
51
43
207
51
43
207
51
43
207
51
43
207
51
43
207
51
43
207
51
43
207
51
43
207
51
43
207
51
43
207
51
43
207
51
43
207
51
43
207
51
43
207
51
43
207
51
43
207
51
43
207
51
43
207
51
43
207
51
43
207
51
43
207
51
43
207
51
43
207
51
43
207
51
43
207
51
43
207
51
43
207
51
43
207
51
43
207
51
43
207
51
43
207
51
43
207
51
43
207
51
43
207
51
43
207
51
43
207
51
43
207
51
43
207
51
43
207
51
43
207
51
43
207
51
43
207
51
43
207
51
43
207
51
43
207
51
43
207
51
43
207
51
43
207
51
43
207
51
43
207
51
43
207
51
43
207
51
43
207
51
43
207
51
43
207
51
43
207
51
43
207
51
43
207
51
43
207
51
43
207
51
43
207
51
43
207
51
43
207
51
43
207
51
43
207
51
43
207
51
43
207
51
43
207
51
43
207
51
43
207
51
43
207
51
43
207
51
43
207
51
43
207
51
43
207
51
43
207
51
43
207
51
43
207
51
43
207
51
43
207
51
43
207
51
43
207
51
43
207
51
43
207
51
43
207
51
43
207
51
43
207
51
43
207
51
43
207
51
43
207
51
43
207
51
43
207
51
43
207
51
43
207
51
43
207
51
43
207
51
43
207
51
43
207
51
43
207
51
43
207
51
43
207
51
43
207
51
43
207
51
43
207
51
43
207
51
43
207
51
43
207
51
43
207
51
43
207
51
43
207
51
43
207
51
43
207
51
43
207
51
43
207
51
43
207
51
43
207
51
43
207
51
43
207
51
43
207
51
43
207
51
43
207
51
43
207
51
43
207
51
43
207
51
43
207
51
43
207
51
43
207
51
43
207
51
43
207
51
43
207
51
43
207
51
43
207
51
43
207
51
43
207
51
43
207
51
43
207
51
43
207
51
43
207
51
43
207
51
43
207
51
43
207
51
43
207
51
43
207
51
43
207
51
43
207
51
43
207
51
43
207
51
43
207
51
43
207
51
43
207
51
43
207
51
43
207
51
43
207
51
43
207
51
43
207
51
43
207
51
43
207
51
43
207
51
43
207
51
43
207
51
43
207
51
43
207
51
43
207
51
43
207
51
43
207
51
43
207
51
43
207
51
43
207
51
43
207
51
43
207
51
43
207
51
43
207
51
43
207
51
43
207
51
43
207
51
43
207
51
43
207
51
43
207
51
43
207
51
43
207
51
43
207
51
43
207
51
43
207
51
43
207
51
43
207
51
43
207
51
43
207
51
43
207
51
43
207
51
43
207
51
43
207
51
43
207
51
43
207
51
43
207
51
43
207
51
43
207
51
43
207
51
43
207
51
43
207
51
43
207
51
43
207
51
43
207
51
43
207
51
43
207
51
43
207
51
43
207
51
43
207
51
43
207
51
43
207
51
43
207
51
43
207
51
43
207
51
43
207
51
43
207
51
43
207
51
43
207
51
43
207
51
43
207
51
43
207
51
43
207
51
43
207
51
43
207
51
43
207
51
43
207
51
43
207
51
43
207
51
43
207
51
43
207
51
43
207
51
43
207
51
43
207
51
43
207
51
43
207
51
43
207
51
43
207
51
43
207
51
43
207
51
43
207
51
43
207
51
43
207
51
43
207
51
43
207
51
43
207
51
43
207
51
43
207
51
43
207
51
43
207
51
43
207
51
43
207
51
43
207
51
43
207
51
43
207
51
43
207
51
43
207
51
43
207
51
43
207
51
43
207
51
43
207
51
43
207
51
43
207
51
43
207
51
43
207
51
43
207
51
43
207
51
43
207
51
43
207
51
43
207
51
43
207
51
43
207
51
43
207
51
43
207
51
43
207
51
43
207
51
43
207
51
43
207
51
43
207
51
43
207
51
43
207
51
43
207
51
43
207
51
43
207
51
43
207
51
43
207
51
43
207
51
43
207
51
43
207
51
43
207
51
43
207
51
43
207
51
43
207
51
43
207
51
43
207
51
43
207
51
43
207
51
43
207
51
43
207
51
43
207
51
43
207
51
43
207
51
43
207
51
43
207
51
43
207
51
43
207
51
43
207
51
43
207
51
43
207
51
43
207
51
43
207
51
43
207
51
43
207
51
43
207
51
43
207
51
43
207
51
43
207
51
43
207
51
43
207
51
43
207
51
43
207
51
43
207
51
43
207
51
43
207
51
43
207
51
43
207
51
43
207
51
43
207
51
43
207
51
43
207
51
43
207
51
43
207
51
43
207
51
43
207
51
43
207
51
43
207
51
43
207
51
43
207
51
43
207
51
43
207
51
43
207
51
43
207
51
43
207
51
43
207
51
43
207
51
43
207
51
43
207
51
43
207
51
43
207
51
43
207
51
43
207
51
43
207
51
43
207
51
43
207
51
43
207
51
43
207
51
43
207
51
43
207
51
43
207
51
43
207
51
43
207
51
43
207
51
43
207
51
43
207
51
43
207
51
43
207
51
43
207
51
43
207
51
43
207
51
43
207
51
43
207
51
43
207
51
43
207
51
43
207
51
43
207
51
43
207
51
43
207
51
43
207
51
43
207
51
43
207
51
43
207
51
43
207
51
43
207
51
43
207
51
43
207
51
43
207
51
43
207
51
43
207
51
43
207
51
43
207
51
43
207
51
43
207
51
43
207
51
43
207
51
43
207
51
43
207
51
43
207
51
43
207
51
43
207
51
43
207
51
43
207
51
43
207
51
43
207
51
43
207
51
43
207
51
43
207
51
43
207
51
43
207
51
43
207
51
43
207
51
43
207
51
43
207
51
43
207
51
43
207
51
43
207
51
43
207
51
43
207
51
43
207
51
43
207
51
43
207
51
43
207
51
43
207
51
43
207
51
43
207
51
43
207
51
43
207
51
43
207
51
43
207
51
43
207
51
43
207
51
43
207
51
43
207
51
43
207
51
43
207
51
43
207
51
43
207
51
43
207
51
43
207
51
43
207
51
43
207
51
43
207
51
43
207
51
43
207
51
43
207
51
43
207
51
43
207
51
43
207
51
43
207
51
43
207
51
43
207
51
43
207
51
43
207
51
43
207
51
43
207
51
43
207
51
43
207
51
43
207
51
43
207
51
43
207
51
43
207
51
43
207
51
43
207
51
43
207
51
43
207
51
43
207
51
43
207
51
43
207
51
43
207
51
43
207
51
43
207
51
43
207
51
43
207
51
43
207
51
43
207
51
43
207
51
43
207
51
43
207
51
43
207
51
43
207
51
43
207
51
43
207
51
43
207
51
43
207
51
43
207
51
43
207
51
43
207
51
43
207
51
43
207
51
43
207
51
43
207
51
43
207
51
43
207
51
43
207
51
43
207
51
43
207
51
43
207
51
43
207
51
43
207
51
43
207
51
43
207
51
43
207
51
43
207
51
43
207
51
43
207
51
43
207
51
43
207
51
43
207
51
43
207
51
43
207
51
43
207
51
43
207
51
43
207
51
43
207
51
43
207
51
43
207
51
43
207
51
43
207
51
43
207
51
43
207
51
43
207
51
43
207
51
43
207
51
43
207
51
43
207
51
43
207
51
43
207
51
43
207
51
43
207
51
43
207
51
43
207
51
43
207
51
43
207
51
43
207
51
43
207
51
43
207
51
43
207
51
43
207
51
43
207
51
43
207
51
43
207
51
43
207
51
43
207
51
43
207
51
43
207
51
43
207
51
43
207
51
43
207
51
43
207
51
43
207
51
43
207
51
43
207
51
43
207
51
43
207
51
43
207
51
43
207
51
43
207
51
43
207
51
43
207
51
43
207
51
43
207
51
43
207
51
43
207
51
43
207
51
43
207
51
43
207
51
43
207
51
43
207
51
43
207
51
43
207
51
43
207
51
43
207
51
43
207
51
43
207
51
43
207
51
43
207
51
43
207
51
43
207
51
43
207
51
43
207
51
43
207
51
43
207
51
43
207
51
43
207
51
43
207
51
43
207
51
43
207
51
43
207
51
43
207
51
43
207
51
43
207
51
43
207
51
43
207
51
43
207
51
43
207
51
43
207
51
43
207
51
43
207
51
43
207
51
43
207
51
43
207
51
43
207
51
43
207
51
43
207
51
43
207
51
43
207
51
43
207
51
43
207
51
43
207
51
43
207
51
43
207
51
43
207
51
43
207
51
43
207
51
43
207
51
43
207
51
43
207
51
43
207
51
43
207
51
43
207
51
43
207
51
43
207
51
43
207
51
43
207
51
43
207
51
43
207
51
43
207
51
43
207
51
43
207
51
43
207
51
43
207
51
43
207
51
43
207
51
43
207
51
43
207
51
43
207
51
43
207
51
43
207
51
43
207
51
43
207
51
43
207
51
43
207
51
43
207
51
43
207
51
43
207
51
43
207
51
43
207
51
43
207
51
43
207
51
43
207
51
43
207
51
43
207
51
43
207
51
43
207
51
43
207
51
43
207
51
43
207
51
43
207
51
43
207
51
43
207
51
43
207
51
43
207
51
43
207
51
43
207
51
43
207
51
43
207
51
43
207
51
43
207
51
43
207
51
43
207
51
43
207
51
43
207
51
43
207
51
43
207
51
43
207
51
43
207
51
43
207
51
43
207
51
43
207
51
43
207
51
43
207
51
43
207
51
43
207
51
43
207
51
43
207
51
43
207
51
43
207
51
43
207
51
43
207
51
43
207
51
43
207
51
43
207
51
43
207
51
43
207
51
43
207
51
43
207
51
43
207
51
43
207
51
43
207
51
43
207
51
43
207
51
43
207
51
43
207
51
43
207
51
43
207
51
43
207
51
43
207
51
43
207
51
43
207
51
43
207
51
43
207
51
43
207
51
43
207
51
43
207
51
43
207
51
43
207
51
43
207
51
43
207
51
43
207
51
43
207
51
43
207
51
43
207
51
43
207
51
43
207
51
43
207
51
43
207
51
43
207
51
43
207
51
43
207
51
43
207
51
43
207
51
43
207
51
43
207
51
43
207
51
43
207
51
43
207
51
43
207
51
43
207
51
43
207
51
43
207
51
43
207
51
43
207
51
43
207
51
43
207
51
43
207
51
43
207
51
43
207
51
43
207
51
43
207
51
43
207
51
43
207
51
43
207
51
43
207
51
43
207
51
43
207
51
43
207
51
43
207
51
43
207
51
43
207
51
43
207
51
43
207
51
43
207
51
43
207
51
43
207
51
43
207
51
43
207
51
43
207
51
43
207
51
43
207
51
43
207
51
43
207
51
43
207
51
43
207
51
43
207
51
43
207
51
43
207
51
43
207
51
43
207
51
43
207
51
43
207
51
43
207
51
43
207
51
43
207
51
43
207
51
43
207
51
43
207
51
43
207
51
43
207
51
43
207
51
43
207
51
43
207
51
43
207
51
43
207
51
43
207
51
43
207
51
43
207
51
43
207
51
43
207
51
43
207
51
43
207
51
43
207
51
43
207
51
43
207
51
43
207
51
43
207
51
43
207
51
43
207
51
43
207
51
43
207
51
43
207
51
43
207
51
43
207
51
43
207
51
43
207
51
43
207
51
43
207
51
43
207
51
43
207
51
43
207
51
43
207
51
43
207
51
43
207
51
43
207
51
43
207
51
43
207
51
43
207
51
43
207
51
43
207
51
43
207
51
43
207
51
43
207
51
43
207
51
43
207
51
43
207
51
43
207
51
43
207
51
43
207
51
43
207
51
43
207
51
43
207
51
43
207
51
43
207
51
43
207
51
43
207
51
43
207
51
43
207
51
43
207
51
43
207
51
43
207
51
43
207
51
43
207
51
43
207
51
43
207
51
43
207
51
43
207
51
43
207
51
43
207
51
43
207
51
43
207
51
43
207
51
43
207
51
43
207
51
43
207
51
43
207
51
43
207
51
43
207
51
43
207
51
43
207
51
43
207
51
43
207
51
43
207
51
43
207
51
43
207
51
43
207
51
43
207
51
43
207
51
43
207
51
43
207
51
43
207
51
43
207
51
43
207
51
43
207
51
43
207
51
43
207
51
43
207
51
43
207
51
43
207
51
43
207
51
43
207
51
43
207
51
43
207
51
43
207
51
43
207
51
43
207
51
43
207
51
43
207
51
43
207
51
43
207
51
43
207
51
43
207
51
43
207
51
43
207
51
43
207
51
43
207
51
43
207
51
43
207
51
43
207
51
43
207
51
43
207
51
43
207
51
43
207
51
43
207
51
43
207
51
43
207
51
43
207
51
43
207
51
43
207
51
43
207
51
43
207
51
43
207
51
43
207
51
43
207
51
43
207
51
43
207
51
43
207
51
43
207
51
43
207
51
43
207
51
43
207
51
43
207
51
43
207
51
43
207
51
43
207
51
43
207
51
43
207
51
43
207
51
43
207
51
43
207
51
43
207
51
43
207
51
43
207
51
43
207
51
43
207
51
43
207
51
43
207
51
43
207
51
43
207
51
43
207
51
43
207
51
43
207
51
43
207
51
43
207
51
43
207
51
43
207
51
43
207
51
43
207
51
43
207
51
43
207
51
43
207
51
43
207
51
43
207
51
43
207
51
43
207
51
43
207
51
43
207
51
43
207
51
43
207
51
43
207
51
43
207
51
43
207
51
43
207
51
43
207
51
43
207
51
43
207
51
43
207
51
43
207
51
43
207
51
43
207
51
43
207
51
43
207
51
43
207
51
43
207
51
43
207
51
43
207
51
43
207
51
43
207
51
43
207
51
43
207
51
43
207
51
43
207
51
43
207
51
43
207
51
43
207
51
43
207
51
43
207
51
43
207
51
43
207
51
43
207
51
43
207
51
43
207
51
43
207
51
43
207
51
43
207
51
43
207
51
43
207
51
43
207
51
43
207
51
43
207
51
43
207
51
43
207
51
43
207
51
43
207
51
43
207
51
43
207
51
43
207
51
43
207
51
43
207
51
43
207
51
43
207
51
43
207
51
43
207
51
43
207
51
43
207
51
43
207
51
43
207
51
43
207
51
43
207
51
43
207
51
43
207
51
43
207
51
43
207
51
43
207
51
43
207
51
43
207
51
43
207
51
43
207
51
43
207
51
43
207
51
43
207
51
43
207
51
43
207
51
43
207
51
43
207
51
43
207
51
43
207
51
43
207
51
43
207
51
43
207
51
43
207
51
43
207
51
43
207
51
43
207
51
43
207
51
43
207
51
43
207
51
43
207
51
43
207
51
43
207
51
43
207
51
43
207
51
43
207
51
43
207
51
43
207
51
43
207
51
43
207
51
43
207
51
43
207
51
43
207
51
43
207
51
43
207
51
43
207
51
43
207
51
43
207
51
43
207
51
43
207
51
43
207
51
43
207
51
43
207
51
43
207
51
43
207
51
43
207
51
43
207
51
43
207
51
43
207
51
43
207
51
43
207
51
43
207
51
43
207
51
43
207
51
43
207
51
43
207
51
43
207
51
43
207
51
43
207
51
43
207
51
43
207
51
43
207
51
43
207
51
43
207
51
43
207
51
43
207
51
43
207
51
43
207
51
43
207
51
43
207
51
43
207
51
43
207
51
43
207
51
43
207
51
43
207
51
43
207
51
43
207
51
43
207
51
43
207
51
43
207
51
43
207
51
43
207
51
43
207
51
43
207
51
43
207
51
43
207
51
43
207
51
43
207
51
43
207
51
43
207
51
43
207
51
43
207
51
43
207
51
43
207
51
43
207
51
43
207
51
43
207
51
43
207
51
43
207
51
43
207
51
43
207
51
43
207
51
43
207
51
43
207
51
43
207
51
43
207
51
43
207
51
43
207
51
43
207
51
43
207
51
43
207
51
43
207
51
43
207
51
43
207
51
43
207
51
43
207
51
43
207
51
43
207
51
43
207
51
43
207
51
43
207
51
43
207
51
43
207
51
43
207
51
43
207
51
43
207
51
43
207
51
43
207
51
43
207
51
43
207
51
43
207
51
43
207
51
43
207
51
43
207
51
43
207
51
43
207
51
43
207
51
43
207
51
43
207
51
43
207
51
43
207
51
43
207
51
43
207
51
43
207
51
43
207
51
43
207
51
43
207
51
43
207
51
43
207
51
43
207
51
43
207
51
43
207
51
43
207
51
43
207
51
43
207
51
43
207
51
43
207
51
43
207
51
43
207
51
43
207
51
43
207
51
43
207
51
43
207
51
43
207
51
43
207
51
43
207
51
43
207
51
43
207
51
43
207
51
43
207
51
43
207
51
43
207
51
43
207
51
43
207
51
43
207
51
43
207
51
43
207
51
43
207
51
43
207
51
43
207
51
43
207
51
43
207
51
43
207
51
43
207
51
43
207
51
43
207
51
43
207
51
43
207
51
43
207
51
43
207
51
43
207
51
43
207
51
43
207
51
43
207
51
43
207
51
43
207
51
43
207
51
43
207
51
43
207
51
43
207
51
43
207
51
43
207
51
43
207
51
43
207
51
43
207
51
43
207
51
43
207
51
43
207
51
43
207
51
43
207
51
43
207
51
43
207
51
43
207
51
43
207
51
43
207
51
43
207
51
43
207
51
43
207
51
43
207
51
43
207
51
43
207
51
43
207
51
43
207
51
43
207
51
43
207
51
43
207
51
43
207
51
43
207
51
43
207
51
43
207
51
43
207
51
43
207
51
43
207
51
43
207
51
43
207
51
43
207
51
43
207
51
43
207
51
43
207
51
43
207
51
43
207
51
43
207
51
43
207
51
43
207
51
43
207
51
43
207
51
43
207
51
43
207
51
43
207
51
43
207
51
43
207
51
43
207
51
43
207
51
43
207
51
43
207
51
43
207
51
43
207
51
43
207
51
43
207
51
43
207
51
43
207
51
43
207
51
43
207
51
43
207
51
43
207
51
43
207
51
43
207
51
43
207
51
43
207
51
43
207
51
43
207
51
43
207
51
43
207
51
43
207
51
43
207
51
43
207
51
43
207
51
43
207
51
43
207
51
43
207
51
43
207
51
43
207
51
43
207
51
43
207
51
43
207
51
43
207
51
43
207
51
43
207
51
43
207
51
43
207
51
43
207
51
43
207
51
43
207
51
43
207
51
43
207
51
43
207
51
43
207
51
43
207
51
43
207
51
43
207
51
43
207
51
43
207
51
43
207
51
43
207
51
43
207
51
43
207
51
43
207
51
43
207
51
43
207
51
43
207
51
43
207
51
43
207
51
43
207
51
43
207
51
43
207
51
43
207
51
43
207
51
43
207
51
43
207
51
43
207
51
43
207
51
43
207
51
43
207
51
43
207
51
43
207
51
43
207
51
43
207
51
43
207
51
43
207
51
43
207
51
43
207
51
43
207
51
43
207
51
43
207
51
43
207
51
43
207
51
43
207
51
43
207
51
43
207
51
43
207
51
43
207
51
43
207
51
43
207
51
43
207
51
43
207
51
43
207
51
43
207
51
43
207
51
43
207
51
43
207
51
43
207
51
43
207
51
43
207
51
43
207
51
43
207
51
43
207
51
43
207
51
43
207
51
43
207
51
43
207
51
43
207
51
43
207
51
43
207
51
43
207
51
43
207
51
43
207
51
43
207
51
43
207
51
43
207
51
43
207
51
43
207
51
43
207
51
43
207
51
43
207
51
43
207
51
43
207
51
43
207
51
43
207
51
43
207
51
43
207
51
43
207
51
43
207
51
43
207
51
43
207
51
43
207
51
43
207
51
43
207
51
43
207
51
43
207
51
43
207
51
43
207
51
43
207
51
43
207
51
43
207
51
43
207
51
43
207
51
43
207
51
43
207
51
43
207
51
43
207
51
43
207
51
43
207
51
43
207
51
43
207
51
43
207
51
43
207
51
43
207
51
43
207
51
43
207
51
43
207
51
43
207
51
43
207
51
43
207
51
43
207
51
43
207
51
43
207
51
43
207
51
43
207
51
43
207
51
43
207
51
43
207
51
43
207
51
43
207
51
43
207
51
43
207
51
43
207
51
43
207
51
43
207
51
43
207
51
43
207
51
43
207
51
43
207
51
43
207
51
43
207
51
43
207
51
43
207
51
43
207
51
43
207
51
43
207
51
43
207
51
43
207
51
43
207
51
43
207
51
43
207
51
43
207
51
43
207
51
43
207
51
43
207
51
43
207
51
43
207
51
43
207
51
43
207
51
43
207
51
43
207
51
43
207
51
43
207
51
43
207
51
43
207
51
43
207
51
43
207
51
43
207
51
43
207
51
43
207
51
43
207
51
43
207
51
43
207
51
43
207
51
43
207
51
43
207
51
43
207
51
43
207
51
43
207
51
43
207
51
43
207
51
43
207
51
43
207
51
43
207
51
43
207
51
43
207
51
43
207
51
43
207
51
43
207
51
43
207
51
43
207
51
43
207
51
43
207
51
43
207
51
43
207
51
43
207
51
43
207
51
43
207
51
43
207
51
43
207
51
43
207
51
43
207
51
43
207
51
43
207
51
43
207
51
43
207
51
43
207
51
43
207
51
43
207
51
43
207
51
43
207
51
43
207
51
43
207
51
43
207
51
43
207
51
43
207
51
43
207
51
43
207
51
43
207
51
43
207
51
43
207
51
43
207
51
43
207
51
43
207
51
43
207
51
43
207
51
43
207
51
43
207
51
43
207
51
43
207
51
43
207
51
43
207
51
43
207
51
43
207
51
43
207
51
43
207
51
43
207
51
43
207
51
43
207
51
43
207
51
43
207
51
43
207
51
43
207
51
43
207
51
43
207
51
43
207
51
43
207
51
43
207
51
43
207
51
43
207
51
43
207
51
43
207
51
43
207
51
43
207
51
43
207
51
43
207
51
43
207
51
43
207
51
43
207
51
43
207
51
43
207
51
43
207
51
43
207
51
43
207
51
43
207
51
43
207
51
43
207
51
43
207
51
43
207
51
43
207
51
43
207
51
43
207
51
43
207
51
43
207
51
43
207
51
43
207
51
43
207
51
43
207
51
43
207
51
43
207
51
43
207
51
43
207
51
43
207
51
43
207
51
43
207
51
43
207
51
43
207
51
43
207
51
43
207
51
43
207
51
43
207
51
43
207
51
43
207
51
43
207
51
43
207
51
43
207
51
43
207
51
43
207
51
43
207
51
43
207
51
43
207
51
43
207
51
43
207
51
43
207
51
43
207
51
43
207
51
43
207
51
43
207
51
43
207
51
43
207
51
43
207
51
43
207
51
43
207
51
43
207
51
43
207
51
43
207
51
43
207
51
43
207
51
43
207
51
43
207
51
43
207
51
43
207
51
43
207
51
43
207
51
43
207
51
43
207
51
43
207
51
43
207
51
43
207
51
43
207
51
43
207
51
43
207
51
43
207
51
43
207
51
43
207
51
43
207
51
43
207
51
43
207
51
43
207
51
43
207
51
43
207
51
43
207
51
43
207
51
43
207
51
43
207
51
43
207
51
43
207
51
43
207
51
43
207
51
43
207
51
43
207
51
43
207
51
43
207
51
43
207
51
43
207
51
43
207
51
43
207
51
43
207
51
43
207
51
43
207
51
43
207
51
43
207
51
43
207
51
43
207
51
43
207
51
43
207
51
43
207
51
43
207
51
43
207
51
43
207
51
43
207
51
43
207
51
43
207
51
43
207
51
43
207
51
43
207
51
43
207
51
43
207
51
43
207
51
43
207
51
43
207
51
43
207
51
43
207
51
43
207
51
43
207
51
43
207
51
43
207
51
43
207
51
43
207
51
43
207
51
43
207
51
43
207
51
43
207
51
43
207
51
43
207
51
43
207
51
43
207
51
43
207
51
43
207
51
43
207
51
43
207
51
43
207
51
43
207
51
43
207
51
43
207
51
43
207
51
43
207
51
43
207
51
43
207
51
43
207
51
43
207
51
43
207
51
43
207
51
43
207
51
43
207
51
43
207
51
43
207
51
43
207
51
43
207
51
43
207
51
43
207
51
43
207
51
43
207
51
43
207
51
43
207
51
43
207
51
43
207
51
43
207
51
43
207
51
43
207
51
43
207
51
43
207
51
43
207
51
43
207
51
43
207
51
43
207
51
43
207
51
43
207
51
43
207
51
43
207
51
43
207
51
43
207
51
43
207
51
43
207
51
43
207
51
43
207
51
43
207
51
43
207
51
43
207
51
43
207
51
43
207
51
43
207
51
43
207
51
43
207
51
43
207
51
43
207
51
43
207
51
43
207
51
43
207
51
43
207
51
43
207
51
43
207
51
43
207
51
43
207
51
43
207
51
43
207
51
43
207
51
43
207
51
43
207
51
43
207
51
43
207
51
43
207
51
43
207
51
43
207
51
43
207
51
43
207
51
43
207
51
43
207
51
43
207
51
43
207
51
43
207
51
43
207
51
43
207
51
43
207
51
43
207
51
43
207
51
43
207
51
43
207
51
43
207
51
43
207
51
43
207
51
43
207
51
43
207
51
43
207
51
43
207
51
43
207
51
43
207
51
43
207
51
43
207
51
43
207
51
43
207
51
43
207
51
43
207
51
43
207
51
43
207
51
43
207
51
43
207
51
43
207
51
43
207
51
43
207
51
43
207
51
43
207
51
43
207
51
43
207
51
43
207
51
43
207
51
43
207
51
43
207
51
43
207
51
43
207
51
43
207
51
43
207
51
43
207
51
43
207
51
43
207
51
43
207
51
43
207
51
43
207
51
43
207
51
43
207
51
43
207
51
43
207
51
43
207
51
43
207
51
43
207
51
43
207
51
43
207
51
43
207
51
43
207
51
43
207
51
43
207
51
43
207
51
43
207
51
43
207
51
43
207
51
43
207
51
43
207
51
43
207
51
43
207
51
43
207
51
43
207
51
43
207
51
43
207
51
43
207
51
43
207
51
43
207
51
43
207
51
43
207
51
43
207
51
43
207
51
43
207
51
43
207
51
43
207
51
43
207
51
43
207
51
43
207
51
43
207
51
43
207
51
43
207
51
43
207
51
43
207
51
43
207
51
43
207
51
43
207
51
43
207
51
43
207
51
43
207
51
43
207
51
43
207
51
43
207
51
43
207
51
43
207
51
43
207
51
43
207
51
43
207
51
43
207
51
43
207
51
43
207
51
43
207
51
43
207
51
43
207
51
43
207
51
43
207
51
43
207
51
43
207
51
43
207
51
43
207
51
43
207
51
43
207
51
43
207
51
43
207
51
43
207
51
43
207
51
43
207
51
43
207
51
43
207
51
43
207
51
43
207
51
43
207
51
43
207
51
43
207
51
43
207
51
43
207
51
43
207
51
43
207
51
43
207
51
43
207
51
43
207
51
43
207
51
43
207
51
43
207
51
43
207
51
43
207
51
43
207
51
43
207
51
43
207
51
43
207
51
43
207
51
43
207
51
43
207
51
43
207
51
43
207
51
43
207
51
43
207
51
43
207
51
43
207
51
43
207
51
43
207
51
43
207
51
43
207
51
43
207
51
43
207
51
43
207
51
43
207
51
43
207
51
43
207
51
43
207
51
43
207
51
43
207
51
43
207
51
43
207
51
43
207
51
43
207
51
43
207
51
43
207
51
43
207
51
43
207
51
43
207
51
43
207
51
43
207
51
43
207
51
43
207
51
43
207
51
43
207
51
43
207
51
43
207
51
43
207
51
43
207
51
43
207
51
43
207
51
43
207
51
43
207
51
43
207
51
43
207
51
43
207
51
43
207
51
43
207
51
43
207
51
43
207
51
43
207
51
43
207
51
43
207
51
43
207
51
43
207
51
43
207
51
43
207
51
43
207
51
43
207
51
43
207
51
43
207
51
43
207
51
43
207
51
43
207
51
43
207
51
43
207
51
43
207
51
43
207
51
43
207
51
43
207
51
43
207
51
43
207
51
43
207
51
43
207
51
43
207
51
43
207
51
43
207
51
43
207
51
43
207
51
43
207
51
43
207
51
43
207
51
43
207
51
43
207
51
43
207
51
43
207
51
43
207
51
43
207
51
43
207
51
43
207
51
43
207
51
43
207
51
43
207
51
43
207
51
43
207
51
43
207
51
43
207
51
43
207
51
43
207
51
43
207
51
43
207
51
43
207
51
43
207
51
43
207
51
43
207
51
43
207
51
43
207
51
43
207
51
43
207
51
43
207
51
43
207
51
43
207
51
43
207
51
43
207
51
43
207
51
43
207
51
43
207
51
43
207
51
43
207
51
43
207
51
43
207
51
43
207
51
43
207
51
43
207
51
43
207
51
43
207
51
43
207
51
43
207
51
43
207
51
43
207
51
43
207
51
43
207
51
43
207
51
43
207
51
43
207
51
43
207
51
43
207
51
43
207
51
43
207
51
43
207
51
43
207
51
43
207
51
43
207
51
43
207
51
43
207
51
43
207
51
43
207
51
43
207
51
43
207
51
43
207
51
43
207
51
43
207
51
43
207
51
43
207
51
43
207
51
43
207
51
43
207
51
43
207
51
43
207
51
43
207
51
43
207
51
43
207
51
43
207
51
43
207
51
43
207
51
43
207
51
43
207
51
43
207
51
43
207
51
43
207
51
43
207
51
43
207
51
43
207
51
43
207
51
43
207
51
43
207
51
43
207
51
43
207
51
43
207
51
43
207
51
43
207
51
43
207
51
43
207
51
43
207
51
43
207
51
43
207
51
43
207
51
43
207
51
43
207
51
43
207
51
43
207
51
43
207
51
43
207
51
43
207
51
43
207
51
43
207
51
43
207
51
43
207
51
43
207
51
43
207
51
43
207
51
43
207
51
43
207
51
43
207
51
43
207
51
43
207
51
43
207
51
43
207
51
43
207
51
43
207
51
43
207
51
43
207
51
43
207
51
43
207
51
43
207
51
43
207
51
43
207
51
43
207
51
43
207
51
43
207
51
43
207
51
43
207
51
43
207
51
43
207
51
43
207
51
43
207
51
43
207
51
43
207
51
43
207
51
43
207
51
43
207
51
43
207
51
43
207
51
43
207
51
43
207
51
43
207
51
43
207
51
43
207
51
43
207
51
43
207
51
43
207
51
43
207
51
43
207
51
43
207
51
43
207
51
43
207
51
43
207
51
43
207
51
43
207
51
43
207
51
43
207
51
43
207
51
43
207
51
43
207
51
43
207
51
43
207
51
43
207
51
43
207
51
43
207
51
43
207
51
43
207
51
43
207
51
43
207
51
43
207
51
43
207
51
43
207
51
43
207
51
43
207
51
43
207
51
43
207
51
43
207
51
43
207
51
43
207
51
43
207
51
43
207
51
43
207
51
43
207
51
43
207
51
43
207
51
43
207
51
43
207
51
43
207
51
43
207
51
43
207
51
43
207
51
43
207
51
43
207
51
43
207
51
43
207
51
43
207
51
43
207
51
43
207
51
43
207
51
43
207
51
43
207
51
43
207
51
43
207
51
43
207
51
43
207
51
43
207
51
43
207
51
43
207
51
43
207
51
43
207
51
43
207
51
43
207
51
43
207
51
43
207
51
43
207
51
43
207
51
43
207
51
43
207
51
43
207
51
43
207
51
43
207
51
43
207
51
43
207
51
43
207
51
43
207
51
43
207
51
43
207
51
43
207
51
43
207
51
43
207
51
43
207
51
43
207
51
43
207
51
43
207
51
43
207
51
43
207
51
43
207
51
43
207
51
43
207
51
43
207
51
43
207
51
43
207
51
43
207
51
43
207
51
43
207
51
43
207
51
43
207
51
43
207
51
43
207
51
43
207
51
43
207
51
43
207
51
43
207
51
43
207
51
43
207
51
43
207
51
43
207
51
43
207
51
43
207
51
43
207
51
43
207
51
43
207
51
43
207
51
43
207
51
43
207
51
43
207
51
43
207
51
43
207
51
43
207
51
43
207
51
43
207
51
43
207
51
43
207
51
43
207
51
43
207
51
43
207
51
43
207
51
43
207
51
43
207
51
43
207
51
43
207
51
43
207
51
43
207
51
43
207
51
43
207
51
43
207
51
43
207
51
43
207
51
43
207
51
43
207
51
43
207
51
43
207
51
43
207
51
43
207
51
43
207
51
43
207
51
43
207
51
43
207
51
43
207
51
43
207
51
43
207
51
43
207
51
43
207
51
43
207
51
43
207
51
43
207
51
43
207
51
43
207
51
43
207
51
43
207
51
43
207
51
43
207
51
43
207
51
43
207
51
43
207
51
43
207
51
43
207
51
43
207
51
43
207
51
43
207
51
43
207
51
43
207
51
43
207
51
43
207
51
43
207
51
43
207
51
43
207
51
43
207
51
43
207
51
43
207
51
43
207
51
43
207
51
43
207
51
43
207
51
43
207
51
43
207
51
43
207
51
43
207
51
43
207
51
43
207
51
43
207
51
43
207
51
43
207
51
43
207
51
43
207
51
43
207
51
43
207
51
43
207
51
43
207
51
43
207
51
43
207
51
43
207
51
43
207
51
43
207
51
43
207
51
43
207
51
43
207
51
43
207
51
43
207
51
43
207
51
43
207
51
43
207
51
43
207
51
43
207
51
43
207
51
43
207
51
43
207
51
43
207
51
43
207
51
43
207
51
43
207
51
43
207
51
43
207
51
43
207
51
43
207
51
43
207
51
43
207
51
43
207
51
43
207
51
43
207
51
43
207
51
43
207
51
43
207
51
43
207
51
43
207
51
43
207
51
43
207
51
43
207
51
43
207
51
43
207
51
43
207
51
43
207
51
43
207
51
43
207
51
43
207
51
43
207
51
43
207
51
43
207
51
43
207
51
43
207
51
43
207
51
43
207
51
43
207
51
43
207
51
43
207
51
43
207
51
43
207
51
43
207
51
43
207
51
43
207
51
43
207
51
43
207
51
43
207
51
43
207
51
43
207
51
43
207
51
43
207
51
43
207
51
43
207
51
43
207
51
43
207
51
43
207
51
43
207
51
43
207
51
43
207
51
43
207
51
43
207
51
43
207
51
43
207
51
43
207
51
43
207
51
43
207
51
43
207
51
43
207
51
43
207
51
43
207
51
43
207
51
43
207
51
43
207
51
43
207
51
43
207
51
43
207
51
43
207
51
43
207
51
43
207
51
43
207
51
43
207
51
43
207
51
43
207
51
43
207
51
43
207
51
43
207
51
43
207
51
43
207
51
43
207
51
43
207
51
43
207
51
43
207
51
43
207
51
43
207
51
43
207
51
43
207
51
43
207
51
43
207
51
43
207
51
43
207
51
43
207
51
43
207
51
43
207
51
43
207
51
43
207
51
43
207
51
43
207
51
43
207
51
43
207
51
43
207
51
43
207
51
43
207
51
43
207
51
43
207
51
43
207
51
43
207
51
43
207
51
43
207
51
43
207
51
43
207
51
43
207
51
43
207
51
43
207
51
43
207
51
43
207
51
43
207
51
43
207
51
43
207
51
43
207
51
43
207
51
43
207
51
43
207
51
43
207
51
43
207
51
43
207
51
43
207
51
43
207
51
43
207
51
43
207
51
43
207
51
43
207
51
43
207
51
43
207
51
43
207
51
43
207
51
43
207
51
43
207
51
43
207
51
43
207
51
43
207
51
43
207
51
43
207
51
43
207
51
43
207
51
43
207
51
43
207
51
43
207
51
43
207
51
43
207
51
43
207
51
43
207
51
43
207
51
43
207
51
43
207
51
43
207
51
43
207
51
43
207
51
43
207
51
43
207
51
43
207
51
43
207
51
43
207
51
43
207
51
43
207
51
43
207
51
43
207
51
43
207
51
43
207
51
43
207
51
43
207
51
43
207
51
43
207
51
43
207
51
43
207
51
43
207
51
43
207
51
43
207
51
43
207
51
43
207
51
43
207
51
43
207
51
43
207
51
43
207
51
43
207
51
43
207
51
43
207
51
43
207
51
43
207
51
43
207
51
43
207
51
43
207
51
43
207
51
43
207
51
43
207
51
43
207
51
43
207
51
43
207
51
43
207
51
43
207
51
43
207
51
43
207
51
43
207
51
43
207
51
43
207
51
43
207
51
43
207
51
43
207
51
43
207
51
43
207
51
43
207
51
43
207
51
43
207
51
43
207
51
43
207
51
43
207
51
43
207
51
43
207
51
43
207
51
43
207
51
43
207
51
43
207
51
43
207
51
43
207
51
43
207
51
43
207
51
43
207
51
43
207
51
43
207
51
43
207
51
43
207
51
43
207
51
43
207
51
43
207
51
43
207
51
43
207
51
43
207
51
43
207
51
43
207
51
43
207
51
43
207
51
43
207
51
43
207
51
43
207
51
43
207
51
43
207
51
43
207
51
43
207
51
43
207
51
43
207
51
43
207
51
43
207
51
43
207
51
43
207
51
43
207
51
43
207
51
43
207
51
43
207
51
43
207
51
43
207
51
43
207
51
43
207
51
43
207
51
43
207
51
43
207
51
43
207
51
43
207
51
43
207
51
43
207
51
43
207
51
43
207
51
43
207
51
43
207
51
43
207
51
43
207
51
43
207
51
43
207
51
43
207
51
43
207
51
43
207
51
43
207
51
43
207
51
43
207
51
43
207
51
43
207
51
43
207
51
43
207
51
43
207
51
43
207
51
43
207
51
43
207
51
43
207
51
43
207
51
43
207
51
43
207
51
43
207
51
43
207
51
43
207
51
43
207
51
43
207
51
43
207
51
43
207
51
43
207
51
43
207
51
43
207
51
43
207
51
43
207
51
43
207
51
43
207
51
43
207
51
43
207
51
43
207
51
43
207
51
43
207
51
43
207
51
43
207
51
43
207
51
43
207
51
43
207
51
43
207
51
43
207
51
43
207
51
43
207
51
43
207
51
43
207
51
43
207
51
43
207
51
43
207
51
43
207
51
43
207
51
43
207
51
43
207
51
43
207
51
43
207
51
43
207
51
43
207
51
43
207
51
43
207
51
43
207
51
43
207
51
43
207
51
43
207
51
43
207
51
43
207
51
43
207
51
43
207
51
43
207
51
43
207
51
43
207
51
43
207
51
43
207
51
43
207
51
43
207
51
43
207
51
43
207
51
43
207
51
43
207
51
43
207
51
43
207
51
43
207
51
43
207
51
43
207
51
43
207
51
43
207
51
43
207
51
43
207
51
43
207
51
43
207
51
43
207
51
43
207
51
43
207
51
43
207
51
43
207
51
43
207
51
43
207
51
43
207
51
43
207
51
43
207
51
43
207
51
43
207
51
43
207
51
43
207
51
43
207
51
43
207
51
43
207
51
43
207
51
43
207
51
43
207
51
43
207
51
43
207
51
43
207
51
43
207
51
43
207
51
43
207
51
43
207
51
43
207
51
43
207
51
43
207
51
43
207
51
43
207
51
43
207
51
43
207
51
43
207
51
43
207
51
43
207
51
43
207
51
43
207
51
43
207
51
43
207
51
43
207
51
43
207
51
43
207
51
43
207
51
43
207
51
43
207
51
43
207
51
43
207
51
43
207
51
43
207
51
43
207
51
43
207
51
43
207
51
43
207
51
43
207
51
43
207
51
43
207
51
43
207
51
43
207
51
43
207
51
43
207
51
43
207
51
43
207
51
43
207
51
43
207
51
43
207
51
43
207
51
43
207
51
43
207
51
43
207
51
43
207
51
43
207
51
43
207
51
43
207
51
43
207
51
43
207
51
43
207
51
43
207
51
43
207
51
43
207
51
43
207
51
43
207
51
43
207
51
43
207
51
43
207
51
43
207
51
43
207
51
43
207
51
43
207
51
43
207
51
43
207
51
43
207
51
43
207
51
43
207
51
43
207
51
43
207
51
43
207
51
43
207
51
43
207
51
43
207
51
43
207
51
43
207
51
43
207
51
43
207
51
43
207
51
43
207
51
43
207
51
43
207
51
43
207
51
43
207
51
43
207
51
43
207
51
43
207
51
43
207
51
43
207
51
43
207
51
43
207
51
43
207
51
43
207
51
43
207
51
43
207
51
43
207
51
43
207
51
43
207
51
43
207
51
43
207
51
43
207
51
43
207
51
43
207
51
43
207
51
43
207
51
43
207
51
43
207
51
43
207
51
43
207
51
43
207
51
43
207
51
43
207
51
43
207
51
43
207
51
43
207
51
43
207
51
43
207
51
43
207
51
43
207
51
43
207
51
43
207
51
43
207
51
43
207
51
43
207
51
43
207
51
43
207
51
43
207
51
43
207
51
43
207
51
43
207
51
43
207
51
43
207
51
43
207
51
43
207
51
43
207
51
43
207
51
43
207
51
43
207
51
43
207
51
43
207
51
43
207
51
43
207
51
43
207
51
43
207
51
43
207
51
43
207
51
43
207
51
43
207
51
43
207
51
43
207
51
43
207
51
43
207
51
43
207
51
43
207
51
43
207
51
43
207
51
43
207
51
43
207
51
43
207
51
43
207
51
43
207
51
43
207
51
43
207
51
43
207
51
43
207
51
43
207
51
43
207
51
43
207
51
43
207
51
43
207
51
43
207
51
43
207
51
43
207
51
43
207
51
43
207
51
43
207
51
43
207
51
43
207
51
43
207
51
43
207
51
43
207
51
43
207
51
43
207
51
43
207
51
43
207
51
43
207
51
43
207
51
43
207
51
43
207
51
43
207
51
43
207
51
43
207
51
43
207
51
43
207
51
43
207
51
43
207
51
43
207
51
43
207
51
43
207
51
43
207
51
43
207
51
43
207
51
43
207
51
43
207
51
43
207
51
43
207
51
43
207
51
43
207
51
43
207
51
43
207
51
43
207
51
43
207
51
43
207
51
43
207
51
43
207
51
43
207
51
43
207
51
43
207
51
43
207
51
43
207
51
43
207
51
43
207
51
43
207
51
43
207
51
43
207
51
43
207
51
43
207
51
43
207
51
43
207
51
43
207
51
43
207
51
43
207
51
43
207
51
43
207
51
43
207
51
43
207
51
43
207
51
43
207
51
43
207
51
43
207
51
43
207
51
43
207
51
43
207
51
43
207
51
43
207
51
43
207
51
43
207
51
43
207
51
43
207
51
43
207
51
43
207
51
43
207
51
43
207
51
43
207
51
43
207
51
43
207
51
43
207
51
43
207
51
43
207
51
43
207
51
43
207
51
43
207
51
43
207
51
43
207
51
43
207
51
43
207
51
43
207
51
43
207
51
43
207
51
43
207
51
43
207
51
43
207
51
43
207
51
43
207
51
43
207
51
43
207
51
43
207
51
43
207
51
43
207
51
43
207
51
43
207
51
43
207
51
43
207
51
43
207
51
43
207
51
43
207
51
43
207
51
43
207
51
43
207
51
43
207
51
43
207
51
43
207
51
43
207
51
43
207
51
43
207
51
43
207
51
43
207
51
43
207
51
43
207
51
43
207
51
43
207
51
43
207
51
43
207
51
43
207
51
43
207
51
43
207
51
43
207
51
43
207
51
43
207
51
43
207
51
43
207
51
43
207
51
43
207
51
43
207
51
43
207
51
43
207
51
43
207
51
43
207
51
43
207
51
43
207
51
43
207
51
43
207
51
43
207
51
43
207
51
43
207
51
43
207
51
43
207
51
43
207
51
43
207
51
43
207
51
43
207
51
43
207
51
43
207
51
43
207
51
43
207
51
43
207
51
43
207
51
43
207
51
43
207
51
43
207
51
43
207
51
43
207
51
43
207
51
43
207
51
43
207
51
43
207
51
43
207
51
43
207
51
43
207
51
43
207
51
43
207
51
43
207
51
43
207
51
43
207
51
43
207
51
43
207
51
43
207
51
43
207
51
43
207
51
43
207
51
43
207
51
43
207
51
43
207
51
43
207
51
43
207
51
43
207
51
43
207
51
43
207
51
43
207
51
43
207
51
43
207
51
43
207
51
43
207
51
43
207
51
43
207
51
43
207
51
43
207
51
43
207
51
43
207
51
43
207
51
43
207
51
43
207
51
43
207
51
43
207
51
43
207
51
43
207
51
43
207
51
43
207
51
43
207
51
43
207
51
43
207
51
43
207
51
43
207
51
43
207
51
43
207
51
43
207
51
43
207
51
43
207
51
43
207
51
43
207
51
43
207
51
43
207
51
43
207
51
43
207
51
43
207
51
43
207
51
43
207
51
43
207
51
43
207
51
43
207
51
43
207
51
43
207
51
43
207
51
43
207
51
43
207
51
43
207
51
43
207
51
43
207
51
43
207
51
43
207
51
43
207
51
43
207
51
43
207
51
43
207
51
43
207
51
43
207
51
43
207
51
43
207
51
43
207
51
43
207
51
43
207
51
43
207
51
43
207
51
43
207
51
43
207
51
43
207
51
43
207
51
43
207
51
43
207
51
43
207
51
43
207
51
43
207
51
43
207
51
43
207
51
43
207
51
43
207
51
43
207
51
43
207
51
43
207
51
43
207
51
43
207
51
43
207
51
43
207
51
43
207
51
43
207
51
43
207
51
43
207
51
43
207
51
43
207
51
43
207
51
43
207
51
43
207
51
43
207
51
43
207
51
43
207
51
43
207
51
43
207
51
43
207
51
43
207
51
43
207
51
43
207
51
43
207
51
43
207
51
43
207
51
43
207
51
43
207
51
43
207
51
43
207
51
43
207
51
43
207
51
43
207
51
43
207
51
43
207
51
43
207
51
43
207
51
43
207
51
43
207
51
43
207
51
43
207
51
43
207
51
43
207
51
43
207
51
43
207
51
43
207
51
43
207
51
43
207
51
43
207
51
43
207
51
43
207
51
43
207
51
43
207
51
43
207
51
43
207
51
43
207
51
43
207
51
43
207
51
43
207
51
43
207
51
43
207
51
43
207
51
43
207
51
43
207
51
43
207
51
43
207
51
43
207
51
43
207
51
43
207
51
43
207
51
43
207
51
43
207
51
43
207
51
43
207
51
43
207
51
43
207
51
43
207
51
43
207
51
43
207
51
43
207
51
43
207
51
43
207
51
43
207
51
43
207
51
43
207
51
43
207
51
43
207
51
43
207
51
43
207
51
43
207
51
43
207
51
43
207
51
43
207
51
43
207
51
43
207
51
43
207
51
43
207
51
43
207
51
43
207
51
43
207
51
43
207
51
43
207
51
43
207
51
43
207
51
43
207
51
43
207
51
43
207
51
43
207
51
43
207
51
43
207
51
43
207
51
43
207
51
43
207
51
43
207
51
43
207
51
43
207
51
43
207
51
43
207
51
43
207
51
43
207
51
43
207
51
43
207
51
43
207
51
43
207
51
43
207
51
43
207
51
43
207
51
43
207
51
43
207
51
43
207
51
43
207
51
43
207
51
43
207
51
43
207
51
43
207
51
43
207
51
43
207
51
43
207
51
43
207
51
43
207
51
43
207
51
43
207
51
43
207
51
43
207
51
43
207
51
43
207
51
43
207
51
43
207
51
43
207
51
43
207
51
43
207
51
43
207
51
43
207
51
43
207
51
43
207
51
43
207
51
43
207
51
43
207
51
43
207
51
43
207
51
43
207
51
43
207
51
43
207
51
43
207
51
43
207
51
43
207
51
43
207
51
43
207
51
43
207
51
43
207
51
43
207
51
43
207
51
43
207
51
43
207
51
43
207
51
43
207
51
43
207
51
43
207
51
43
207
51
43
207
51
43
207
51
43
207
51
43
207
51
43
207
51
43
207
51
43
207
51
43
207
51
43
207
51
43
207
51
43
207
51
43
207
51
43
207
51
43
207
51
43
207
51
43
207
51
43
207
51
43
207
51
43
207
51
43
207
51
43
207
51
43
207
51
43
207
51
43
207
51
43
207
51
43
207
51
43
207
51
43
207
51
43
207
51
43
207
51
43
207
51
43
207
51
43
207
51
43
207
51
43
207
51
43
207
51
43
207
51
43
207
51
43
207
51
43
207
51
43
207
51
43
207
51
43
207
51
43
207
51
43
207
51
43
207
51
43
207
51
43
207
51
43
207
51
43
207
51
43
207
51
43
207
51
43
207
51
43
207
51
43
207
51
43
207
51
43
207
51
43
207
51
43
207
51
43
207
51
43
207
51
43
207
51
43
207
51
43
207
51
43
207
51
43
207
51
43
207
51
43
207
51
43
207
51
43
207
51
43
207
51
43
207
51
43
207
51
43
207
51
43
207
51
43
207
51
43
207
51
43
207
51
43
207
51
43
207
51
43
207
51
43
207
51
43
207
51
43
207
51
43
207
51
43
207
51
43
207
51
43
207
51
43
207
51
43
207
51
43
207
51
43
207
51
43
207
51
43
207
51
43
207
51
43
207
51
43
207
51
43
207
51
43
207
51
43
207
51
43
207
51
43
207
51
43
207
51
43
207
51
43
207
51
43
207
51
43
207
51
43
207
51
43
207
51
43
207
51
43
207
51
43
207
51
43
207
51
43
207
51
43
207
51
43
207
51
43
207
51
43
207
51
43
207
51
43
207
51
43
207
51
43
207
51
43
207
51
43
207
51
43
207
51
43
207
51
43
207
51
43
207
51
43
207
51
43
207
51
43
207
51
43
207
51
43
207
51
43
207
51
43
207
51
43
207
51
43
207
51
43
207
51
43
207
51
43
207
51
43
207
51
43
207
51
43
207
51
43
207
51
43
207
51
43
207
51
43
207
51
43
207
51
43
207
51
43
207
51
43
207
51
43
207
51
43
207
51
43
207
51
43
207
51
43
207
51
43
207
51
43
207
51
43
207
51
43
207
51
43
207
51
43
207
51
43
207
51
43
207
51
43
207
51
43
207
51
43
207
51
43
207
51
43
207
51
43
207
51
43
207
51
43
207
51
43
207
51
43
207
51
43
207
51
43
207
51
43
207
51
43
207
51
43
207
51
43
207
51
43
207
51
43
207
51
43
207
51
43
207
51
43
207
51
43
207
51
43
207
51
43
207
51
43
207
51
43
207
51
43
207
51
43
207
51
43
207
51
43
207
51
43
207
51
43
207
51
43
207
51
43
207
51
43
207
51
43
207
51
43
207
51
43
207
51
43
207
51
43
207
51
43
207
51
43
207
51
43
207
51
43
207
51
43
207
51
43
207
51
43
207
51
43
207
51
43
207
51
43
207
51
43
207
51
43
207
51
43
207
51
43
207
51
43
207
51
43
207
51
43
207
51
43
207
51
43
207
51
43
207
51
43
207
51
43
207
51
43
207
51
43
207
51
43
207
51
43
207
51
43
207
51
43
207
51
43
207
51
43
207
51
43
207
51
43
207
51
43
207
51
43
207
51
43
207
51
43
207
51
43
207
51
43
207
51
43
207
51
43
207
51
43
207
51
43
207
51
43
207
51
43
207
51
43
207
51
43
207
51
43
207
51
43
207
51
43
207
51
43
207
51
43
207
51
43
207
51
43
207
51
43
207
51
43
207
51
43
207
51
43
207
51
43
207
51
43
207
51
43
207
51
43
207
51
43
207
51
43
207
51
43
207
51
43
207
51
43
207
51
43
207
51
43
207
51
43
207
51
43
207
51
43
207
51
43
207
51
43
207
51
43
207
51
43
207
51
43
207
51
43
207
51
43
207
51
43
207
51
43
207
51
43
207
51
43
207
51
43
207
51
43
207
51
43
207
51
43
207
51
43
207
51
43
207
51
43
207
51
43
207
51
43
207
51
43
207
51
43
207
51
43
207
51
43
207
51
43
207
51
43
207
51
43
207
51
43
207
51
43
207
51
43
207
51
43
207
51
43
207
51
43
207
51
43
207
51
43
207
51
43
207
51
43
207
51
43
207
51
43
207
51
43
207
51
43
207
51
43
207
51
43
207
51
43
207
51
43
207
51
43
207
51
43
207
51
43
207
51
43
207
51
43
207
51
43
207
51
43
207
51
43
207
51
43
207
51
43
207
51
43
207
51
43
207
51
43
207
51
43
207
51
43
207
51
43
207
51
43
207
51
43
207
51
43
207
51
43
207
51
43
207
51
43
207
51
43
207
51
43
207
51
43
207
51
43
207
51
43
207
51
43
207
51
43
207
51
43
207
51
43
207
51
43
207
51
43
207
51
43
207
51
43
207
51
43
207
51
43
207
51
43
207
51
43
207
51
43
207
51
43
207
51
43
207
51
43
207
51
43
207
51
43
207
51
43
207
51
43
207
51
43
207
51
43
207
51
43
207
51
43
207
51
43
207
51
43
207
51
43
207
51
43
207
51
43
207
51
43
207
51
43
207
51
43
207
51
43
207
51
43
207
51
43
207
51
43
207
51
43
207
51
43
207
51
43
207
51
43
207
51
43
207
51
43
207
51
43
207
51
43
207
51
43
207
51
43
207
51
43
207
51
43
207
51
43
207
51
43
207
51
43
207
51
43
207
51
43
207
51
43
207
51
43
207
51
43
207
51
43
207
51
43
207
51
43
207
51
43
207
51
43
207
51
43
207
51
43
207
51
43
207
51
43
207
51
43
207
51
43
207
51
43
207
51
43
207
51
43
207
51
43
207
51
43
207
51
43
207
51
43
207
51
43
207
51
43
207
51
43
207
51
43
207
51
43
207
51
43
207
51
43
207
51
43
207
51
43
207
51
43
207
51
43
207
51
43
207
51
43
207
51
43
207
51
43
207
51
43
207
51
43
207
51
43
207
51
43
207
51
43
207
51
43
207
51
43
207
51
43
207
51
43
207
51
43
207
51
43
207
51
43
207
51
43
207
51
43
207
51
43
207
51
43
207
51
43
207
51
43
207
51
43
207
51
43
207
51
43
207
51
43
207
51
43
207
51
43
207
51
43
207
51
43
207
51
43
207
51
43
207
51
43
207
51
43
207
51
43
207
51
43
207
51
43
207
51
43
207
51
43
207
51
43
207
51
43
207
51
43
207
51
43
207
51
43
207
51
43
207
51
43
207
51
43
207
51
43
207
51
43
207
51
43
207
51
43
207
51
43
207
51
43
207
51
43
207
51
43
207
51
43
207
51
43
207
51
43
207
51
43
207
51
43
207
51
43
207
51
43
207
51
43
207
51
43
207
51
43
207
51
43
207
51
43
207
51
43
207
51
43
207
51
43
207
51
43
207
51
43
207
51
43
207
51
43
207
51
43
207
51
43
207
51
43
207
51
43
207
51
43
207
51
43
207
51
43
207
51
43
207
51
43
207
51
43
207
51
43
207
51
43
207
51
43
207
51
43
207
51
43
207
51
43
207
51
43
207
51
43
207
51
43
207
51
43
207
51
43
207
51
43
207
51
43
207
51
43
207
51
43
207
51
43
207
51
43
207
51
43
207
51
43
207
51
43
207
51
43
207
51
43
207
51
43
207
51
43
207
51
43
207
51
43
207
51
43
207
51
43
207
51
43
207
51
43
207
51
43
207
51
43
207
51
43
207
51
43
207
51
43
207
51
43
207
51
43
207
51
43
207
51
43
207
51
43
207
51
43
207
51
43
207
51
43
207
51
43
207
51
43
207
51
43
207
51
43
207
51
43
207
51
43
207
51
43
207
51
43
207
51
43
207
51
43
207
51
43
207
51
43
207
51
43
207
51
43
207
51
43
207
51
43
207
51
43
207
51
43
207
51
43
207
51
43
207
51
43
207
51
43
207
51
43
207
51
43
207
51
43
207
51
43
207
51
43
207
51
43
207
51
43
207
51
43
207
51
43
207
51
43
207
51
43
207
51
43
207
51
43
207
51
43
207
51
43
207
51
43
207
51
43
207
51
43
207
51
43
207
51
43
207
51
43
207
51
43
207
51
43
207
51
43
207
51
43
207
51
43
207
51
43
207
51
43
207
51
43
207
51
43
207
51
43
207
51
43
207
51
43
207
51
43
207
51
43
207
51
43
207
51
43
207
51
43
207
51
43
207
51
43
207
51
43
207
51
43
207
51
43
207
51
43
207
51
43
207
51
43
207
51
43
207
51
43
207
51
43
207
51
43
207
51
43
207
51
43
207
51
43
207
51
43
207
51
43
207
51
43
207
51
43
207
51
43
207
51
43
207
51
43
207
51
43
207
51
43
207
51
43
207
51
43
207
51
43
207
51
43
207
51
43
207
51
43
207
51
43
207
51
43
207
51
43
207
51
43
207
51
43
207
51
43
207
51
43
207
51
43
207
51
43
207
51
43
207
51
43
207
51
43
207
51
43
207
51
43
207
51
43
207
51
43
207
51
43
207
51
43
207
51
43
207
51
43
207
51
43
207
51
43
207
51
43
207
51
43
207
51
43
207
51
43
207
51
43
207
51
43
207
51
43
207
51
43
207
51
43
207
51
43
207
51
43
207
51
43
207
51
43
207
51
43
207
51
43
207
51
43
207
51
43
207
51
43
207
51
43
207
51
43
207
51
43
207
51
43
207
51
43
207
51
43
207
51
43
207
51
43
207
51
43
207
51
43
207
51
43
207
51
43
207
51
43
207
51
43
207
51
43
207
51
43
207
51
43
207
51
43
207
51
43
207
51
43
207
51
43
207
51
43
207
51
43
207
51
43
207
51
43
207
51
43
207
51
43
207
51
43
207
51
43
207
51
43
207
51
43
207
51
43
207
51
43
207
51
43
207
51
43
207
51
43
207
51
43
207
51
43
207
51
43
207
51
43
207
51
43
207
51
43
207
51
43
207
51
43
207
51
43
207
51
43
207
51
43
207
51
43
207
51
43
207
51
43
207
51
43
207
51
43
207
51
43
207
51
43
207
51
43
207
51
43
207
51
43
207
51
43
207
51
43
207
51
43
207
51
43
207
51
43
207
51
43
207
51
43
207
51
43
207
51
43
207
51
43
207
51
43
207
51
43
207
51
43
207
51
43
207
51
43
207
51
43
207
51
43
207
51
43
207
51
43
207
51
43
207
51
43
207
51
43
207
51
43
207
51
43
207
51
43
207
51
43
207
51
43
207
51
43
207
51
43
207
51
43
207
51
43
207
51
43
207
51
43
207
51
43
207
51
43
207
51
43
207
51
43
207
51
43
207
51
43
207
51
43
207
51
43
207
51
43
207
51
43
207
51
43
207
51
43
207
51
43
207
51
43
207
51
43
207
51
43
207
51
43
207
51
43
207
51
43
207
51
43
207
51
43
207
51
43
207
51
43
207
51
43
207
51
43
207
51
43
207
51
43
207
51
43
207
51
43
207
51
43
207
51
43
207
51
43
207
51
43
207
51
43
207
51
43
207
51
43
207
51
43
207
51
43
207
51
43
207
51
43
207
51
43
207
51
43
207
51
43
207
51
43
207
51
43
207
51
43
207
51
43
207
51
43
207
51
43
207
51
43
207
51
43
207
51
43
207
51
43
207
51
43
207
51
43
207
51
43
207
51
43
207
51
43
207
51
43
207
51
43
207
51
43
207
51
43
207
51
43
207
51
43
207
51
43
207
51
43
207
51
43
207
51
43
207
51
43
207
51
43
207
51
43
207
51
43
207
51
43
207
51
43
207
51
43
207
51
43
207
51
43
207
51
43
207
51
43
207
51
43
207
51
43
207
51
43
207
51
43
207
51
43
207
51
43
207
51
43
207
51
43
207
51
43
207
51
43
207
51
43
207
51
43
207
51
43
207
51
43
207
51
43
207
51
43
207
51
43
207
51
43
207
51
43
207
51
43
207
51
43
207
51
43
207
51
43
207
51
43
207
51
43
207
51
43
207
51
43
207
51
43
207
51
43
207
51
43
207
51
43
207
51
43
207
51
43
207
51
43
207
51
43
207
51
43
207
51
43
207
51
43
207
51
43
207
51
43
207
51
43
207
51
43
207
51
43
207
51
43
207
51
43
207
51
43
207
51
43
207
51
43
207
51
43
207
51
43
207
51
43
207
51
43
207
51
43
207
51
43
207
51
43
207
51
43
207
51
43
207
51
43
207
51
43
207
51
43
207
51
43
207
51
43
207
51
43
207
51
43
207
51
43
207
51
43
207
51
43
207
51
43
207
51
43
207
51
43
207
51
43
207
51
43
207
51
43
207
51
43
207
51
43
207
51
43
207
51
43
207
51
43
207
51
43
207
51
43
207
51
43
207
51
43
207
51
43
207
51
43
207
51
43
207
51
43
207
51
43
207
51
43
207
51
43
207
51
43
207
51
43
207
51
43
207
51
43
207
51
43
207
51
43
207
51
43
207
51
43
207
51
43
207
51
43
207
51
43
207
51
43
207
51
43
207
51
43
207
51
43
207
51
43
207
51
43
207
51
43
207
51
43
207
51
43
207
51
43
207
51
43
207
51
43
207
51
43
207
51
43
207
51
43
207
51
43
207
51
43
207
51
43
207
51
43
207
51
43
207
51
43
207
51
43
207
51
43
207
51
43
207
51
43
207
51
43
207
51
43
207
51
43
207
51
43
207
51
43
207
51
43
207
51
43
207
51
43
207
51
43
207
51
43
207
51
43
207
51
43
207
51
43
207
51
43
207
51
43
207
51
43
207
51
43
207
51
43
207
51
43
207
51
43
207
51
43
207
51
43
207
51
43
207
51
43
207
51
43
207
51
43
207
51
43
207
51
43
207
51
43
207
51
43
207
51
43
207
51
43
207
51
43
207
51
43
207
51
43
207
51
43
207
51
43
207
51
43
207
51
43
207
51
43
207
51
43
207
51
43
207
51
43
207
51
43
207
51
43
207
51
43
207
51
43
207
51
43
207
51
43
207
51
43
207
51
43
207
51
43
207
51
43
207
51
43
207
51
43
207
51
43
207
51
43
207
51
43
207
51
43
207
51
43
207
51
43
207
51
43
207
51
43
207
51
43
207
51
43
207
51
43
207
51
43
207
51
43
207
51
43
207
51
43
207
51
43
207
51
43
207
51
43
207
51
43
207
51
43
207
51
43
207
51
43
207
51
43
207
51
43
207
51
43
207
51
43
207
51
43
207
51
43
207
51
43
207
51
43
207
51
43
207
51
43
207
51
43
207
51
43
207
51
43
207
51
43
207
51
43
207
51
43
207
51
43
207
51
43
207
51
43
207
51
43
207
51
43
207
51
43
207
51
43
207
51
43
207
51
43
207
51
43
207
51
43
207
51
43
207
51
43
207
51
43
207
51
43
207
51
43
207
51
43
207
51
43
207
51
43
207
51
43
207
51
43
207
51
43
207
51
43
207
51
43
207
51
43
207
51
43
207
51
43
207
51
43
207
51
43
207
51
43
207
51
43
207
51
43
207
51
43
207
51
43
207
51
43
207
51
43
207
51
43
207
51
43
207
51
43
207
51
43
207
51
43
207
51
43
207
51
43
207
51
43
207
51
43
207
51
43
207
51
43
207
51
43
207
51
43
207
51
43
207
51
43
207
51
43
207
51
43
207
51
43
207
51
43
207
51
43
207
51
43
207
51
43
207
51
43
207
51
43
207
51
43
207
51
43
207
51
43
207
51
43
207
51
43
207
51
43
207
51
43
207
51
43
207
51
43
207
51
43
207
51
43
207
51
43
207
51
43
207
51
43
207
51
43
207
51
43
207
51
43
207
51
43
207
51
43
207
51
43
207
51
43
207
51
43
207
51
43
207
51
43
207
51
43
207
51
43
207
51
43
207
51
43
207
51
43
207
51
43
207
51
43
207
51
43
207
51
43
207
51
43
207
51
43
207
51
43
207
51
43
207
51
43
207
51
43
207
51
43
207
51
43
207
51
43
207
51
43
207
51
43
207
51
43
207
51
43
207
51
43
207
51
43
207
51
43
207
51
43
207
51
43
207
51
43
207
51
43
207
51
43
207
51
43
207
51
43
207
51
43
207
51
43
207
51
43
207
51
43
207
51
43
207
51
43
207
51
43
207
51
43
207
51
43
207
51
43
207
51
43
207
51
43
207
51
43
207
51
43
207
51
43
207
51
43
207
51
43
207
51
43
207
51
43
207
51
43
207
51
43
207
51
43
207
51
43
207
51
43
207
51
43
207
51
43
207
51
43
207
51
43
207
51
43
207
51
43
207
51
43
207
51
43
207
51
43
207
51
43
207
51
43
207
51
43
207
51
43
207
51
43
207
51
43
207
51
43
207
51
43
207
51
43
207
51
43
207
51
43
207
51
43
207
51
43
207
51
43
207
51
43
207
51
43
207
51
43
207
51
43
207
51
43
207
51
43
207
51
43
207
51
43
207
51
43
207
51
43
207
51
43
207
51
43
207
51
43
207
51
43
207
51
43
207
51
43
207
51
43
207
51
43
207
51
43
207
51
43
207
51
43
207
51
43
207
51
43
207
51
43
207
51
43
207
51
43
207
51
43
207
51
43
207
51
43
207
51
43
207
51
43
207
51
43
207
51
43
207
51
43
207
51
43
207
51
43
207
51
43
207
51
43
207
51
43
207
51
43
207
51
43
207
51
43
207
51
43
207
51
43
207
51
43
207
51
43
207
51
43
207
51
43
207
51
43
207
51
43
207
51
43
207
51
43
207
51
43
207
51
43
207
51
43
207
51
43
207
51
43
207
51
43
207
51
43
207
51
43
207
51
43
207
51
43
207
51
43
207
51
43
207
51
43
207
51
43
207
51
43
207
51
43
207
51
43
207
51
43
207
51
43
207
51
43
207
51
43
207
51
43
207
51
43
207
51
43
207
51
43
207
51
43
207
51
43
207
51
43
207
51
43
207
51
43
207
51
43
207
51
43
207
51
43
207
51
43
207
51
43
207
51
43
207
51
43
207
51
43
207
51
43
207
51
43
207
51
43
207
51
43
207
51
43
207
51
43
207
51
43
207
51
43
207
51
43
207
51
43
207
51
43
207
51
43
207
51
43
207
51
43
207
51
43
207
51
43
207
51
43
207
51
43
207
51
43
207
51
43
207
51
43
207
51
43
207
51
43
207
51
43
207
51
43
207
51
43
207
51
43
207
51
43
207
51
43
207
51
43
207
51
43
207
51
43
207
51
43
207
51
43
207
51
43
207
51
43
207
51
43
207
51
43
207
51
43
207
51
43
207
51
43
207
51
43
207
51
43
207
51
43
207
51
43
207
51
43
207
51
43
207
51
43
207
51
43
207
51
43
207
51
43
207
51
43
207
51
43
207
51
43
207
51
43
207
51
43
207
51
43
207
51
43
207
51
43
207
51
43
207
51
43
207
51
43
207
51
43
207
51
43
207
51
43
207
51
43
207
51
43
207
51
43
207
51
43
207
51
43
207
51
43
207
51
43
207
51
43
207
51
43
207
51
43
207
51
43
207
51
43
207
51
43
207
51
43
207
51
43
207
51
43
207
51
43
207
51
43
207
51
43
207
51
43
207
51
43
207
51
43
207
51
43
207
51
43
207
51
43
207
51
43
207
51
43
207
51
43
207
51
43
207
51
43
207
51
43
207
51
43
207
51
43
207
51
43
207
51
43
207
51
43
207
51
43
207
51
43
207
51
43
207
51
43
207
51
43
207
51
43
207
51
43
207
51
43
207
51
43
207
51
43
207
51
43
207
51
43
207
51
43
207
51
43
207
51
43
207
51
43
207
51
43
207
51
43
207
51
43
207
51
43
207
51
43
207
51
43
207
51
43
207
51
43
207
51
43
207
51
43
207
51
43
207
51
43
207
51
43
207
51
43
207
51
43
207
51
43
207
51
43
207
51
43
207
51
43
207
51
43
207
51
43
207
51
43
207
51
43
207
51
43
207
51
43
207
51
43
207
51
43
207
51
43
207
51
43
207
51
43
207
51
43
207
51
43
207
51
43
207
51
43
207
51
43
207
51
43
207
51
43
207
51
43
207
51
43
207
51
43
207
51
43
207
51
43
207
51
43
207
51
43
207
51
43
207
51
43
207
51
43
207
51
43
207
51
43
207
51
43
207
51
43
207
51
43
207
51
43
207
51
43
207
51
43
207
51
43
207
51
43
207
51
43
207
51
43
207
51
43
207
51
43
207
51
43
207
51
43
207
51
43
207
51
43
207
51
43
207
51
43
207
51
43
207
51
43
207
51
43
207
51
43
207
51
43
207
51
43
207
51
43
207
51
43
207
51
43
207
51
43
207
51
43
207
51
43
207
51
43
207
51
43
207
51
43
207
51
43
207
51
43
207
51
43
207
51
43
207
51
43
207
51
43
207
51
43
207
51
43
207
51
43
207
51
43
207
51
43
207
51
43
207
51
43
207
51
43
207
51
43
207
51
43
207
51
43
207
51
43
207
51
43
207
51
43
207
51
43
207
51
43
207
51
43
207
51
43
207
51
43
207
51
43
207
51
43
207
51
43
207
51
43
207
51
43
207
51
43
207
51
43
207
51
43
207
51
43
207
51
43
207
51
43
207
51
43
207
51
43
207
51
43
207
51
43
207
51
43
207
51
43
207
51
43
207
51
43
207
51
43
207
51
43
207
51
43
207
51
43
207
51
43
207
51
43
207
51
43
207
51
43
207
51
43
207
51
43
207
51
43
207
51
43
207
51
43
207
51
43
207
51
43
207
51
43
207
51
43
207
51
43
207
51
43
207
51
43
207
51
43
207
51
43
207
51
43
207
51
43
207
51
43
207
51
43
207
51
43
207
51
43
207
51
43
207
51
43
207
51
43
207
51
43
207
51
43
207
51
43
207
51
43
207
51
43
207
51
43
207
51
43
207
51
43
207
51
43
207
51
43
207
51
43
207
51
43
207
51
43
207
51
43
207
51
43
207
51
43
207
51
43
207
51
43
207
51
43
207
51
43
207
51
43
207
51
43
207
51
43
207
51
43
207
51
43
207
51
43
207
51
43
207
51
43
207
51
43
207
51
43
207
51
43
207
51
43
207
51
43
207
51
43
207
51
43
207
51
43
207
51
43
207
51
43
207
51
43
207
51
43
207
51
43
207
51
43
207
51
43
207
51
43
207
51
43
207
51
43
207
51
43
207
51
43
207
51
43
207
51
43
207
51
43
207
51
43
207
51
43
207
51
43
207
51
43
207
51
43
207
51
43
207
51
43
207
51
43
207
51
43
207
51
43
207
51
43
207
51
43
207
51
43
207
51
43
207
51
43
207
51
43
207
51
43
207
51
43
207
51
43
207
51
43
207
51
43
207
51
43
207
51
43
207
51
43
207
51
43
207
51
43
207
51
43
207
51
43
207
51
43
207
51
43
207
51
43
207
51
43
207
51
43
207
51
43
207
51
43
207
51
43
207
51
43
207
51
43
207
51
43
207
51
43
207
51
43
207
51
43
207
51
43
207
51
43
207
51
43
207
51
43
207
51
43
207
51
43
207
51
43
207
51
43
207
51
43
207
51
43
207
51
43
207
51
43
207
51
43
207
51
43
207
51
43
207
51
43
207
51
43
207
51
43
207
51
43
207
51
43
207
51
43
207
51
43
207
51
43
207
51
43
207
51
43
207
51
43
207
51
43
207
51
43
207
51
43
207
51
43
207
51
43
207
51
43
207
51
43
207
51
43
207
51
43
207
51
43
207
51
43
207
51
43
207
51
43
207
51
43
207
51
43
207
51
43
207
51
43
207
51
43
207
51
43
207
51
43
207
51
43
207
51
43
207
51
43
207
51
43
207
51
43
207
51
43
207
51
43
207
51
43
207
51
43
207
51
43
207
51
43
207
51
43
207
51
43
207
51
43
207
51
43
207
51
43
207
51
43
207
51
43
207
51
43
207
51
43
207
51
43
207
51
43
207
51
43
207
51
43
207
51
43
207
51
43
207
51
43
207
51
43
207
51
43
207
51
43
207
51
43
207
51
43
207
51
43
207
51
43
207
51
43
207
51
43
207
51
43
207
51
43
207
51
43
207
51
43
207
51
43
207
51
43
207
51
43
207
51
43
207
51
43
207
51
43
207
51
43
207
51
43
207
51
43
207
51
43
207
51
43
207
51
43
207
51
43
207
51
43
207
51
43
207
51
43
207
51
43
207
51
43
207
51
43
207
51
43
207
51
43
207
51
43
207
51
43
207
51
43
207
51
43
207
51
43
207
51
43
207
51
43
207
51
43
207
51
43
207
51
43
207
51
43
207
51
43
207
51
43
207
51
43
207
51
43
207
51
43
207
51
43
207
51
43
207
51
43
207
51
43
207
51
43
207
51
43
207
51
43
207
51
43
207
51
43
207
51
43
207
51
43
207
51
43
207
51
43
207
51
43
207
51
43
207
51
43
207
51
43
207
51
43
207
51
43
207
51
43
207
51
43
207
51
43
207
51
43
207
51
43
207
51
43
207
51
43
207
51
43
207
51
43
207
51
43
207
51
43
207
51
43
207
51
43
207
51
43
207
51
43
207
51
43
207
51
43
207
51
43
207
51
43
207
51
43
207
51
43
207
51
43
207
51
43
207
51
43
207
51
43
207
51
43
207
51
43
207
51
43
207
51
43
207
51
43
207
51
43
207
51
43
207
51
43
207
51
43
207
51
43
207
51
43
207
51
43
207
51
43
207
51
43
207
51
43
207
51
43
207
51
43
207
51
43
207
51
43
207
51
43
207
51
43
207
51
43
207
51
43
207
51
43
207
51
43
207
51
43
207
51
43
207
51
43
207
51
43
207
51
43
207
51
43
207
51
43
207
51
43
207
51
43
207
51
43
207
51
43
207
51
43
207
51
43
207
51
43
207
51
43
207
51
43
207
51
43
207
51
43
207
51
43
207
51
43
207
51
43
207
51
43
207
51
43
207
51
43
207
51
43
207
51
43
207
51
43
207
51
43
207
51
43
207
51
43
207
51
43
207
51
43
207
51
43
207
51
43
207
51
43
207
51
43
207
51
43
207
51
43
207
51
43
207
51
43
207
51
43
207
51
43
207
51
43
207
51
43
207
51
43
207
51
43
207
51
43
207
51
43
207
51
43
207
51
43
207
51
43
207
51
43
207
51
43
207
51
43
207
51
43
207
51
43
207
51
43
207
51
43
207
51
43
207
51
43
207
51
43
207
51
43
207
51
43
207
51
43
207
51
43
207
51
43
207
51
43
207
51
43
207
51
43
207
51
43
207
51
43
207
51
43
207
51
43
207
51
43
207
51
43
207
51
43
207
51
43
207
51
43
207
51
43
207
51
43
207
51
43
207
51
43
207
51
43
207
51
43
207
51
43
207
51
43
207
51
43
207
51
43
207
51
43
207
51
43
207
51
43
207
51
43
207
51
43
207
51
43
207
51
43
207
51
43
207
51
43
207
51
43
207
51
43
207
51
43
207
51
43
207
51
43
207
51
43
207
51
43
207
51
43
207
51
43
207
51
43
207
51
43
207
51
43
207
51
43
207
51
43
207
51
43
207
51
43
207
51
43
207
51
43
207
51
43
207
51
43
207
51
43
207
51
43
207
51
43
207
51
43
207
51
43
207
51
43
207
51
43
207
51
43
207
51
43
207
51
43
207
51
43
207
51
43
207
51
43
207
51
43
207
51
43
207
51
43
207
51
43
207
51
43
207
51
43
207
51
43
207
51
43
207
51
43
207
51
43
207
51
43
207
51
43
207
51
43
207
51
43
207
51
43
207
51
43
207
51
43
207
51
43
207
51
43
207
51
43
207
51
43
207
51
43
207
51
43
207
51
43
207
51
43
207
51
43
207
51
43
207
51
43
207
51
43
207
51
43
207
51
43
207
51
43
207
51
43
207
51
43
207
51
43
207
51
43
207
51
43
207
51
43
207
51
43
207
51
43
207
51
43
207
51
43
207
51
43
207
51
43
207
51
43
207
51
43
207
51
43
207
51
43
207
51
43
207
51
43
207
51
43
207
51
43
207
51
43
207
51
43
207
51
43
207
51
43
207
51
43
207
51
43
207
51
43
207
51
43
207
51
43
207
51
43
207
51
43
207
51
43
207
51
43
207
51
43
207
51
43
207
51
43
207
51
43
207
51
43
207
51
43
207
51
43
207
51
43
207
51
43
207
51
43
207
51
43
207
51
43
207
51
43
207
51
43
207
51
43
207
51
43
207
51
43
207
51
43
207
51
43
207
51
43
207
51
43
207
51
43
207
51
43
207
51
43
207
51
43
207
51
43
207
51
43
207
51
43
207
51
43
207
51
43
207
51
43
207
51
43
207
51
43
207
51
43
207
51
43
207
51
43
207
51
43
207
51
43
207
51
43
207
51
43
207
51
43
207
51
43
207
51
43
207
51
43
207
51
43
207
51
43
207
51
43
207
51
43
207
51
43
207
51
43
207
51
43
207
51
43
207
51
43
207
51
43
207
51
43
207
51
43
207
51
43
207
51
43
207
51
43
207
51
43
207
51
43
207
51
43
207
51
43
207
51
43
207
51
43
207
51
43
207
51
43
207
51
43
207
51
43
207
51
43
207
51
43
207
51
43
207
51
43
207
51
43
207
51
43
207
51
43
207
51
43
207
51
43
207
51
43
207
51
43
207
51
43
207
51
43
207
51
43
207
51
43
207
51
43
207
51
43
207
51
43
207
51
43
207
51
43
207
51
43
207
51
43
207
51
43
207
51
43
207
51
43
207
51
43
207
51
43
207
51
43
207
51
43
207
51
43
207
51
43
207
51
43
207
51
43
207
51
43
207
51
43
207
51
43
207
51
43
207
51
43
207
51
43
207
51
43
207
51
43
207
51
43
207
51
43
207
51
43
207
51
43
207
51
43
207
51
43
207
51
43
207
51
43
207
51
43
207
51
43
207
51
43
207
51
43
207
51
43
207
51
43
207
51
43
207
51
43
207
51
43
207
51
43
207
51
43
207
51
43
207
51
43
207
51
43
207
51
43
207
51
43
207
51
43
207
51
43
207
51
43
207
51
43
207
51
43
207
51
43
207
51
43
207
51
43
207
51
43
207
51
43
207
51
43
207
51
43
207
51
43
207
51
43
207
51
43
207
51
43
207
51
43
207
51
43
207
51
43
207
51
43
207
51
43
207
51
43
207
51
43
207
51
43
207
51
43
207
51
43
207
51
43
207
51
43
207
51
43
207
51
43
207
51
43
207
51
43
207
51
43
207
51
43
207
51
43
207
51
43
207
51
43
207
51
43
207
51
43
207
51
43
207
51
43
207
51
43
207
51
43
207
51
43
207
51
43
207
51
43
207
51
43
207
51
43
207
51
43
207
51
43
207
51
43
207
51
43
207
51
43
207
51
43
207
51
43
207
51
43
207
51
43
207
51
43
207
51
43
207
51
43
207
51
43
207
51
43
207
51
43
207
51
43
207
51
43
207
51
43
207
51
43
207
51
43
207
51
43
207
51
43
207
51
43
207
51
43
207
51
43
207
51
43
207
51
43
207
51
43
207
51
43
207
51
43
207
51
43
207
51
43
207
51
43
207
51
43
207
51
43
207
51
43
207
51
43
207
51
43
207
51
43
207
51
43
207
51
43
207
51
43
207
51
43
207
51
43
207
51
43
207
51
43
207
51
43
207
51
43
207
51
43
207
51
43
207
51
43
207
51
43
207
51
43
207
51
43
207
51
43
207
51
43
207
51
43
207
51
43
207
51
43
207
51
43
207
51
43
207
51
43
207
51
43
207
51
43
207
51
43
207
51
43
207
51
43
207
51
43
207
51
43
207
51
43
207
51
43
207
51
43
207
51
43
207
51
43
207
51
43
207
51
43
207
51
43
207
51
43
207
51
43
207
51
43
207
51
43
207
51
43
207
51
43
207
51
43
207
51
43
207
51
43
207
51
43
207
51
43
207
51
43
207
51
43
207
51
43
207
51
43
207
51
43
207
51
43
207
51
43
207
51
43
207
51
43
207
51
43
207
51
43
207
51
43
207
51
43
207
51
43
207
51
43
207
51
43
207
51
43
207
51
43
207
51
43
207
51
43
207
51
43
207
51
43
207
51
43
207
51
43
207
51
43
207
51
43
207
51
43
207
51
43
207
51
43
207
51
43
207
51
43
207
51
43
207
51
43
207
51
43
207
51
43
207
51
43
207
51
43
207
51
43
207
51
43
207
51
43
207
51
43
207
51
43
207
51
43
207
51
43
207
51
43
207
51
43
207
51
43
207
51
43
207
51
43
207
51
43
207
51
43
207
51
43
207
51
43
207
51
43
207
51
43
207
51
43
207
51
43
207
51
43
207
51
43
207
51
43
207
51
43
207
51
43
207
51
43
207
51
43
207
51
43
207
51
43
207
51
43
207
51
43
207
51
43
207
51
43
207
51
43
207
51
43
207
51
43
207
51
43
207
51
43
207
51
43
207
51
43
207
51
43
207
51
43
207
51
43
207
51
43
207
51
43
207
51
43
207
51
43
207
51
43
207
51
43
207
51
43
207
51
43
207
51
43
207
51
43
207
51
43
207
51
43
207
51
43
207
51
43
207
51
43
207
51
43
207
51
43
207
51
43
207
51
43
207
51
43
207
51
43
207
51
43
207
51
43
207
51
43
207
51
43
207
51
43
207
51
43
207
51
43
207
51
43
207
51
43
207
51
43
207
51
43
207
51
43
207
51
43
207
51
43
207
51
43
207
51
43
207
51
43
207
51
43
207
51
43
207
51
43
207
51
43
207
51
43
207
51
43
207
51
43
207
51
43
207
51
43
207
51
43
207
51
43
207
51
43
207
51
43
207
51
43
207
51
43
207
51
43
207
51
43
207
51
43
207
51
43
207
51
43
207
51
43
207
51
43
207
51
43
207
51
43
207
51
43
207
51
43
207
51
43
207
51
43
207
51
43
207
51
43
207
51
43
207
51
43
207
51
43
207
51
43
207
51
43
207
51
43
207
51
43
207
51
43
207
51
43
207
51
43
207
51
43
207
51
43
207
51
43
207
51
43
207
51
43
207
51
43
207
51
43
207
51
43
207
51
43
207
51
43
207
51
43
207
51
43
207
51
43
207
51
43
207
51
43
207
51
43
207
51
43
207
51
43
207
51
43
207
51
43
207
51
43
207
51
43
207
51
43
207
51
43
207
51
43
207
51
43
207
51
43
207
51
43
207
51
43
207
51
43
207
51
43
207
51
43
207
51
43
207
51
43
207
51
43
207
51
43
207
51
43
207
51
43
207
51
43
207
51
43
207
51
43
207
51
43
207
51
43
207
51
43
207
51
43
207
51
43
207
51
43
207
51
43
207
51
43
207
51
43
207
51
43
207
51
43
207
51
43
207
51
43
207
51
43
207
51
43
207
51
43
207
51
43
207
51
43
207
51
43
207
51
43
207
51
43
207
51
43
207
51
43
207
51
43
207
51
43
207
51
43
207
51
43
207
51
43
207
51
43
207
51
43
207
51
43
207
51
43
207
51
43
207
51
43
207
51
43
207
51
43
207
51
43
207
51
43
207
51
43
207
51
43
207
51
43
207
51
43
207
51
43
207
51
43
207
51
43
207
51
43
207
51
43
207
51
43
207
51
43
207
51
43
207
51
43
207
51
43
207
51
43
207
51
43
207
51
43
207
51
43
207
51
43
207
51
43
207
51
43
207
51
43
207
51
43
207
51
43
207
51
43
207
51
43
207
51
43
207
51
43
207
51
43
207
51
43
207
51
43
207
51
43
207
51
43
207
51
43
207
51
43
207
51
43
207
51
43
207
51
43
207
51
43
207
51
43
207
51
43
207
51
43
207
51
43
207
51
43
207
51
43
207
51
43
207
51
43
207
51
43
207
51
43
207
51
43
207
51
43
207
51
43
207
51
43
207
51
43
207
51
43
207
51
43
207
51
43
207
51
43
207
51
43
207
51
43
207
51
43
207
51
43
207
51
43
207
51
43
207
51
43
207
51
43
207
51
43
207
51
43
207
51
43
207
51
43
207
51
43
207
51
43
207
51
43
207
51
43
207
51
43
207
51
43
207
51
43
207
51
43
207
51
43
207
51
43
207
51
43
207
51
43
207
51
43
207
51
43
207
51
43
207
51
43
207
51
43
207
51
43
207
51
43
207
51
43
207
51
43
207
51
43
207
51
43
207
51
43
207
51
43
207
51
43
207
51
43
207
51
43
207
51
43
207
51
43
207
51
43
207
51
43
207
51
43
207
51
43
207
51
43
207
51
43
207
51
43
207
51
43
207
51
43
207
51
43
207
51
43
207
51
43
207
51
43
207
51
43
207
51
43
207
51
43
207
51
43
207
51
43
207
51
43
207
51
43
207
51
43
207
51
43
207
51
43
207
51
43
207
51
43
207
51
43
207
51
43
207
51
43
207
51
43
207
51
43
207
51
43
207
51
43
207
51
43
207
51
43
207
51
43
207
51
43
207
51
43
207
51
43
207
51
43
207
51
43
207
51
43
207
51
43
207
51
43
207
51
43
207
51
43
207
51
43
207
51
43
207
51
43
207
51
43
207
51
43
207
51
43
207
51
43
207
51
43
207
51
43
207
51
43
207
51
43
207
51
43
207
51
43
207
51
43
207
51
43
207
51
43
207
51
43
207
51
43
207
51
43
207
51
43
207
51
43
207
51
43
207
51
43
207
51
43
207
51
43
207
51
43
207
51
43
207
51
43
207
51
43
207
51
43
207
51
43
207
51
43
207
51
43
207
51
43
207
51
43
207
51
43
207
51
43
207
51
43
207
51
43
207
51
43
207
51
43
207
51
43
207
51
43
207
51
43
207
51
43
207
51
43
207
51
43
207
51
43
207
51
43
207
51
43
207
51
43
207
51
43
207
51
43
207
51
43
207
51
43
207
51
43
207
51
43
207
51
43
207
51
43
207
51
43
207
51
43
207
51
43
207
51
43
207
51
43
207
51
43
207
51
43
207
51
43
207
51
43
207
51
43
207
51
43
207
51
43
207
51
43
207
51
43
207
51
43
207
51
43
207
51
43
207
51
43
207
51
43
207
51
43
207
51
43
207
51
43
207
51
43
207
51
43
207
51
43
207
51
43
207
51
43
207
51
43
207
51
43
207
51
43
207
51
43
207
51
43
207
51
43
207
51
43
207
51
43
207
51
43
207
51
43
207
51
43
207
51
43
207
51
43
207
51
43
207
51
43
207
51
43
207
51
43
207
51
43
207
51
43
207
51
43
207
51
43
207
51
43
207
51
43
207
51
43
207
51
43
207
51
43
207
51
43
207
51
43
207
51
43
207
51
43
207
51
43
207
51
43
207
51
43
207
51
43
207
51
43
207
51
43
207
51
43
207
51
43
207
51
43
207
51
43
207
51
43
207
51
43
207
51
43
207
51
43
207
51
43
207
51
43
207
51
43
207
51
43
207
51
43
207
51
43
207
51
43
207
51
43
207
51
43
207
51
43
207
51
43
207
51
43
207
51
43
207
51
43
207
51
43
207
51
43
207
51
43
207
51
43
207
51
43
207
51
43
207
51
43
207
51
43
207
51
43
207
51
43
207
51
43
207
51
43
207
51
43
207
51
43
207
51
43
207
51
43
207
51
43
207
51
43
207
51
43
207
51
43
207
51
43
207
51
43
207
51
43
207
51
43
207
51
43
207
51
43
207
51
43
207
51
43
207
51
43
207
51
43
207
51
43
207
51
43
207
51
43
207
51
43
207
51
43
207
51
43
207
51
43
207
51
43
207
51
43
207
51
43
207
51
43
207
51
43
207
51
43
207
51
43
207
51
43
207
51
43
207
51
43
207
51
43
207
51
43
207
51
43
207
51
43
207
51
43
207
51
43
207
51
43
207
51
43
207
51
43
207
51
43
207
51
43
207
51
43
207
51
43
207
51
43
207
51
43
207
51
43
207
51
43
207
51
43
207
51
43
207
51
43
207
51
43
207
51
43
207
51
43
207
51
43
207
51
43
207
51
43
207
51
43
207
51
43
207
51
43
207
51
43
207
51
43
207
51
43
207
51
43
207
51
43
207
51
43
207
51
43
207
51
43
207
51
43
207
51
43
207
51
43
207
51
43
207
51
43
207
51
43
207
51
43
207
51
43
207
51
43
207
51
43
207
51
43
207
51
43
207
51
43
207
51
43
207
51
43
207
51
43
207
51
43
207
51
43
207
51
43
207
51
43
207
51
43
207
51
43
207
51
43
207
51
43
207
51
43
207
51
43
207
51
43
207
51
43
207
51
43
207
51
43
207
51
43
207
51
43
207
51
43
207
51
43
207
51
43
207
51
43
207
51
43
207
51
43
207
51
43
207
51
43
207
51
43
207
51
43
207
51
43
207
51
43
207
51
43
207
51
43
207
51
43
207
51
43
207
51
43
207
51
43
207
51
43
207
51
43
207
51
43
207
51
43
207
51
43
207
51
43
207
51
43
207
51
43
207
51
43
207
51
43
207
51
43
207
51
43
207
51
43
207
51
43
207
51
43
207
51
43
207
51
43
207
51
43
207
51
43
207
51
43
207
51
43
207
51
43
207
51
43
207
51
43
207
51
43
207
51
43
207
51
43
207
51
43
207
51
43
207
51
43
207
51
43
207
51
43
207
51
43
207
51
43
207
51
43
207
51
43
207
51
43
207
51
43
207
51
43
207
51
43
207
51
43
207
51
43
207
51
43
207
51
43
207
51
43
207
51
43
207
51
43
207
51
43
207
51
43
207
51
43
207
51
43
207
51
43
207
51
43
207
51
43
207
51
43
207
51
43
207
51
43
207
51
43
207
51
43
207
51
43
207
51
43
207
51
43
207
51
43
207
51
43
207
51
43
207
51
43
207
51
43
207
51
43
207
51
43
207
51
43
207
51
43
207
51
43
207
51
43
207
51
43
207
51
43
207
51
43
207
51
43
207
51
43
207
51
43
207
51
43
207
51
43
207
51
43
207
51
43
207
51
43
207
51
43
207
51
43
207
51
43
207
51
43
207
51
43
207
51
43
207
51
43
207
51
43
207
51
43
207
51
43
207
51
43
207
51
43
207
51
43
207
51
43
207
51
43
207
51
43
207
51
43
207
51
43
207
51
43
207
51
43
207
51
43
207
51
43
207
51
43
207
51
43
207
51
43
207
51
43
207
51
43
207
51
43
207
51
43
207
51
43
207
51
43
207
51
43
207
51
43
207
51
43
207
51
43
207
51
43
207
51
43
207
51
43
207
51
43
207
51
43
207
51
43
207
51
43
207
51
43
207
51
43
207
51
43
207
51
43
207
51
43
207
51
43
207
51
43
207
51
43
207
51
43
207
51
43
207
51
43
207
51
43
207
51
43
207
51
43
207
51
43
207
51
43
207
51
43
207
51
43
207
51
43
207
51
43
207
51
43
207
51
43
207
51
43
207
51
43
207
51
43
207
51
43
207
51
43
207
51
43
207
51
43
207
51
43
207
51
43
207
51
43
207
51
43
207
51
43
207
51
43
207
51
43
207
51
43
207
51
43
207
51
43
207
51
43
207
51
43
207
51
43
207
51
43
207
51
43
207
51
43
207
51
43
207
51
43
207
51
43
207
51
43
207
51
43
207
51
43
207
51
43
207
51
43
207
51
43
207
51
43
207
51
43
207
51
43
207
51
43
207
51
43
207
51
43
207
51
43
207
51
43
207
51
43
207
51
43
207
51
43
207
51
43
207
51
43
207
51
43
207
51
43
207
51
43
207
51
43
207
51
43
207
51
43
207
51
43
207
51
43
207
51
43
207
51
43
207
51
43
207
51
43
207
51
43
207
51
43
207
51
43
207
51
43
207
51
43
207
51
43
207
51
43
207
51
43
207
51
43
207
51
43
207
51
43
207
51
43
207
51
43
207
51
43
207
51
43
207
51
43
207
51
43
207
51
43
207
51
43
207
51
43
207
51
43
207
51
43
207
51
43
207
51
43
207
51
43
207
51
43
207
51
43
207
51
43
207
51
43
207
51
43
207
51
43
207
51
43
207
51
43
207
51
43
207
51
43
207
51
43
207
51
43
207
51
43
207
51
43
207
51
43
207
51
43
207
51
43
207
51
43
207
51
43
207
51
43
207
51
43
207
51
43
207
51
43
207
51
43
207
51
43
207
51
43
207
51
43
207
51
43
207
51
43
207
51
43
207
51
43
207
51
43
207
51
43
207
51
43
207
51
43
207
51
43
207
51
43
207
51
43
207
51
43
207
51
43
207
51
43
207
51
43
207
51
43
207
51
43
207
51
43
207
51
43
207
51
43
207
51
43
207
51
43
207
51
43
207
51
43
207
51
43
207
51
43
207
51
43
207
51
43
207
51
43
207
51
43
207
51
43
207
51
43
207
51
43
207
51
43
207
51
43
207
51
43
207
51
43
207
51
43
207
51
43
207
51
43
207
51
43
207
51
43
207
51
43
207
51
43
207
51
43
207
51
43
207
51
43
207
51
43
207
51
43
207
51
43
207
51
43
207
51
43
207
51
43
207
51
43
207
51
43
207
51
43
207
51
43
207
51
43
207
51
43
207
51
43
207
51
43
207
51
43
207
51
43
207
51
43
207
51
43
207
51
43
207
51
43
207
51
43
207
51
43
207
51
43
207
51
43
207
51
43
207
51
43
207
51
43
207
51
43
207
51
43
207
51
43
207
51
43
207
51
43
207
51
43
207
51
43
207
51
43
207
51
43
207
51
43
207
51
43
207
51
43
207
51
43
207
51
43
207
51
43
207
51
43
207
51
43
207
51
43
207
51
43
207
51
43
207
51
43
207
51
43
207
51
43
207
51
43
207
51
43
207
51
43
207
51
43
207
51
43
207
51
43
207
51
43
207
51
43
207
51
43
207
51
43
207
51
43
207
51
43
207
51
43
207
51
43
207
51
43
207
51
43
207
51
43
207
51
43
207
51
43
207
51
43
207
51
43
207
51
43
207
51
43
207
51
43
207
51
43
207
51
43
207
51
43
207
51
43
207
51
43
207
51
43
207
51
43
207
51
43
207
51
43
207
51
43
207
51
43
207
51
43
207
51
43
207
51
43
207
51
43
207
51
43
207
51
43
207
51
43
207
51
43
207
51
43
207
51
43
207
51
43
207
51
43
207
51
43
207
51
43
207
51
43
207
51
43
207
51
43
207
51
43
207
51
43
207
51
43
207
51
43
207
51
43
207
51
43
207
51
43
207
51
43
207
51
43
207
51
43
207
51
43
207
51
43
207
51
43
207
51
43
207
51
43
207
51
43
207
51
43
207
51
43
207
51
43
207
51
43
207
51
43
207
51
43
207
51
43
207
51
43
207
51
43
207
51
43
207
51
43
207
51
43
207
51
43
207
51
43
207
51
43
207
51
43
207
51
43
207
51
43
207
51
43
207
51
43
207
51
43
207
51
43
207
51
43
207
51
43
207
51
43
207
51
43
207
51
43
207
51
43
207
51
43
207
51
43
207
51
43
207
51
43
207
51
43
207
51
43
207
51
43
207
51
43
207
51
43
207
51
43
207
51
43
207
51
43
207
51
43
207
51
43
207
51
43
207
51
43
207
51
43
207
51
43
207
51
43
207
51
43
207
51
43
207
51
43
207
51
43
207
51
43
207
51
43
207
51
43
207
51
43
207
51
43
207
51
43
207
51
43
207
51
43
207
51
43
207
51
43
207
51
43
207
51
43
207
51
43
207
51
43
207
51
43
207
51
43
207
51
43
207
51
43
207
51
43
207
51
43
207
51
43
207
51
43
207
51
43
207
51
43
207
51
43
207
51
43
207
51
43
207
51
43
207
51
43
207
51
43
207
51
43
207
51
43
207
51
43
207
51
43
207
51
43
207
51
43
207
51
43
207
51
43
207
51
43
207
51
43
207
51
43
207
51
43
207
51
43
207
51
43
207
51
43
207
51
43
207
51
43
207
51
43
207
51
43
207
51
43
207
51
43
207
51
43
207
51
43
207
51
43
207
51
43
207
51
43
207
51
43
207
51
43
207
51
43
207
51
43
207
51
43
207
51
43
207
51
43
207
51
43
207
51
43
207
51
43
207
51
43
207
51
43
207
51
43
207
51
43
207
51
43
207
51
43
207
51
43
207
51
43
207
51
43
207
51
43
207
51
43
207
51
43
207
51
43
207
51
43
207
51
43
207
51
43
207
51
43
207
51
43
207
51
43
207
51
43
207
51
43
207
51
43
207
51
43
207
51
43
207
51
43
207
51
43
207
51
43
207
51
43
207
51
43
207
51
43
207
51
43
207
51
43
207
51
43
207
51
43
207
51
43
207
51
43
207
51
43
207
51
43
207
51
43
207
51
43
207
51
43
207
51
43
207
51
43
207
51
43
207
51
43
207
51
43
207
51
43
207
51
43
207
51
43
207
51
43
207
51
43
207
51
43
207
51
43
207
51
43
207
51
43
207
51
43
207
51
43
207
51
43
207
51
43
207
51
43
207
51
43
207
51
43
207
51
43
207
51
43
207
51
43
207
51
43
207
51
43
207
51
43
207
51
43
207
51
43
207
51
43
207
51
43
207
51
43
207
51
43
207
51
43
207
51
43
207
51
43
207
51
43
207
51
43
207
51
43
207
51
43
207
51
43
207
51
43
207
51
43
207
51
43
207
51
43
207
51
43
207
51
43
207
51
43
207
51
43
207
51
43
207
51
43
207
51
43
207
51
43
207
51
43
207
51
43
207
51
43
207
51
43
207
51
43
207
51
43
207
51
43
207
51
43
207
51
43
207
51
43
207
51
43
207
51
43
207
51
43
207
51
43
207
51
43
207
51
43
207
51
43
207
51
43
207
51
43
207
51
43
207
51
43
207
51
43
207
51
43
207
51
43
207
51
43
207
51
43
207
51
43
207
51
43
207
51
43
207
51
43
207
51
43
207
51
43
207
51
43
207
51
43
207
51
43
207
51
43
207
51
43
207
51
43
207
51
43
207
51
43
207
51
43
207
51
43
207
51
43
207
51
43
207
51
43
207
51
43
207
51
43
207
51
43
207
51
43
207
51
43
207
51
43
207
51
43
207
51
43
207
51
43
207
51
43
207
51
43
207
51
43
207
51
43
207
51
43
207
51
43
207
51
43
207
51
43
207
51
43
207
51
43
207
51
43
207
51
43
207
51
43
207
51
43
207
51
43
207
51
43
207
51
43
207
51
43
207
51
43
207
51
43
207
51
43
207
51
43
207
51
43
207
51
43
207
51
43
207
51
43
207
51
43
207
51
43
207
51
43
207
51
43
207
51
43
207
51
43
207
51
43
207
51
43
207
51
43
207
51
43
207
51
43
207
51
43
207
51
43
207
51
43
207
51
43
207
51
43
207
51
43
207
51
43
207
51
43
207
51
43
207
51
43
207
51
43
207
51
43
207
51
43
207
51
43
207
51
43
207
51
43
207
51
43
207
51
43
207
51
43
207
51
43
207
51
43
207
51
43
207
51
43
207
51
43
207
51
43
207
51
43
207
51
43
207
51
43
207
51
43
207
51
43
207
51
43
207
51
43
207
51
43
207
51
43
207
51
43
207
51
43
207
51
43
207
51
43
207
51
43
207
51
43
207
51
43
207
51
43
207
51
43
207
51
43
207
51
43
207
51
43
207
51
43
207
51
43
207
51
43
207
51
43
207
51
43
207
51
43
207
51
43
207
51
43
207
51
43
207
51
43
207
51
43
207
51
43
207
51
43
207
51
43
207
51
43
207
51
43
207
51
43
207
51
43
207
51
43
207
51
43
207
51
43
207
51
43
207
51
43
207
51
43
207
51
43
207
51
43
207
51
43
207
51
43
207
51
43
207
51
43
207
51
43
207
51
43
207
51
43
207
51
43
207
51
43
207
51
43
207
51
43
207
51
43
207
51
43
207
51
43
207
51
43
207
51
43
207
51
43
207
51
43
207
51
43
207
51
43
207
51
43
207
51
43
207
51
43
207
51
43
207
51
43
207
51
43
207
51
43
207
51
43
207
51
43
207
51
43
207
51
43
207
51
43
207
51
43
207
51
43
207
51
43
207
51
43
207
51
43
207
51
43
207
51
43
207
51
43
207
51
43
207
51
43
207
51
43
207
51
43
207
51
43
207
51
43
207
51
43
207
51
43
207
51
43
207
51
43
207
51
43
207
51
43
207
51
43
207
51
43
207
51
43
207
51
43
207
51
43
207
51
43
207
51
43
207
51
43
207
51
43
207
51
43
207
51
43
207
51
43
207
51
43
207
51
43
207
51
43
207
51
43
207
51
43
207
51
43
207
51
43
207
51
43
207
51
43
207
51
43
207
51
43
207
51
43
207
51
43
207
51
43
207
51
43
207
51
43
207
51
43
207
51
43
207
51
43
207
51
43
207
51
43
207
51
43
207
51
43
207
51
43
207
51
43
207
51
43
207
51
43
207
51
43
207
51
43
207
51
43
207
51
43
207
51
43
207
51
43
207
51
43
207
51
43
207
51
43
207
51
43
207
51
43
207
51
43
207
51
43
207
51
43
207
51
43
207
51
43
207
51
43
207
51
43
207
51
43
207
51
43
207
51
43
207
51
43
207
51
43
207
51
43
207
51
43
207
51
43
207
51
43
207
51
43
207
51
43
207
51
43
207
51
43
207
51
43
207
51
43
207
51
43
207
51
43
207
51
43
207
51
43
207
51
43
207
51
43
207
51
43
207
51
43
207
51
43
207
51
43
207
51
43
207
51
43
207
51
43
207
51
43
207
51
43
207
51
43
207
51
43
207
51
43
207
51
43
207
51
43
207
51
43
207
51
43
207
51
43
207
51
43
207
51
43
207
51
43
207
51
43
207
51
43
207
51
43
207
51
43
207
51
43
207
51
43
207
51
43
207
51
43
207
51
43
207
51
43
207
51
43
207
51
43
207
51
43
207
51
43
207
51
43
207
51
43
207
51
43
207
51
43
207
51
43
207
51
43
207
51
43
207
51
43
207
51
43
207
51
43
207
51
43
207
51
43
207
51
43
207
51
43
207
51
43
207
51
43
207
51
43
207
51
43
207
51
43
207
51
43
207
51
43
207
51
43
207
51
43
207
51
43
207
51
43
207
51
43
207
51
43
207
51
43
207
51
43
207
51
43
207
51
43
207
51
43
207
51
43
207
51
43
207
51
43
207
51
43
207
51
43
207
51
43
207
51
43
207
51
43
207
51
43
207
51
43
207
51
43
207
51
43
207
51
43
207
51
43
207
51
43
207
51
43
207
51
43
207
51
43
207
51
43
207
51
43
207
51
43
207
51
43
207
51
43
207
51
43
207
51
43
207
51
43
207
51
43
207
51
43
207
51
43
207
51
43
207
51
43
207
51
43
207
51
43
207
51
43
207
51
43
207
51
43
207
51
43
207
51
43
207
51
43
207
51
43
207
51
43
207
51
43
207
51
43
207
51
43
207
51
43
207
51
43
207
51
43
207
51
43
207
51
43
207
51
43
207
51
43
207
51
43
207
51
43
207
51
43
207
51
43
207
51
43
207
51
43
207
51
43
207
51
43
207
51
43
207
51
43
207
51
43
207
51
43
207
51
43
207
51
43
207
51
43
207
51
43
207
51
43
207
51
43
207
51
43
207
51
43
207
51
43
207
51
43
207
51
43
207
51
43
207
51
43
207
51
43
207
51
43
207
51
43
207
51
43
207
51
43
207
51
43
207
51
43
207
51
43
207
51
43
207
51
43
207
51
43
207
51
43
207
51
43
207
51
43
207
51
43
207
51
43
207
51
43
207
51
43
207
51
43
207
51
43
207
51
43
207
51
43
207
51
43
207
51
43
207
51
43
207
51
43
207
51
43
207
51
43
207
51
43
207
51
43
207
51
43
207
51
43
207
51
43
207
51
43
207
51
43
207
51
43
207
51
43
207
51
43
207
51
43
207
51
43
207
51
43
207
51
43
207
51
43
207
51
43
207
51
43
207
51
43
207
51
43
207
51
43
207
51
43
207
51
43
207
51
43
207
51
43
207
51
43
207
51
43
207
51
43
207
51
43
207
51
43
207
51
43
207
51
43
207
51
43
207
51
43
207
51
43
207
51
43
207
51
43
207
51
43
207
51
43
207
51
43
207
51
43
207
51
43
207
51
43
207
51
43
207
51
43
207
51
43
207
51
43
207
51
43
207
51
43
207
51
43
207
51
43
207
51
43
207
51
43
207
51
43
207
51
43
207
51
43
207
51
43
207
51
43
207
51
43
207
51
43
207
51
43
207
51
43
207
51
43
207
51
43
207
51
43
207
51
43
207
51
43
207
51
43
207
51
43
207
51
43
207
51
43
207
51
43
207
51
43
207
51
43
207
51
43
207
51
43
207
51
43
207
51
43
207
51
43
207
51
43
207
51
43
207
51
43
207
51
43
207
51
43
207
51
43
207
51
43
207
51
43
207
51
43
207
51
43
207
51
43
207
51
43
207
51
43
207
51
43
207
51
43
207
51
43
207
51
43
207
51
43
207
51
43
207
51
43
207
51
43
207
51
43
207
51
43
207
51
43
207
51
43
207
51
43
207
51
43
207
51
43
207
51
43
207
51
43
207
51
43
207
51
43
207
51
43
207
51
43
207
51
43
207
51
43
207
51
43
207
51
43
207
51
43
207
51
43
207
51
43
207
51
43
207
51
43
207
51
43
207
51
43
207
51
43
207
51
43
207
51
43
207
51
43
207
51
43
207
51
43
207
51
43
207
51
43
207
51
43
207
51
43
207
51
43
207
51
43
207
51
43
207
51
43
207
51
43
207
51
43
207
51
43
207
51
43
207
51
43
207
51
43
207
51
43
207
51
43
207
51
43
207
51
43
207
51
43
207
51
43
207
51
43
207
51
43
207
51
43
207
51
43
207
51
43
207
51
43
207
51
43
207
51
43
207
51
43
207
51
43
207
51
43
207
51
43
207
51
43
207
51
43
207
51
43
207
51
43
207
51
43
207
51
43
207
51
43
207
51
43
207
51
43
207
51
43
207
51
43
207
51
43
207
51
43
207
51
43
207
51
43
207
51
43
207
51
43
207
51
43
207
51
43
207
51
43
207
51
43
207
51
43
207
51
43
207
51
43
207
51
43
207
51
43
207
51
43
207
51
43
207
51
43
207
51
43
207
51
43
207
51
43
207
51
43
207
51
43
207
51
43
207
51
43
207
51
43
207
51
43
207
51
43
207
51
43
207
51
43
207
51
43
207
51
43
207
51
43
207
51
43
207
51
43
207
51
43
207
51
43
207
51
43
207
51
43
207
51
43
207
51
43
207
51
43
207
51
43
207
51
43
207
51
43
207
51
43
207
51
43
207
51
43
207
51
43
207
51
43
207
51
43
207
51
43
207
51
43
207
51
43
207
51
43
207
51
43
207
51
43
207
51
43
207
51
43
207
51
43
207
51
43
207
51
43
207
51
43
207
51
43
207
51
43
207
51
43
207
51
43
207
51
43
207
51
43
207
51
43
207
51
43
207
51
43
207
51
43
207
51
43
207
51
43
207
51
43
207
51
43
207
51
43
207
51
43
207
51
43
207
51
43
207
51
43
207
51
43
207
51
43
207
51
43
207
51
43
207
51
43
207
51
43
207
51
43
207
51
43
207
51
43
207
51
43
207
51
43
207
51
43
207
51
43
207
51
43
207
51
43
207
51
43
207
51
43
207
51
43
207
51
43
207
51
43
207
51
43
207
51
43
207
51
43
207
51
43
207
51
43
207
51
43
207
51
43
207
51
43
207
51
43
207
51
43
207
51
43
207
51
43
207
51
43
207
51
43
207
51
43
207
51
43
207
51
43
207
51
43
207
51
43
207
51
43
207
51
43
207
51
43
207
51
43
207
51
43
207
51
43
207
51
43
207
51
43
207
51
43
207
51
43
207
51
43
207
51
43
207
51
43
207
51
43
207
51
43
207
51
43
207
51
43
207
51
43
207
51
43
207
51
43
207
51
43
207
51
43
207
51
43
207
51
43
207
51
43
207
51
43
207
51
43
207
51
43
207
51
43
207
51
43
207
51
43
207
51
43
207
51
43
207
51
43
207
51
43
207
51
43
207
51
43
207
51
43
207
51
43
207
51
43
207
51
43
207
51
43
207
51
43
207
51
43
207
51
43
207
51
43
207
51
43
207
51
43
207
51
43
207
51
43
207
51
43
207
51
43
207
51
43
207
51
43
207
51
43
207
51
43
207
51
43
207
51
43
207
51
43
207
51
43
207
51
43
207
51
43
207
51
43
207
51
43
207
51
43
207
51
43
207
51
43
207
51
43
207
51
43
207
51
43
207
51
43
207
51
43
207
51
43
207
51
43
207
51
43
207
51
43
207
51
43
207
51
43
207
51
43
207
51
43
207
51
43
207
51
43
207
51
43
207
51
43
207
51
43
207
51
43
207
51
43
207
51
43
207
51
43
207
51
43
207
51
43
207
51
43
207
51
43
207
51
43
207
51
43
207
51
43
207
51
43
207
51
43
207
51
43
207
51
43
207
51
43
207
51
43
207
51
43
207
51
43
207
51
43
207
51
43
207
51
43
207
51
43
207
51
43
207
51
43
207
51
43
207
51
43
207
51
43
207
51
43
207
51
43
207
51
43
207
51
43
207
51
43
207
51
43
207
51
43
207
51
43
207
51
43
207
51
43
207
51
43
207
51
43
207
51
43
207
51
43
207
51
43
207
51
43
207
51
43
207
51
43
207
51
43
207
51
43
207
51
43
207
51
43
207
51
43
207
51
43
207
51
43
207
51
43
207
51
43
207
51
43
207
51
43
207
51
43
207
51
43
207
51
43
207
51
43
207
51
43
207
51
43
207
51
43
207
51
43
207
51
43
207
51
43
207
51
43
207
51
43
207
51
43
207
51
43
207
51
43
207
51
43
207
51
43
207
51
43
207
51
43
207
51
43
207
51
43
207
51
43
207
51
43
207
51
43
207
51
43
207
51
43
207
51
43
207
51
43
207
51
43
207
51
43
207
51
43
207
51
43
207
51
43
207
51
43
207
51
43
207
51
43
207
51
43
207
51
43
207
51
43
207
51
43
207
51
43
207
51
43
207
51
43
207
51
43
207
51
43
207
51
43
207
51
43
207
51
43
207
51
43
207
51
43
207
51
43
207
51
43
207
51
43
207
51
43
207
51
43
207
51
43
207
51
43
207
51
43
207
51
43
207
51
43
207
51
43
207
51
43
207
51
43
207
51
43
207
51
43
207
51
43
207
51
43
207
51
43
207
51
43
207
51
43
207
51
43
207
51
43
207
51
43
207
51
43
207
51
43
207
51
43
207
51
43
207
51
43
207
51
43
207
51
43
207
51
43
207
51
43
207
51
43
207
51
43
207
51
43
207
51
43
207
51
43
207
51
43
207
51
43
207
51
43
207
51
43
207
51
43
207
51
43
207
51
43
207
51
43
207
51
43
207
51
43
207
51
43
207
51
43
207
51
43
207
51
43
207
51
43
207
51
43
207
51
43
207
51
43
207
51
43
207
51
43
207
51
43
207
51
43
207
51
43
207
51
43
207
51
43
207
51
43
207
51
43
207
51
43
207
51
43
207
51
43
207
51
43
207
51
43
207
51
43
207
51
43
207
51
43
207
51
43
207
51
43
207
51
43
207
51
43
207
51
43
207
51
43
207
51
43
207
51
43
207
51
43
207
51
43
207
51
43
207
51
43
207
51
43
207
51
43
207
51
43
207
51
43
207
51
43
207
51
43
207
51
43
207
51
43
207
51
43
207
51
43
207
51
43
207
51
43
207
51
43
207
51
43
207
51
43
207
51
43
207
51
43
207
51
43
207
51
43
207
51
43
207
51
43
207
51
43
207
51
43
207
51
43
207
51
43
207
51
43
207
51
43
207
51
43
207
51
43
207
51
43
207
51
43
207
51
43
207
51
43
207
51
43
207
51
43
207
51
43
207
51
43
207
51
43
207
51
43
207
51
43
207
51
43
207
51
43
207
51
43
207
51
43
207
51
43
207
51
43
207
51
43
207
51
43
207
51
43
207
51
43
207
51
43
207
51
43
207
51
43
207
51
43
207
51
43
207
51
43
207
51
43
207
51
43
207
51
43
207
51
43
207
51
43
207
51
43
207
51
43
207
51
43
207
51
43
207
51
43
207
51
43
207
51
43
207
51
43
207
51
43
207
51
43
207
51
43
207
51
43
207
51
43
207
51
43
207
51
43
207
51
43
207
51
43
207
51
43
207
51
43
207
51
43
207
51
43
207
51
43
207
51
43
207
51
43
207
51
43
207
51
43
207
51
43
207
51
43
207
51
43
207
51
43
207
51
43
207
51
43
207
51
43
207
51
43
207
51
43
207
51
43
207
51
43
207
51
43
207
51
43
207
51
43
207
51
43
207
51
43
207
51
43
207
51
43
207
51
43
207
51
43
207
51
43
207
51
43
207
51
43
207
51
43
207
51
43
207
51
43
207
51
43
207
51
43
207
51
43
207
51
43
207
51
43
207
51
43
207
51
43
207
51
43
207
51
43
207
51
43
207
51
43
207
51
43
207
51
43
207
51
43
207
51
43
207
51
43
207
51
43
207
51
43
207
51
43
207
51
43
207
51
43
207
51
43
207
51
43
207
51
43
207
51
43
207
51
43
207
51
43
207
51
43
207
51
43
207
51
43
207
51
43
207
51
43
207
51
43
207
51
43
207
51
43
207
51
43
207
51
43
207
51
43
207
51
43
207
51
43
207
51
43
207
51
43
207
51
43
207
51
43
207
51
43
207
51
43
207
51
43
207
51
43
207
51
43
207
51
43
207
51
43
207
51
43
207
51
43
207
51
43
207
51
43
207
51
43
207
51
43
207
51
43
207
51
43
207
51
43
207
51
43
207
51
43
207
51
43
207
51
43
207
51
43
207
51
43
207
51
43
207
51
43
207
51
43
207
51
43
207
51
43
207
51
43
207
51
43
207
51
43
207
51
43
207
51
43
207
51
43
207
51
43
207
51
43
207
51
43
207
51
43
207
51
43
207
51
43
207
51
43
207
51
43
207
51
43
207
51
43
207
51
43
207
51
43
207
51
43
207
51
43
207
51
43
207
51
43
207
51
43
207
51
43
207
51
43
207
51
43
207
51
43
207
51
43
207
51
43
207
51
43
207
51
43
207
51
43
207
51
43
207
51
43
207
51
43
207
51
43
207
51
43
207
51
43
207
51
43
207
51
43
207
51
43
207
51
43
207
51
43
207
51
43
207
51
43
207
51
43
207
51
43
207
51
43
207
51
43
207
51
43
207
51
43
207
51
43
207
51
43
207
51
43
207
51
43
207
51
43
207
51
43
207
51
43
207
51
43
207
51
43
207
51
43
207
51
43
207
51
43
207
51
43
207
51
43
207
51
43
207
51
43
207
51
43
207
51
43
207
51
43
207
51
43
207
51
43
207
51
43
207
51
43
207
51
43
207
51
43
207
51
43
207
51
43
207
51
43
207
51
43
207
51
43
207
51
43
207
51
43
207
51
43
207
51
43
207
51
43
207
51
43
207
51
43
207
51
43
207
51
43
207
51
43
207
51
43
207
51
43
207
51
43
207
51
43
207
51
43
207
51
43
207
51
43
207
51
43
207
51
43
207
51
43
207
51
43
207
51
43
207
51
43
207
51
43
207
51
43
207
51
43
207
51
43
207
51
43
207
51
43
207
51
43
207
51
43
207
51
43
207
51
43
207
51
43
207
51
43
207
51
43
207
51
43
207
51
43
207
51
43
207
51
43
207
51
43
207
51
43
207
51
43
207
51
43
207
51
43
207
51
43
207
51
43
207
51
43
207
51
43
207
51
43
207
51
43
207
51
43
207
51
43
207
51
43
207
51
43
207
51
43
207
51
43
207
51
43
207
51
43
207
51
43
207
51
43
207
51
43
207
51
43
207
51
43
207
51
43
207
51
43
207
51
43
207
51
43
207
51
43
207
51
43
207
51
43
207
51
43
207
51
43
207
51
43
207
51
43
207
51
43
207
51
43
207
51
43
207
51
43
207
51
43
207
51
43
207
51
43
207
51
43
207
51
43
207
51
43
207
51
43
207
51
43
207
51
43
207
51
43
207
51
43
207
51
43
207
51
43
207
51
43
207
51
43
207
51
43
207
51
43
207
51
43
207
51
43
207
51
43
207
51
43
207
51
43
207
51
43
207
51
43
207
51
43
207
51
43
207
51
43
207
51
43
207
51
43
207
51
43
207
51
43
207
51
43
207
51
43
207
51
43
207
51
43
207
51
43
207
51
43
207
51
43
207
51
43
207
51
43
207
51
43
207
51
43
207
51
43
207
51
43
207
51
43
207
51
43
207
51
43
207
51
43
207
51
43
207
51
43
207
51
43
207
51
43
207
51
43
207
51
43
207
51
43
207
51
43
207
51
43
207
51
43
207
51
43
207
51
43
207
51
43
207
51
43
207
51
43
207
51
43
207
51
43
207
51
43
207
51
43
207
51
43
207
51
43
207
51
43
207
51
43
207
51
43
207
51
43
207
51
43
207
51
43
207
51
43
207
51
43
207
51
43
207
51
43
207
51
43
207
51
43
207
51
43
207
51
43
207
51
43
207
51
43
207
51
43
207
51
43
207
51
43
207
51
43
207
51
43
207
51
43
207
51
43
207
51
43
207
51
43
207
51
43
207
51
43
207
51
43
207
51
43
207
51
43
207
51
43
207
51
43
207
51
43
207
51
43
207
51
43
207
51
43
207
51
43
207
51
43
207
51
43
207
51
43
207
51
43
207
51
43
207
51
43
207
51
43
207
51
43
207
51
43
207
51
43
207
51
43
207
51
43
207
51
43
207
51
43
207
51
43
207
51
43
207
51
43
207
51
43
207
51
43
207
51
43
207
51
43
207
51
43
207
51
43
207
51
43
207
51
43
207
51
43
207
51
43
207
51
43
207
51
43
207
51
43
207
51
43
207
51
43
207
51
43
207
51
43
207
51
43
207
51
43
207
51
43
207
51
43
207
51
43
207
51
43
207
51
43
207
51
43
207
51
43
207
51
43
207
51
43
207
51
43
207
51
43
207
51
43
207
51
43
207
51
43
207
51
43
207
51
43
207
51
43
207
51
43
207
51
43
207
51
43
207
51
43
207
51
43
207
51
43
207
51
43
207
51
43
207
51
43
207
51
43
207
51
43
207
51
43
207
51
43
207
51
43
207
51
43
207
51
43
207
51
43
207
51
43
207
51
43
207
51
43
207
51
43
207
51
43
207
51
43
207
51
43
207
51
43
207
51
43
207
51
43
207
51
43
207
51
43
207
51
43
207
51
43
207
51
43
207
51
43
207
51
43
207
51
43
207
51
43
207
51
43
207
51
43
207
51
43
207
51
43
207
51
43
207
51
43
207
51
43
207
51
43
207
51
43
207
51
43
207
51
43
207
51
43
207
51
43
207
51
43
207
51
43
207
51
43
207
51
43
207
51
43
207
51
43
207
51
43
207
51
43
207
51
43
207
51
43
207
51
43
207
51
43
207
51
43
207
51
43
207
51
43
207
51
43
207
51
43
207
51
43
207
51
43
207
51
43
207
51
43
207
51
43
207
51
43
207
51
43
207
51
43
207
51
43
207
51
43
207
51
43
207
51
43
207
51
43
207
51
43
207
51
43
207
51
43
207
51
43
207
51
43
207
51
43
207
51
43
207
51
43
207
51
43
207
51
43
207
51
43
207
51
43
207
51
43
207
51
43
207
51
43
207
51
43
207
51
43
207
51
43
207
51
43
207
51
43
207
51
43
207
51
43
207
51
43
207
51
43
207
51
43
207
51
43
207
51
43
207
51
43
207
51
43
207
51
43
207
51
43
207
51
43
207
51
43
207
51
43
207
51
43
207
51
43
207
51
43
207
51
43
207
51
43
207
51
43
207
51
43
207
51
43
207
51
43
207
51
43
207
51
43
207
51
43
207
51
43
207
51
43
207
51
43
207
51
43
207
51
43
207
51
43
207
51
43
207
51
43
207
51
43
207
51
43
207
51
43
207
51
43
207
51
43
207
51
43
207
51
43
207
51
43
207
51
43
207
51
43
207
51
43
207
51
43
207
51
43
207
51
43
207
51
43
207
51
43
207
51
43
207
51
43
207
51
43
207
51
43
207
51
43
207
51
43
207
51
43
207
51
43
207
51
43
207
51
43
207
51
43
207
51
43
207
51
43
207
51
43
207
51
43
207
51
43
207
51
43
207
51
43
207
51
43
207
51
43
207
51
43
207
51
43
207
51
43
207
51
43
207
51
43
207
51
43
207
51
43
207
51
43
207
51
43
207
51
43
207
51
43
207
51
43
207
51
43
207
51
43
207
51
43
207
51
43
207
51
43
207
51
43
207
51
43
207
51
43
207
51
43
207
51
43
207
51
43
207
51
43
207
51
43
207
51
43
207
51
43
207
51
43
207
51
43
207
51
43
207
51
43
207
51
43
207
51
43
207
51
43
207
51
43
207
51
43
207
51
43
207
51
43
207
51
43
207
51
43
207
51
43
207
51
43
207
51
43
207
51
43
207
51
43
207
51
43
207
51
43
207
51
43
207
51
43
207
51
43
207
51
43
207
51
43
207
51
43
207
51
43
207
51
43
207
51
43
207
51
43
207
51
43
207
51
43
207
51
43
207
51
43
207
51
43
207
51
43
207
51
43
207
51
43
207
51
43
207
51
43
207
51
43
207
51
43
207
51
43
207
51
43
207
51
43
207
51
43
207
51
43
207
51
43
207
51
43
207
51
43
207
51
43
207
51
43
207
51
43
207
51
43
207
51
43
207
51
43
207
51
43
207
51
43
207
51
43
207
51
43
207
51
43
207
51
43
207
51
43
207
51
43
207
51
43
207
51
43
207
51
43
207
51
43
207
51
43
207
51
43
207
51
43
207
51
43
207
51
43
207
51
43
207
51
43
207
51
43
207
51
43
207
51
43
207
51
43
207
51
43
207
51
43
207
51
43
207
51
43
207
51
43
207
51
43
207
51
43
207
51
43
207
51
43
207
51
43
207
51
43
207
51
43
207
51
43
207
51
43
207
51
43
207
51
43
207
51
43
207
51
43
207
51
43
207
51
43
207
51
43
207
51
43
207
51
43
207
51
43
207
51
43
207
51
43
207
51
43
207
51
43
207
51
43
207
51
43
207
51
43
207
51
43
207
51
43
207
51
43
207
51
43
207
51
43
207
51
43
207
51
43
207
51
43
207
51
43
207
51
43
207
51
43
207
51
43
207
51
43
207
51
43
207
51
43
207
51
43
207
51
43
207
51
43
207
51
43
207
51
43
207
51
43
207
51
43
207
51
43
207
51
43
207
51
43
207
51
43
207
51
43
207
51
43
207
51
43
207
51
43
207
51
43
207
51
43
207
51
43
207
51
43
207
51
43
207
51
43
207
51
43
207
51
43
207
51
43
207
51
43
207
51
43
207
51
43
207
51
43
207
51
43
207
51
43
207
51
43
207
51
43
207
51
43
207
51
43
207
51
43
207
51
43
207
51
43
207
51
43
207
51
43
207
51
43
207
51
43
207
51
43
207
51
43
207
51
43
207
51
43
207
51
43
207
51
43
207
51
43
207
51
43
207
51
43
207
51
43
207
51
43
207
51
43
207
51
43
207
51
43
207
51
43
207
51
43
207
51
43
207
51
43
207
51
43
207
51
43
207
51
43
207
51
43
207
51
43
207
51
43
207
51
43
207
51
43
207
51
43
207
51
43
207
51
43
207
51
43
207
51
43
207
51
43
207
51
43
207
51
43
207
51
43
207
51
43
207
51
43
207
51
43
207
51
43
207
51
43
207
51
43
207
51
43
207
51
43
207
51
43
207
51
43
207
51
43
207
51
43
207
51
43
207
51
43
207
51
43
207
51
43
207
51
43
207
51
43
207
51
43
207
51
43
207
51
43
207
51
43
207
51
43
207
51
43
207
51
43
207
51
43
207
51
43
207
51
43
207
51
43
207
51
43
207
51
43
207
51
43
207
51
43
207
51
43
207
51
43
207
51
43
207
51
43
207
51
43
207
51
43
207
51
43
207
51
43
207
51
43
207
51
43
207
51
43
207
51
43
207
51
43
207
51
43
207
51
43
207
51
43
207
51
43
207
51
43
207
51
43
207
51
43
207
51
43
207
51
43
207
51
43
207
51
43
207
51
43
207
51
43
207
51
43
207
51
43
207
51
43
207
51
43
207
51
43
207
51
43
207
51
43
207
51
43
207
51
43
207
51
43
207
51
43
207
51
43
207
51
43
207
51
43
207
51
43
207
51
43
207
51
43
207
51
43
207
51
43
207
51
43
207
51
43
207
51
43
207
51
43
207
51
43
207
51
43
207
51
43
207
51
43
207
51
43
207
51
43
207
51
43
207
51
43
207
51
43
207
51
43
207
51
43
207
51
43
207
51
43
207
51
43
207
51
43
207
51
43
207
51
43
207
51
43
207
51
43
207
51
43
207
51
43
207
51
43
207
51
43
207
51
43
207
51
43
207
51
43
207
51
43
207
51
43
207
51
43
207
51
43
207
51
43
207
51
43
207
51
43
207
51
43
207
51
43
207
51
43
207
51
43
207
51
43
207
51
43
207
51
43
207
51
43
207
51
43
207
51
43
207
51
43
207
51
43
207
51
43
207
51
43
207
51
43
207
51
43
207
51
43
207
51
43
207
51
43
207
51
43
207
51
43
207
51
43
207
51
43
207
51
43
207
51
43
207
51
43
207
51
43
207
51
43
207
51
43
207
51
43
207
51
43
207
51
43
207
51
43
207
51
43
207
51
43
207
51
43
207
51
43
207
51
43
207
51
43
207
51
43
207
51
43
207
51
43
207
51
43
207
51
43
207
51
43
207
51
43
207
51
43
207
51
43
207
51
43
207
51
43
207
51
43
207
51
43
207
51
43
207
51
43
207
51
43
207
51
43
207
51
43
207
51
43
207
51
43
207
51
43
207
51
43
207
51
43
207
51
43
207
51
43
207
51
43
207
51
43
207
51
43
207
51
43
207
51
43
207
51
43
207
51
43
207
51
43
207
51
43
207
51
43
207
51
43
207
51
43
207
51
43
207
51
43
207
51
43
207
51
43
207
51
43
207
51
43
207
51
43
207
51
43
207
51
43
207
51
43
207
51
43
207
51
43
207
51
43
207
51
43
207
51
43
207
51
43
207
51
43
207
51
43
207
51
43
207
51
43
207
51
43
207
51
43
207
51
43
207
51
43
207
51
43
207
51
43
207
51
43
207
51
43
207
51
43
207
51
43
207
51
43
207
51
43
207
51
43
207
51
43
207
51
43
207
51
43
207
51
43
207
51
43
207
51
43
207
51
43
207
51
43
207
51
43
207
51
43
207
51
43
207
51
43
207
51
43
207
51
43
207
51
43
207
51
43
207
51
43
207
51
43
207
51
43
207
51
43
207
51
43
207
51
43
207
51
43
207
51
43
207
51
43
207
51
43
207
51
43
207
51
43
207
51
43
207
51
43
207
51
43
207
51
43
207
51
43
207
51
43
207
51
43
207
51
43
207
51
43
207
51
43
207
51
43
207
51
43
207
51
43
207
51
43
207
51
43
207
51
43
207
51
43
207
51
43
207
51
43
207
51
43
207
51
43
207
51
43
207
51
43
207
51
43
207
51
43
207
51
43
207
51
43
207
51
43
207
51
43
207
51
43
207
51
43
207
51
43
207
51
43
207
51
43
207
51
43
207
51
43
207
51
43
207
51
43
207
51
43
207
51
43
207
51
43
207
51
43
207
51
43
207
51
43
207
51
43
207
51
43
207
51
43
207
51
43
207
51
43
207
51
43
207
51
43
207
51
43
207
51
43
207
51
43
207
51
43
207
51
43
207
51
43
207
51
43
207
51
43
207
51
43
207
51
43
207
51
43
207
51
43
207
51
43
207
51
43
207
51
43
207
51
43
207
51
43
207
51
43
207
51
43
207
51
43
207
51
43
207
51
43
207
51
43
207
51
43
207
51
43
207
51
43
207
51
43
207
51
43
207
51
43
207
51
43
207
51
43
207
51
43
207
51
43
207
51
43
207
51
43
207
51
43
207
51
43
207
51
43
207
51
43
207
51
43
207
51
43
207
51
43
207
51
43
207
51
43
207
51
43
207
51
43
207
51
43
207
51
43
207
51
43
207
51
43
207
51
43
207
51
43
207
51
43
207
51
43
207
51
43
207
51
43
207
51
43
207
51
43
207
51
43
207
51
43
207
51
43
207
51
43
207
51
43
207
51
43
207
51
43
207
51
43
207
51
43
207
51
43
207
51
43
207
51
43
207
51
43
207
51
43
207
51
43
207
51
43
207
51
43
207
51
43
207
51
43
207
51
43
207
51
43
207
51
43
207
51
43
207
51
43
207
51
43
207
51
43
207
51
43
207
51
43
207
51
43
207
51
43
207
51
43
207
51
43
207
51
43
207
51
43
207
51
43
207
51
43
207
51
43
207
51
43
207
51
43
207
51
43
207
51
43
207
51
43
207
51
43
207
51
43
207
51
43
207
51
43
207
51
43
207
51
43
207
51
43
207
51
43
207
51
43
207
51
43
207
51
43
207
51
43
207
51
43
207
51
43
207
51
43
207
51
43
207
51
43
207
51
43
207
51
43
207
51
43
207
51
43
207
51
43
207
51
43
207
51
43
207
51
43
207
51
43
207
51
43
207
51
43
207
51
43
207
51
43
207
51
43
207
51
43
207
51
43
207
51
43
207
51
43
207
51
43
207
51
43
207
51
43
207
51
43
207
51
43
207
51
43
207
51
43
207
51
43
207
51
43
207
51
43
207
51
43
207
51
43
207
51
43
207
51
43
207
51
43
207
51
43
207
51
43
207
51
43
207
51
43
207
51
43
207
51
43
207
51
43
207
51
43
207
51
43
207
51
43
207
51
43
207
51
43
207
51
43
207
51
43
207
51
43
207
51
43
207
51
43
207
51
43
207
51
43
207
51
43
207
51
43
207
51
43
207
51
43
207
51
43
207
51
43
207
51
43
207
51
43
207
51
43
207
51
43
207
51
43
207
51
43
207
51
43
207
51
43
207
51
43
207
51
43
207
51
43
207
51
43
207
51
43
207
51
43
207
51
43
207
51
43
207
51
43
207
51
43
207
51
43
207
51
43
207
51
43
207
51
43
207
51
43
207
51
43
207
51
43
207
51
43
207
51
43
207
51
43
207
51
43
207
51
43
207
51
43
207
51
43
207
51
43
207
51
43
207
51
43
207
51
43
207
51
43
207
51
43
207
51
43
207
51
43
207
51
43
207
51
43
207
51
43
207
51
43
207
51
43
207
51
43
207
51
43
207
51
43
207
51
43
207
51
43
207
51
43
207
51
43
207
51
43
207
51
43
207
51
43
207
51
43
207
51
43
207
51
43
207
51
43
207
51
43
207
51
43
207
51
43
207
51
43
207
51
43
207
51
43
207
51
43
207
51
43
207
51
43
207
51
43
207
51
43
207
51
43
207
51
43
207
51
43
207
51
43
207
51
43
207
51
43
207
51
43
207
51
43
207
51
43
207
51
43
207
51
43
207
51
43
207
51
43
207
51
43
207
51
43
207
51
43
207
51
43
207
51
43
207
51
43
207
51
43
207
51
43
207
51
43
207
51
43
207
51
43
207
51
43
207
51
43
207
51
43
207
51
43
207
51
43
207
51
43
207
51
43
207
51
43
207
51
43
207
51
43
207
51
43
207
51
43
207
51
43
207
51
43
207
51
43
207
51
43
207
51
43
207
51
43
207
51
43
207
51
43
207
51
43
207
51
43
207
51
43
207
51
43
207
51
43
207
51
43
207
51
43
207
51
43
207
51
43
207
51
43
207
51
43
207
51
43
207
51
43
207
51
43
207
51
43
207
51
43
207
51
43
207
51
43
207
51
43
207
51
43
207
51
43
207
51
43
207
51
43
207
51
43
207
51
43
207
51
43
207
51
43
207
51
43
207
51
43
207
51
43
207
51
43
207
51
43
207
51
43
207
51
43
207
51
43
207
51
43
207
51
43
207
51
43
207
51
43
207
51
43
207
51
43
207
51
43
207
51
43
207
51
43
207
51
43
207
51
43
207
51
43
207
51
43
207
51
43
207
51
43
207
51
43
207
51
43
207
51
43
207
51
43
207
51
43
207
51
43
207
51
43
207
51
43
207
51
43
207
51
43
207
51
43
207
51
43
207
51
43
207
51
43
207
51
43
207
51
43
207
51
43
207
51
43
207
51
43
207
51
43
207
51
43
207
51
43
207
51
43
207
51
43
207
51
43
207
51
43
207
51
43
207
51
43
207
51
43
207
51
43
207
51
43
207
51
43
207
51
43
207
51
43
207
51
43
207
51
43
207
51
43
207
51
43
207
51
43
207
51
43
207
51
43
207
51
43
207
51
43
207
51
43
207
51
43
207
51
43
207
51
43
207
51
43
207
51
43
207
51
43
207
51
43
207
51
43
207
51
43
207
51
43
207
51
43
207
51
43
207
51
43
207
51
43
207
51
43
207
51
43
207
51
43
207
51
43
207
51
43
207
51
43
207
51
43
207
51
43
207
51
43
207
51
43
207
51
43
207
51
43
207
51
43
207
51
43
207
51
43
207
51
43
207
51
43
207
51
43
207
51
43
207
51
43
207
51
43
207
51
43
207
51
43
207
51
43
207
51
43
207
51
43
207
51
43
207
51
43
207
51
43
207
51
43
207
51
43
207
51
43
207
51
43
207
51
43
207
51
43
207
51
43
207
51
43
207
51
43
207
51
43
207
51
43
207
51
43
207
51
43
207
51
43
207
51
43
207
51
43
207
51
43
207
51
43
207
51
43
207
51
43
207
51
43
207
51
43
207
51
43
207
51
43
207
51
43
207
51
43
207
51
43
207
51
43
207
51
43
207
51
43
207
51
43
207
51
43
207
51
43
207
51
43
207
51
43
207
51
43
207
51
43
207
51
43
207
51
43
207
51
43
207
51
43
207
51
43
207
51
43
207
51
43
207
51
43
207
51
43
207
51
43
207
51
43
207
51
43
207
51
43
207
51
43
207
51
43
207
51
43
207
51
43
207
51
43
207
51
43
207
51
43
207
51
43
207
51
43
207
51
43
207
51
43
207
51
43
207
51
43
207
51
43
207
51
43
207
51
43
207
51
43
207
51
43
207
51
43
207
51
43
207
51
43
207
51
43
207
51
43
207
51
43
207
51
43
207
51
43
207
51
43
207
51
43
207
51
43
207
51
43
207
51
43
207
51
43
207
51
43
207
51
43
207
51
43
207
51
43
207
51
43
207
51
43
207
51
43
207
51
43
207
51
43
207
51
43
207
51
43
207
51
43
207
51
43
207
51
43
207
51
43
207
51
43
207
51
43
207
51
43
207
51
43
207
51
43
207
51
43
207
51
43
207
51
43
207
51
43
207
51
43
207
51
43
207
51
43
207
51
43
207
51
43
207
51
43
207
51
43
207
51
43
207
51
43
207
51
43
207
51
43
207
51
43
207
51
43
207
51
43
207
51
43
207
51
43
207
51
43
207
51
43
207
51
43
207
51
43
207
51
43
207
51
43
207
51
43
207
51
43
207
51
43
207
51
43
207
51
43
207
51
43
207
51
43
207
51
43
207
51
43
207
51
43
207
51
43
207
51
43
207
51
43
207
51
43
207
51
43
207
51
43
207
51
43
207
51
43
207
51
43
207
51
43
207
51
43
207
51
43
207
51
43
207
51
43
207
51
43
207
51
43
207
51
43
207
51
43
207
51
43
207
51
43
207
51
43
207
51
43
207
51
43
207
51
43
207
51
43
207
51
43
207
51
43
207
51
43
207
51
43
207
51
43
207
51
43
207
51
43
207
51
43
207
51
43
207
51
43
207
51
43
207
51
43
207
51
43
207
51
43
207
51
43
207
51
43
207
51
43
207
51
43
207
51
43
207
51
43
207
51
43
207
51
43
207
51
43
207
51
43
207
51
43
207
51
43
207
51
43
207
51
43
207
51
43
207
51
43
207
51
43
207
51
43
207
51
43
207
51
43
207
51
43
207
51
43
207
51
43
207
51
43
207
51
43
207
51
43
207
51
43
207
51
43
207
51
43
207
51
43
207
51
43
207
51
43
207
51
43
207
51
43
207
51
43
207
51
43
207
51
43
207
51
43
207
51
43
207
51
43
207
51
43
207
51
43
207
51
43
207
51
43
207
51
43
207
51
43
207
51
43
207
51
43
207
51
43
207
51
43
207
51
43
207
51
43
207
51
43
207
51
43
207
51
43
207
51
43
207
51
43
207
51
43
207
51
43
207
51
43
207
51
43
207
51
43
207
51
43
207
51
43
207
51
43
207
51
43
207
51
43
207
51
43
207
51
43
207
51
43
207
51
43
207
51
43
207
51
43
207
51
43
207
51
43
207
51
43
207
51
43
207
51
43
207
51
43
207
51
43
207
51
43
207
51
43
207
51
43
207
51
43
207
51
43
207
51
43
207
51
43
207
51
43
207
51
43
207
51
43
207
51
43
207
51
43
207
51
43
207
51
43
207
51
43
207
51
43
207
51
43
207
51
43
207
51
43
207
51
43
207
51
43
207
51
43
207
51
43
207
51
43
207
51
43
207
51
43
207
51
43
207
51
43
207
51
43
207
51
43
207
51
43
207
51
43
207
51
43
207
51
43
207
51
43
207
51
43
207
51
43
207
51
43
207
51
43
207
51
43
207
51
43
207
51
43
207
51
43
207
51
43
207
51
43
207
51
43
207
51
43
207
51
43
207
51
43
207
51
43
207
51
43
207
51
43
207
51
43
207
51
43
207
51
43
207
51
43
207
51
43
207
51
43
207
51
43
207
51
43
207
51
43
207
51
43
207
51
43
207
51
43
207
51
43
207
51
43
207
51
43
207
51
43
207
51
43
207
51
43
207
51
43
207
51
43
207
51
43
207
51
43
207
51
43
207
51
43
207
51
43
207
51
43
207
51
43
207
51
43
207
51
43
207
51
43
207
51
43
207
51
43
207
51
43
207
51
43
207
51
43
207
51
43
207
51
43
207
51
43
207
51
43
207
51
43
207
51
43
207
51
43
207
51
43
207
51
43
207
51
43
207
51
43
207
51
43
207
51
43
207
51
43
207
51
43
207
51
43
207
51
43
207
51
43
207
51
43
207
51
43
207
51
43
207
51
43
207
51
43
207
51
43
207
51
43
207
51
43
207
51
43
207
51
43
207
51
43
207
51
43
207
51
43
207
51
43
207
51
43
207
51
43
207
51
43
207
51
43
207
51
43
207
51
43
207
51
43
207
51
43
207
51
43
207
51
43
207
51
43
207
51
43
207
51
43
207
51
43
207
51
43
207
51
43
207
51
43
207
51
43
207
51
43
207
51
43
207
51
43
207
51
43
207
51
43
207
51
43
207
51
43
207
51
43
207
51
43
207
51
43
207
51
43
207
51
43
207
51
43
207
51
43
207
51
43
207
51
43
207
51
43
207
51
43
207
51
43
207
51
43
207
51
43
207
51
43
207
51
43
207
51
43
207
51
43
207
51
43
207
51
43
207
51
43
207
51
43
207
51
43
207
51
43
207
51
43
207
51
43
207
51
43
207
51
43
207
51
43
207
51
43
207
51
43
207
51
43
207
51
43
207
51
43
207
51
43
207
51
43
207
51
43
207
51
43
207
51
43
207
51
43
207
51
43
207
51
43
207
51
43
207
51
43
207
51
43
207
51
43
207
51
43
207
51
43
207
51
43
207
51
43
207
51
43
207
51
43
207
51
43
207
51
43
207
51
43
207
51
43
207
51
43
207
51
43
207
51
43
207
51
43
207
51
43
207
51
43
207
51
43
207
51
43
207
51
43
207
51
43
207
51
43
207
51
43
207
51
43
207
51
43
207
51
43
207
51
43
207
51
43
207
51
43
207
51
43
207
51
43
207
51
43
207
51
43
207
51
43
207
51
43
207
51
43
207
51
43
207
51
43
207
51
43
207
51
43
207
51
43
207
51
43
207
51
43
207
51
43
207
51
43
207
51
43
207
51
43
207
51
43
207
51
43
207
51
43
207
51
43
207
51
43
207
51
43
207
51
43
207
51
43
207
51
43
207
51
43
207
51
43
207
51
43
207
51
43
207
51
43
207
51
43
207
51
43
207
51
43
207
51
43
207
51
43
207
51
43
207
51
43
207
51
43
207
51
43
207
51
43
207
51
43
207
51
43
207
51
43
207
51
43
207
51
43
207
51
43
207
51
43
207
51
43
207
51
43
207
51
43
207
51
43
207
51
43
207
51
43
207
51
43
207
51
43
207
51
43
207
51
43
207
51
43
207
51
43
207
51
43
207
51
43
207
51
43
207
51
43
207
51
43
207
51
43
207
51
43
207
51
43
207
51
43
207
51
43
207
51
43
207
51
43
207
51
43
207
51
43
207
51
43
207
51
43
207
51
43
207
51
43
207
51
43
207
51
43
207
51
43
207
51
43
207
51
43
207
51
43
207
51
43
207
51
43
207
51
43
207
51
43
207
51
43
207
51
43
207
51
43
207
51
43
207
51
43
207
51
43
207
51
43
207
51
43
207
51
43
207
51
43
207
51
43
207
51
43
207
51
43
207
51
43
207
51
43
207
51
43
207
51
43
207
51
43
207
51
43
207
51
43
207
51
43
207
51
43
207
51
43
207
51
43
207
51
43
207
51
43
207
51
43
207
51
43
207
51
43
207
51
43
207
51
43
207
51
43
207
51
43
207
51
43
207
51
43
207
51
43
207
51
43
207
51
43
207
51
43
207
51
43
207
51
43
207
51
43
207
51
43
207
51
43
207
51
43
207
51
43
207
51
43
207
51
43
207
51
43
207
51
43
207
51
43
207
51
43
207
51
43
207
51
43
207
51
43
207
51
43
207
51
43
207
51
43
207
51
43
207
51
43
207
51
43
207
51
43
207
51
43
207
51
43
207
51
43
207
51
43
207
51
43
207
51
43
207
51
43
207
51
43
207
51
43
207
51
43
207
51
43
207
51
43
207
51
43
207
51
43
207
51
43
207
51
43
207
51
43
207
51
43
207
51
43
207
51
43
207
51
43
207
51
43
207
51
43
207
51
43
207
51
43
207
51
43
207
51
43
207
51
43
207
51
43
207
51
43
207
51
43
207
51
43
207
51
43
207
51
43
207
51
43
207
51
43
207
51
43
207
51
43
207
51
43
207
51
43
207
51
43
207
51
43
207
51
43
207
51
43
207
51
43
207
51
43
207
51
43
207
51
43
207
51
43
207
51
43
207
51
43
207
51
43
207
51
43
207
51
43
207
51
43
207
51
43
207
51
43
207
51
43
207
51
43
207
51
43
207
51
43
207
51
43
207
51
43
207
51
43
207
51
43
207
51
43
207
